(ZF-6_vog_MERGE_ver_1)
(T12 D=8 CR=4 - ZMIN=-51.376 - ball end mill)
(Trace1)
S24000 M3 
G17 
G0 X38.346 Y8.808 
Z15 
Z2.213 
G1 Z0.213 F80 
X42.057 Y8.547 Z-1.274 F3000 
X45.778 Y8.29 Z-2.739 
X49.507 Y8.037 Z-4.181 
X53.245 Y7.788 Z-5.601 
X56.992 Y7.543 Z-6.998 
X60.748 Y7.302 Z-8.372 
X64.512 Y7.065 Z-9.723 
X68.284 Y6.832 Z-11.052 
X72.065 Y6.603 Z-12.358 
X75.854 Y6.378 Z-13.642 
X79.65 Y6.157 Z-14.903 
X83.455 Y5.94 Z-16.14 
X87.267 Y5.727 Z-17.355 
X91.086 Y5.518 Z-18.547 
X94.913 Y5.314 Z-19.716 
X98.748 Y5.113 Z-20.863 
X102.589 Y4.916 Z-21.986 
X106.437 Y4.723 Z-23.087 
X110.293 Y4.534 Z-24.164 
X114.155 Y4.349 Z-25.218 
X118.024 Y4.168 Z-26.249 
X121.899 Y3.992 Z-27.258 
X125.78 Y3.819 Z-28.243 
X129.668 Y3.651 Z-29.205 
X133.562 Y3.486 Z-30.143 
X137.461 Y3.326 Z-31.059 
X141.366 Y3.169 Z-31.951 
X145.277 Y3.017 Z-32.82 
X149.192 Y2.869 Z-33.666 
X153.113 Y2.725 Z-34.488 
X157.039 Y2.585 Z-35.287 
X160.97 Y2.449 Z-36.063 
X164.905 Y2.317 Z-36.815 
X168.845 Y2.19 Z-37.544 
X172.79 Y2.066 Z-38.25 
X176.74 Y1.947 Z-38.932 
X180.693 Y1.831 Z-39.591 
X184.651 Y1.72 Z-40.226 
X188.613 Y1.613 Z-40.837 
X192.579 Y1.51 Z-41.425 
X196.549 Y1.412 Z-41.99 
X200.522 Y1.317 Z-42.53 
X204.498 Y1.227 Z-43.047 
X208.478 Y1.14 Z-43.541 
X212.461 Y1.058 Z-44.01 
X216.447 Y0.98 Z-44.456 
X220.435 Y0.906 Z-44.878 
X224.426 Y0.837 Z-45.277 
X228.419 Y0.771 Z-45.651 
X232.415 Y0.71 Z-46.001 
X236.412 Y0.653 Z-46.328 
X240.412 Y0.6 Z-46.631 
X244.413 Y0.552 Z-46.909 
X248.416 Y0.508 Z-47.164 
X252.42 Y0.467 Z-47.394 
X256.425 Y0.432 Z-47.6 
X260.432 Y0.4 Z-47.782 
X264.439 Y0.373 Z-47.94 
X268.447 Y0.349 Z-48.074 
X272.456 Y0.33 Z-48.184 
X276.465 Y0.316 Z-48.269 
X280.475 Y0.305 Z-48.33 
X284.484 Y0.299 Z-48.367 
X288.494 Y0.297 Z-48.379 
Y0.298 
X292.516 Y0.299 Z-48.366 
X296.526 Y0.305 Z-48.33 
X300.535 Y0.316 Z-48.269 
X304.544 Y0.33 Z-48.184 
X308.553 Y0.349 Z-48.074 
X312.56 Y0.372 Z-47.94 
X316.567 Y0.4 Z-47.783 
X320.573 Y0.431 Z-47.601 
X324.578 Y0.467 Z-47.395 
X328.581 Y0.507 Z-47.164 
X332.583 Y0.552 Z-46.91 
X336.583 Y0.6 Z-46.632 
X340.581 Y0.653 Z-46.329 
X344.577 Y0.71 Z-46.003 
X348.571 Y0.771 Z-45.653 
X352.563 Y0.837 Z-45.279 
X356.553 Y0.906 Z-44.881 
X360.54 Y0.98 Z-44.459 
X364.524 Y1.058 Z-44.013 
X368.505 Y1.14 Z-43.543 
X372.484 Y1.226 Z-43.05 
X376.459 Y1.316 Z-42.533 
X380.432 Y1.411 Z-41.993 
X384.4 Y1.51 Z-41.428 
X388.366 Y1.613 Z-40.84 
X392.327 Y1.72 Z-40.229 
X396.285 Y1.831 Z-39.594 
X400.238 Y1.946 Z-38.935 
X404.188 Y2.066 Z-38.253 
X408.133 Y2.189 Z-37.547 
X412.074 Y2.317 Z-36.818 
X416.01 Y2.449 Z-36.066 
X419.941 Y2.585 Z-35.29 
X423.867 Y2.724 Z-34.491 
X427.788 Y2.869 Z-33.668 
X431.704 Y3.017 Z-32.822 
X435.614 Y3.169 Z-31.953 
X439.519 Y3.325 Z-31.061 
X443.418 Y3.486 Z-30.146 
X447.311 Y3.65 Z-29.207 
X451.199 Y3.819 Z-28.245 
X455.08 Y3.991 Z-27.26 
X458.955 Y4.168 Z-26.252 
X462.824 Y4.349 Z-25.221 
X466.687 Y4.533 Z-24.166 
X470.542 Y4.722 Z-23.089 
X474.391 Y4.915 Z-21.989 
X478.233 Y5.112 Z-20.865 
X482.068 Y5.313 Z-19.719 
X485.896 Y5.518 Z-18.55 
X489.716 Y5.727 Z-17.358 
X493.529 Y5.94 Z-16.143 
X497.335 Y6.157 Z-14.905 
X501.133 Y6.378 Z-13.645 
X504.923 Y6.603 Z-12.361 
X508.704 Y6.832 Z-11.055 
X512.478 Y7.065 Z-9.726 
X516.244 Y7.302 Z-8.375 
X520.001 Y7.543 Z-7.001 
X523.749 Y7.788 Z-5.604 
X527.489 Y8.037 Z-4.184 
X531.22 Y8.289 Z-2.742 
X534.942 Y8.546 Z-1.277 
X538.655 Y8.807 Z0.21 
Z-0.09 F80 
X534.942 Y8.546 Z-1.577 F3000 
X531.22 Y8.289 Z-3.042 
X527.489 Y8.037 Z-4.484 
X523.749 Y7.788 Z-5.904 
X520.001 Y7.543 Z-7.3 
X516.244 Y7.302 Z-8.675 
X512.478 Y7.065 Z-10.026 
X508.704 Y6.832 Z-11.355 
X504.923 Y6.603 Z-12.661 
X501.133 Y6.378 Z-13.945 
X497.335 Y6.157 Z-15.205 
X493.529 Y5.94 Z-16.443 
X489.716 Y5.727 Z-17.658 
X485.896 Y5.518 Z-18.85 
X482.068 Y5.313 Z-20.019 
X478.233 Y5.112 Z-21.166 
X474.391 Y4.915 Z-22.289 
X470.542 Y4.722 Z-23.389 
X466.687 Y4.533 Z-24.466 
X462.824 Y4.349 Z-25.521 
X458.955 Y4.168 Z-26.552 
X455.08 Y3.991 Z-27.56 
X451.199 Y3.819 Z-28.545 
X447.311 Y3.65 Z-29.507 
X443.418 Y3.486 Z-30.445 
X439.519 Y3.325 Z-31.361 
X435.614 Y3.169 Z-32.253 
X431.704 Y3.017 Z-33.123 
X427.788 Y2.869 Z-33.968 
X423.867 Y2.724 Z-34.791 
X419.941 Y2.585 Z-35.59 
X416.01 Y2.449 Z-36.366 
X412.074 Y2.317 Z-37.118 
X408.133 Y2.189 Z-37.847 
X404.188 Y2.066 Z-38.553 
X400.238 Y1.946 Z-39.235 
X396.285 Y1.831 Z-39.894 
X392.327 Y1.72 Z-40.529 
X388.366 Y1.613 Z-41.14 
X384.4 Y1.51 Z-41.728 
X380.432 Y1.411 Z-42.293 
X376.459 Y1.316 Z-42.833 
X372.484 Y1.226 Z-43.35 
X368.505 Y1.14 Z-43.843 
X364.524 Y1.058 Z-44.313 
X360.54 Y0.98 Z-44.759 
X356.553 Y0.906 Z-45.181 
X352.563 Y0.837 Z-45.579 
X348.571 Y0.771 Z-45.953 
X344.577 Y0.71 Z-46.303 
X340.581 Y0.653 Z-46.629 
X336.583 Y0.6 Z-46.932 
X332.583 Y0.552 Z-47.21 
X328.581 Y0.507 Z-47.464 
X324.578 Y0.467 Z-47.694 
X320.573 Y0.431 Z-47.901 
X316.567 Y0.4 Z-48.083 
X312.56 Y0.372 Z-48.241 
X308.553 Y0.349 Z-48.374 
X304.544 Y0.33 Z-48.484 
X300.535 Y0.316 Z-48.569 
X296.526 Y0.305 Z-48.63 
X292.516 Y0.299 Z-48.666 
X288.494 Y0.298 Z-48.679 
Y0.297 
X284.484 Y0.299 Z-48.667 
X280.475 Y0.305 Z-48.63 
X276.465 Y0.316 Z-48.569 
X272.456 Y0.33 Z-48.484 
X268.447 Y0.349 Z-48.374 
X264.439 Y0.373 Z-48.24 
X260.432 Y0.4 Z-48.082 
X256.425 Y0.432 Z-47.9 
X252.42 Y0.467 Z-47.694 
X248.416 Y0.508 Z-47.464 
X244.413 Y0.552 Z-47.209 
X240.412 Y0.6 Z-46.931 
X236.412 Y0.653 Z-46.628 
X232.415 Y0.71 Z-46.301 
X228.419 Y0.771 Z-45.951 
X224.426 Y0.837 Z-45.577 
X220.435 Y0.906 Z-45.178 
X216.447 Y0.98 Z-44.756 
X212.461 Y1.058 Z-44.31 
X208.478 Y1.14 Z-43.841 
X204.498 Y1.227 Z-43.347 
X200.522 Y1.317 Z-42.83 
X196.549 Y1.412 Z-42.29 
X192.579 Y1.51 Z-41.725 
X188.613 Y1.613 Z-41.137 
X184.651 Y1.72 Z-40.526 
X180.693 Y1.831 Z-39.891 
X176.74 Y1.947 Z-39.232 
X172.79 Y2.066 Z-38.55 
X168.845 Y2.19 Z-37.844 
X164.905 Y2.317 Z-37.116 
X160.97 Y2.449 Z-36.363 
X157.039 Y2.585 Z-35.588 
X153.113 Y2.725 Z-34.789 
X149.192 Y2.869 Z-33.966 
X145.277 Y3.017 Z-33.12 
X141.366 Y3.169 Z-32.251 
X137.461 Y3.326 Z-31.359 
X133.562 Y3.486 Z-30.444 
X129.668 Y3.651 Z-29.505 
X125.78 Y3.819 Z-28.543 
X121.899 Y3.992 Z-27.558 
X118.024 Y4.168 Z-26.549 
X114.155 Y4.349 Z-25.518 
X110.293 Y4.534 Z-24.464 
X106.437 Y4.723 Z-23.386 
X102.589 Y4.916 Z-22.286 
X98.748 Y5.113 Z-21.163 
X94.913 Y5.314 Z-20.017 
X91.086 Y5.518 Z-18.847 
X87.267 Y5.727 Z-17.655 
X83.455 Y5.94 Z-16.44 
X79.65 Y6.157 Z-15.203 
X75.854 Y6.378 Z-13.942 
X72.065 Y6.603 Z-12.658 
X68.284 Y6.832 Z-11.352 
X64.512 Y7.065 Z-10.023 
X60.748 Y7.302 Z-8.672 
X56.992 Y7.543 Z-7.298 
X53.245 Y7.788 Z-5.901 
X49.507 Y8.037 Z-4.481 
X45.778 Y8.29 Z-3.039 
X42.057 Y8.547 Z-1.574 
X38.346 Y8.808 Z-0.087 
Z-0.387 F80 
X42.057 Y8.547 Z-1.874 F3000 
X45.778 Y8.29 Z-3.339 
X49.507 Y8.037 Z-4.781 
X53.245 Y7.788 Z-6.201 
X56.992 Y7.543 Z-7.598 
X60.748 Y7.302 Z-8.972 
X64.512 Y7.065 Z-10.323 
X68.284 Y6.832 Z-11.652 
X72.065 Y6.603 Z-12.958 
X75.854 Y6.378 Z-14.242 
X79.65 Y6.157 Z-15.502 
X83.455 Y5.94 Z-16.74 
X87.267 Y5.727 Z-17.955 
X91.086 Y5.518 Z-19.147 
X94.913 Y5.314 Z-20.316 
X98.748 Y5.113 Z-21.463 
X102.589 Y4.916 Z-22.586 
X106.437 Y4.723 Z-23.687 
X110.293 Y4.534 Z-24.764 
X114.155 Y4.349 Z-25.818 
X118.024 Y4.168 Z-26.849 
X121.899 Y3.992 Z-27.858 
X125.78 Y3.819 Z-28.843 
X129.668 Y3.651 Z-29.805 
X133.562 Y3.486 Z-30.743 
X137.461 Y3.326 Z-31.659 
X141.366 Y3.169 Z-32.551 
X145.277 Y3.017 Z-33.42 
X149.192 Y2.869 Z-34.266 
X153.113 Y2.725 Z-35.089 
X157.039 Y2.585 Z-35.888 
X160.97 Y2.449 Z-36.663 
X164.905 Y2.317 Z-37.416 
X168.845 Y2.19 Z-38.144 
X172.79 Y2.066 Z-38.85 
X176.74 Y1.947 Z-39.532 
X180.693 Y1.831 Z-40.191 
X184.651 Y1.72 Z-40.826 
X188.613 Y1.613 Z-41.437 
X192.579 Y1.51 Z-42.025 
X196.549 Y1.412 Z-42.59 
X200.522 Y1.317 Z-43.13 
X204.498 Y1.227 Z-43.647 
X208.478 Y1.14 Z-44.141 
X212.461 Y1.058 Z-44.61 
X216.447 Y0.98 Z-45.056 
X220.435 Y0.906 Z-45.478 
X224.426 Y0.837 Z-45.877 
X228.419 Y0.771 Z-46.251 
X232.415 Y0.71 Z-46.601 
X236.412 Y0.653 Z-46.928 
X240.412 Y0.6 Z-47.23 
X244.413 Y0.552 Z-47.509 
X248.416 Y0.508 Z-47.764 
X252.42 Y0.467 Z-47.994 
X256.425 Y0.432 Z-48.2 
X260.432 Y0.4 Z-48.382 
X264.439 Y0.373 Z-48.54 
X268.447 Y0.349 Z-48.674 
X272.456 Y0.33 Z-48.784 
X276.465 Y0.316 Z-48.869 
X280.475 Y0.305 Z-48.93 
X284.484 Y0.299 Z-48.967 
X288.494 Y0.297 Z-48.979 
Y0.298 
X292.516 Y0.299 Z-48.966 
X296.526 Y0.305 Z-48.93 
X300.535 Y0.316 Z-48.869 
X304.544 Y0.33 Z-48.784 
X308.553 Y0.349 Z-48.674 
X312.56 Y0.372 Z-48.541 
X316.567 Y0.4 Z-48.383 
X320.573 Y0.431 Z-48.201 
X324.578 Y0.467 Z-47.994 
X328.581 Y0.507 Z-47.764 
X332.583 Y0.552 Z-47.51 
X336.583 Y0.6 Z-47.232 
X340.581 Y0.653 Z-46.929 
X344.577 Y0.71 Z-46.603 
X348.571 Y0.771 Z-46.253 
X352.563 Y0.837 Z-45.879 
X356.553 Y0.906 Z-45.481 
X360.54 Y0.98 Z-45.059 
X364.524 Y1.058 Z-44.613 
X368.505 Y1.14 Z-44.144 
X372.484 Y1.226 Z-43.65 
X376.459 Y1.316 Z-43.133 
X380.432 Y1.411 Z-42.593 
X384.4 Y1.51 Z-42.028 
X388.366 Y1.613 Z-41.44 
X392.327 Y1.72 Z-40.829 
X396.285 Y1.831 Z-40.194 
X400.238 Y1.946 Z-39.535 
X404.188 Y2.066 Z-38.853 
X408.133 Y2.189 Z-38.147 
X412.074 Y2.317 Z-37.418 
X416.01 Y2.449 Z-36.666 
X419.941 Y2.585 Z-35.89 
X423.867 Y2.724 Z-35.091 
X427.788 Y2.869 Z-34.268 
X431.704 Y3.017 Z-33.423 
X435.614 Y3.169 Z-32.553 
X439.519 Y3.325 Z-31.661 
X443.418 Y3.486 Z-30.746 
X447.311 Y3.65 Z-29.807 
X451.199 Y3.819 Z-28.845 
X455.08 Y3.991 Z-27.86 
X458.955 Y4.168 Z-26.852 
X462.824 Y4.349 Z-25.821 
X466.687 Y4.533 Z-24.766 
X470.542 Y4.722 Z-23.689 
X474.391 Y4.915 Z-22.589 
X478.233 Y5.112 Z-21.465 
X482.068 Y5.313 Z-20.319 
X485.896 Y5.518 Z-19.15 
X489.716 Y5.727 Z-17.958 
X493.529 Y5.94 Z-16.743 
X497.335 Y6.157 Z-15.505 
X501.133 Y6.378 Z-14.245 
X504.923 Y6.603 Z-12.961 
X508.704 Y6.832 Z-11.655 
X512.478 Y7.065 Z-10.326 
X516.244 Y7.302 Z-8.975 
X520.001 Y7.543 Z-7.601 
X523.749 Y7.788 Z-6.204 
X527.489 Y8.037 Z-4.784 
X531.22 Y8.289 Z-3.342 
X534.942 Y8.546 Z-1.877 
X538.655 Y8.807 Z-0.39 
Z-0.69 F80 
X534.942 Y8.546 Z-2.177 F3000 
X531.22 Y8.289 Z-3.642 
X527.489 Y8.037 Z-5.084 
X523.749 Y7.788 Z-6.504 
X520.001 Y7.543 Z-7.9 
X516.244 Y7.302 Z-9.275 
X512.478 Y7.065 Z-10.626 
X508.704 Y6.832 Z-11.955 
X504.923 Y6.603 Z-13.261 
X501.133 Y6.378 Z-14.545 
X497.335 Y6.157 Z-15.805 
X493.529 Y5.94 Z-17.043 
X489.716 Y5.727 Z-18.258 
X485.896 Y5.518 Z-19.45 
X482.068 Y5.313 Z-20.619 
X478.233 Y5.112 Z-21.765 
X474.391 Y4.915 Z-22.889 
X470.542 Y4.722 Z-23.989 
X466.687 Y4.533 Z-25.066 
X462.824 Y4.349 Z-26.121 
X458.955 Y4.168 Z-27.152 
X455.08 Y3.991 Z-28.16 
X451.199 Y3.819 Z-29.145 
X447.311 Y3.65 Z-30.107 
X443.418 Y3.486 Z-31.045 
X439.519 Y3.325 Z-31.961 
X435.614 Y3.169 Z-32.853 
X431.704 Y3.017 Z-33.722 
X427.788 Y2.869 Z-34.568 
X423.867 Y2.724 Z-35.391 
X419.941 Y2.585 Z-36.19 
X416.01 Y2.449 Z-36.966 
X412.074 Y2.317 Z-37.718 
X408.133 Y2.189 Z-38.447 
X404.188 Y2.066 Z-39.153 
X400.238 Y1.946 Z-39.835 
X396.285 Y1.831 Z-40.494 
X392.327 Y1.72 Z-41.129 
X388.366 Y1.613 Z-41.741 
X384.4 Y1.51 Z-42.328 
X380.432 Y1.411 Z-42.893 
X376.459 Y1.316 Z-43.433 
X372.484 Y1.226 Z-43.95 
X368.505 Y1.14 Z-44.444 
X364.524 Y1.058 Z-44.913 
X360.54 Y0.98 Z-45.359 
X356.553 Y0.906 Z-45.781 
X352.563 Y0.837 Z-46.179 
X348.571 Y0.771 Z-46.553 
X344.577 Y0.71 Z-46.903 
X340.581 Y0.653 Z-47.229 
X336.583 Y0.6 Z-47.532 
X332.583 Y0.552 Z-47.81 
X328.581 Y0.507 Z-48.064 
X324.578 Y0.467 Z-48.294 
X320.573 Y0.431 Z-48.501 
X316.567 Y0.4 Z-48.683 
X312.56 Y0.372 Z-48.84 
X308.553 Y0.349 Z-48.974 
X304.544 Y0.33 Z-49.084 
X300.535 Y0.316 Z-49.169 
X296.526 Y0.305 Z-49.23 
X292.516 Y0.299 Z-49.266 
X288.494 Y0.298 Z-49.279 
Y0.297 
X284.484 Y0.299 Z-49.267 
X280.475 Y0.305 Z-49.23 
X276.465 Y0.316 Z-49.169 
X272.456 Y0.33 Z-49.084 
X268.447 Y0.349 Z-48.974 
X264.439 Y0.373 Z-48.84 
X260.432 Y0.4 Z-48.682 
X256.425 Y0.432 Z-48.5 
X252.42 Y0.467 Z-48.294 
X248.416 Y0.508 Z-48.063 
X244.413 Y0.552 Z-47.809 
X240.412 Y0.6 Z-47.53 
X236.412 Y0.653 Z-47.228 
X232.415 Y0.71 Z-46.901 
X228.419 Y0.771 Z-46.551 
X224.426 Y0.837 Z-46.177 
X220.435 Y0.906 Z-45.778 
X216.447 Y0.98 Z-45.356 
X212.461 Y1.058 Z-44.91 
X208.478 Y1.14 Z-44.441 
X204.498 Y1.227 Z-43.947 
X200.522 Y1.317 Z-43.43 
X196.549 Y1.412 Z-42.89 
X192.579 Y1.51 Z-42.325 
X188.613 Y1.613 Z-41.737 
X184.651 Y1.72 Z-41.126 
X180.693 Y1.831 Z-40.491 
X176.74 Y1.947 Z-39.832 
X172.79 Y2.066 Z-39.15 
X168.845 Y2.19 Z-38.444 
X164.905 Y2.317 Z-37.715 
X160.97 Y2.449 Z-36.963 
X157.039 Y2.585 Z-36.188 
X153.113 Y2.725 Z-35.389 
X149.192 Y2.869 Z-34.566 
X145.277 Y3.017 Z-33.72 
X141.366 Y3.169 Z-32.851 
X137.461 Y3.326 Z-31.959 
X133.562 Y3.486 Z-31.044 
X129.668 Y3.651 Z-30.105 
X125.78 Y3.819 Z-29.143 
X121.899 Y3.992 Z-28.158 
X118.024 Y4.168 Z-27.149 
X114.155 Y4.349 Z-26.118 
X110.293 Y4.534 Z-25.064 
X106.437 Y4.723 Z-23.986 
X102.589 Y4.916 Z-22.886 
X98.748 Y5.113 Z-21.763 
X94.913 Y5.314 Z-20.617 
X91.086 Y5.518 Z-19.447 
X87.267 Y5.727 Z-18.255 
X83.455 Y5.94 Z-17.04 
X79.65 Y6.157 Z-15.802 
X75.854 Y6.378 Z-14.542 
X72.065 Y6.603 Z-13.259 
X68.284 Y6.832 Z-11.952 
X64.512 Y7.065 Z-10.623 
X60.748 Y7.302 Z-9.272 
X56.992 Y7.543 Z-7.898 
X53.245 Y7.788 Z-6.501 
X49.507 Y8.037 Z-5.081 
X45.778 Y8.29 Z-3.639 
X42.057 Y8.547 Z-2.174 
X38.346 Y8.808 Z-0.687 
Z-0.987 F80 
X42.057 Y8.547 Z-2.474 F3000 
X45.778 Y8.29 Z-3.939 
X49.507 Y8.037 Z-5.381 
X53.245 Y7.788 Z-6.801 
X56.992 Y7.543 Z-8.198 
X60.748 Y7.302 Z-9.572 
X64.512 Y7.065 Z-10.923 
X68.284 Y6.832 Z-12.252 
X72.065 Y6.603 Z-13.559 
X75.854 Y6.378 Z-14.842 
X79.65 Y6.157 Z-16.103 
X83.455 Y5.94 Z-17.34 
X87.267 Y5.727 Z-18.555 
X91.086 Y5.518 Z-19.747 
X94.913 Y5.314 Z-20.917 
X98.748 Y5.113 Z-22.063 
X102.589 Y4.916 Z-23.186 
X106.437 Y4.723 Z-24.287 
X110.293 Y4.534 Z-25.364 
X114.155 Y4.349 Z-26.418 
X118.024 Y4.168 Z-27.449 
X121.899 Y3.992 Z-28.458 
X125.78 Y3.819 Z-29.443 
X129.668 Y3.651 Z-30.405 
X133.562 Y3.486 Z-31.344 
X137.461 Y3.326 Z-32.259 
X141.366 Y3.169 Z-33.151 
X145.277 Y3.017 Z-34.02 
X149.192 Y2.869 Z-34.866 
X153.113 Y2.725 Z-35.688 
X157.039 Y2.585 Z-36.487 
X160.97 Y2.449 Z-37.263 
X164.905 Y2.317 Z-38.015 
X168.845 Y2.19 Z-38.744 
X172.79 Y2.066 Z-39.45 
X176.74 Y1.947 Z-40.132 
X180.693 Y1.831 Z-40.791 
X184.651 Y1.72 Z-41.426 
X188.613 Y1.613 Z-42.037 
X192.579 Y1.51 Z-42.625 
X196.549 Y1.412 Z-43.19 
X200.522 Y1.317 Z-43.73 
X204.498 Y1.227 Z-44.247 
X208.478 Y1.14 Z-44.741 
X212.461 Y1.058 Z-45.21 
X216.447 Y0.98 Z-45.656 
X220.435 Y0.906 Z-46.078 
X224.426 Y0.837 Z-46.477 
X228.419 Y0.771 Z-46.851 
X232.415 Y0.71 Z-47.201 
X236.412 Y0.653 Z-47.528 
X240.412 Y0.6 Z-47.831 
X244.413 Y0.552 Z-48.109 
X248.416 Y0.508 Z-48.363 
X252.42 Y0.467 Z-48.594 
X256.425 Y0.432 Z-48.8 
X260.432 Y0.4 Z-48.982 
X264.439 Y0.373 Z-49.14 
X268.447 Y0.349 Z-49.274 
X272.456 Y0.33 Z-49.384 
X276.465 Y0.316 Z-49.469 
X280.475 Y0.305 Z-49.53 
X284.484 Y0.299 Z-49.567 
X288.494 Y0.297 Z-49.579 
Y0.298 
X292.516 Y0.299 Z-49.566 
X296.526 Y0.305 Z-49.53 
X300.535 Y0.316 Z-49.469 
X304.544 Y0.33 Z-49.384 
X308.553 Y0.349 Z-49.274 
X312.56 Y0.372 Z-49.14 
X316.567 Y0.4 Z-48.983 
X320.573 Y0.431 Z-48.801 
X324.578 Y0.467 Z-48.595 
X328.581 Y0.507 Z-48.364 
X332.583 Y0.552 Z-48.11 
X336.583 Y0.6 Z-47.832 
X340.581 Y0.653 Z-47.529 
X344.577 Y0.71 Z-47.203 
X348.571 Y0.771 Z-46.853 
X352.563 Y0.837 Z-46.479 
X356.553 Y0.906 Z-46.081 
X360.54 Y0.98 Z-45.659 
X364.524 Y1.058 Z-45.213 
X368.505 Y1.14 Z-44.743 
X372.484 Y1.226 Z-44.25 
X376.459 Y1.316 Z-43.733 
X380.432 Y1.411 Z-43.193 
X384.4 Y1.51 Z-42.628 
X388.366 Y1.613 Z-42.041 
X392.327 Y1.72 Z-41.429 
X396.285 Y1.831 Z-40.794 
X400.238 Y1.946 Z-40.135 
X404.188 Y2.066 Z-39.453 
X408.133 Y2.189 Z-38.747 
X412.074 Y2.317 Z-38.018 
X416.01 Y2.449 Z-37.266 
X419.941 Y2.585 Z-36.49 
X423.867 Y2.724 Z-35.691 
X427.788 Y2.869 Z-34.868 
X431.704 Y3.017 Z-34.022 
X435.614 Y3.169 Z-33.153 
X439.519 Y3.325 Z-32.261 
X443.418 Y3.486 Z-31.346 
X447.311 Y3.65 Z-30.407 
X451.199 Y3.819 Z-29.445 
X455.08 Y3.991 Z-28.46 
X458.955 Y4.168 Z-27.452 
X462.824 Y4.349 Z-26.421 
X466.687 Y4.533 Z-25.366 
X470.542 Y4.722 Z-24.289 
X474.391 Y4.915 Z-23.189 
X478.233 Y5.112 Z-22.066 
X482.068 Y5.313 Z-20.919 
X485.896 Y5.518 Z-19.75 
X489.716 Y5.727 Z-18.558 
X493.529 Y5.94 Z-17.343 
X497.335 Y6.157 Z-16.105 
X501.133 Y6.378 Z-14.845 
X504.923 Y6.603 Z-13.561 
X508.704 Y6.832 Z-12.255 
X512.478 Y7.065 Z-10.926 
X516.244 Y7.302 Z-9.575 
X520.001 Y7.543 Z-8.2 
X523.749 Y7.788 Z-6.804 
X527.489 Y8.037 Z-5.384 
X531.22 Y8.289 Z-3.942 
X534.942 Y8.546 Z-2.477 
X538.655 Y8.807 Z-0.99 
Z-1.29 F80 
X534.942 Y8.546 Z-2.777 F3000 
X531.22 Y8.289 Z-4.242 
X527.489 Y8.037 Z-5.684 
X523.749 Y7.788 Z-7.104 
X520.001 Y7.543 Z-8.5 
X516.244 Y7.302 Z-9.875 
X512.478 Y7.065 Z-11.226 
X508.704 Y6.832 Z-12.555 
X504.923 Y6.603 Z-13.861 
X501.133 Y6.378 Z-15.145 
X497.335 Y6.157 Z-16.405 
X493.529 Y5.94 Z-17.643 
X489.716 Y5.727 Z-18.858 
X485.896 Y5.518 Z-20.05 
X482.068 Y5.313 Z-21.219 
X478.233 Y5.112 Z-22.365 
X474.391 Y4.915 Z-23.489 
X470.542 Y4.722 Z-24.589 
X466.687 Y4.533 Z-25.666 
X462.824 Y4.349 Z-26.721 
X458.955 Y4.168 Z-27.752 
X455.08 Y3.991 Z-28.76 
X451.199 Y3.819 Z-29.745 
X447.311 Y3.65 Z-30.707 
X443.418 Y3.486 Z-31.646 
X439.519 Y3.325 Z-32.561 
X435.614 Y3.169 Z-33.453 
X431.704 Y3.017 Z-34.322 
X427.788 Y2.869 Z-35.168 
X423.867 Y2.724 Z-35.991 
X419.941 Y2.585 Z-36.79 
X416.01 Y2.449 Z-37.566 
X412.074 Y2.317 Z-38.318 
X408.133 Y2.189 Z-39.047 
X404.188 Y2.066 Z-39.753 
X400.238 Y1.946 Z-40.435 
X396.285 Y1.831 Z-41.094 
X392.327 Y1.72 Z-41.729 
X388.366 Y1.613 Z-42.34 
X384.4 Y1.51 Z-42.928 
X380.432 Y1.411 Z-43.493 
X376.459 Y1.316 Z-44.033 
X372.484 Y1.226 Z-44.55 
X368.505 Y1.14 Z-45.043 
X364.524 Y1.058 Z-45.513 
X360.54 Y0.98 Z-45.959 
X356.553 Y0.906 Z-46.381 
X352.563 Y0.837 Z-46.779 
X348.571 Y0.771 Z-47.153 
X344.577 Y0.71 Z-47.503 
X340.581 Y0.653 Z-47.829 
X336.583 Y0.6 Z-48.132 
X332.583 Y0.552 Z-48.41 
X328.581 Y0.507 Z-48.664 
X324.578 Y0.467 Z-48.895 
X320.573 Y0.431 Z-49.101 
X316.567 Y0.4 Z-49.283 
X312.56 Y0.372 Z-49.44 
X308.553 Y0.349 Z-49.574 
X304.544 Y0.33 Z-49.684 
X300.535 Y0.316 Z-49.769 
X296.526 Y0.305 Z-49.83 
X292.516 Y0.299 Z-49.866 
X288.494 Y0.298 Z-49.879 
Y0.297 
X284.484 Y0.299 Z-49.867 
X280.475 Y0.305 Z-49.83 
X276.465 Y0.316 Z-49.769 
X272.456 Y0.33 Z-49.684 
X268.447 Y0.349 Z-49.574 
X264.439 Y0.373 Z-49.44 
X260.432 Y0.4 Z-49.282 
X256.425 Y0.432 Z-49.1 
X252.42 Y0.467 Z-48.894 
X248.416 Y0.508 Z-48.664 
X244.413 Y0.552 Z-48.409 
X240.412 Y0.6 Z-48.131 
X236.412 Y0.653 Z-47.828 
X232.415 Y0.71 Z-47.501 
X228.419 Y0.771 Z-47.151 
X224.426 Y0.837 Z-46.777 
X220.435 Y0.906 Z-46.378 
X216.447 Y0.98 Z-45.956 
X212.461 Y1.058 Z-45.51 
X208.478 Y1.14 Z-45.041 
X204.498 Y1.227 Z-44.547 
X200.522 Y1.317 Z-44.03 
X196.549 Y1.412 Z-43.49 
X192.579 Y1.51 Z-42.925 
X188.613 Y1.613 Z-42.337 
X184.651 Y1.72 Z-41.726 
X180.693 Y1.831 Z-41.091 
X176.74 Y1.947 Z-40.432 
X172.79 Y2.066 Z-39.75 
X168.845 Y2.19 Z-39.044 
X164.905 Y2.317 Z-38.315 
X160.97 Y2.449 Z-37.563 
X157.039 Y2.585 Z-36.787 
X153.113 Y2.725 Z-35.988 
X149.192 Y2.869 Z-35.166 
X145.277 Y3.017 Z-34.32 
X141.366 Y3.169 Z-33.451 
X137.461 Y3.326 Z-32.559 
X133.562 Y3.486 Z-31.643 
X129.668 Y3.651 Z-30.705 
X125.78 Y3.819 Z-29.743 
X121.899 Y3.992 Z-28.758 
X118.024 Y4.168 Z-27.749 
X114.155 Y4.349 Z-26.718 
X110.293 Y4.534 Z-25.664 
X106.437 Y4.723 Z-24.587 
X102.589 Y4.916 Z-23.486 
X98.748 Y5.113 Z-22.363 
X94.913 Y5.314 Z-21.216 
X91.086 Y5.518 Z-20.047 
X87.267 Y5.727 Z-18.855 
X83.455 Y5.94 Z-17.64 
X79.65 Y6.157 Z-16.403 
X75.854 Y6.378 Z-15.142 
X72.065 Y6.603 Z-13.858 
X68.284 Y6.832 Z-12.552 
X64.512 Y7.065 Z-11.223 
X60.748 Y7.302 Z-9.872 
X56.992 Y7.543 Z-8.498 
X53.245 Y7.788 Z-7.101 
X49.507 Y8.037 Z-5.681 
X45.778 Y8.29 Z-4.239 
X42.057 Y8.547 Z-2.774 
X38.346 Y8.808 Z-1.287 
Z-1.587 F80 
X42.057 Y8.547 Z-3.074 F3000 
X45.778 Y8.29 Z-4.539 
X49.507 Y8.037 Z-5.981 
X53.245 Y7.788 Z-7.401 
X56.992 Y7.543 Z-8.798 
X60.748 Y7.302 Z-10.172 
X64.512 Y7.065 Z-11.523 
X68.284 Y6.832 Z-12.852 
X72.065 Y6.603 Z-14.158 
X75.854 Y6.378 Z-15.442 
X79.65 Y6.157 Z-16.702 
X83.455 Y5.94 Z-17.94 
X87.267 Y5.727 Z-19.155 
X91.086 Y5.518 Z-20.347 
X94.913 Y5.314 Z-21.517 
X98.748 Y5.113 Z-22.663 
X102.589 Y4.916 Z-23.786 
X106.437 Y4.723 Z-24.886 
X110.293 Y4.534 Z-25.964 
X114.155 Y4.349 Z-27.018 
X118.024 Y4.168 Z-28.049 
X121.899 Y3.992 Z-29.058 
X125.78 Y3.819 Z-30.043 
X129.668 Y3.651 Z-31.005 
X133.562 Y3.486 Z-31.944 
X137.461 Y3.326 Z-32.859 
X141.366 Y3.169 Z-33.751 
X145.277 Y3.017 Z-34.62 
X149.192 Y2.869 Z-35.466 
X153.113 Y2.725 Z-36.289 
X157.039 Y2.585 Z-37.088 
X160.97 Y2.449 Z-37.863 
X164.905 Y2.317 Z-38.616 
X168.845 Y2.19 Z-39.344 
X172.79 Y2.066 Z-40.05 
X176.74 Y1.947 Z-40.732 
X180.693 Y1.831 Z-41.391 
X184.651 Y1.72 Z-42.026 
X188.613 Y1.613 Z-42.637 
X192.579 Y1.51 Z-43.225 
X196.549 Y1.412 Z-43.79 
X200.522 Y1.317 Z-44.33 
X204.498 Y1.227 Z-44.847 
X208.478 Y1.14 Z-45.341 
X212.461 Y1.058 Z-45.81 
X216.447 Y0.98 Z-46.256 
X220.435 Y0.906 Z-46.678 
X224.426 Y0.837 Z-47.077 
X228.419 Y0.771 Z-47.451 
X232.415 Y0.71 Z-47.801 
X236.412 Y0.653 Z-48.128 
X240.412 Y0.6 Z-48.431 
X244.413 Y0.552 Z-48.709 
X248.416 Y0.508 Z-48.964 
X252.42 Y0.467 Z-49.194 
X256.425 Y0.432 Z-49.4 
X260.432 Y0.4 Z-49.582 
X264.439 Y0.373 Z-49.74 
X268.447 Y0.349 Z-49.874 
X272.456 Y0.33 Z-49.984 
X276.465 Y0.316 Z-50.069 
X280.475 Y0.305 Z-50.13 
X284.484 Y0.299 Z-50.167 
X288.494 Y0.297 Z-50.179 
Y0.298 
X292.516 Y0.299 Z-50.166 
X296.526 Y0.305 Z-50.13 
X300.535 Y0.316 Z-50.069 
X304.544 Y0.33 Z-49.984 
X308.553 Y0.349 Z-49.874 
X312.56 Y0.372 Z-49.741 
X316.567 Y0.4 Z-49.583 
X320.573 Y0.431 Z-49.401 
X324.578 Y0.467 Z-49.194 
X328.581 Y0.507 Z-48.964 
X332.583 Y0.552 Z-48.71 
X336.583 Y0.6 Z-48.432 
X340.581 Y0.653 Z-48.129 
X344.577 Y0.71 Z-47.803 
X348.571 Y0.771 Z-47.453 
X352.563 Y0.837 Z-47.079 
X356.553 Y0.906 Z-46.681 
X360.54 Y0.98 Z-46.259 
X364.524 Y1.058 Z-45.813 
X368.505 Y1.14 Z-45.343 
X372.484 Y1.226 Z-44.85 
X376.459 Y1.316 Z-44.333 
X380.432 Y1.411 Z-43.793 
X384.4 Y1.51 Z-43.228 
X388.366 Y1.613 Z-42.64 
X392.327 Y1.72 Z-42.029 
X396.285 Y1.831 Z-41.394 
X400.238 Y1.946 Z-40.735 
X404.188 Y2.066 Z-40.053 
X408.133 Y2.189 Z-39.347 
X412.074 Y2.317 Z-38.618 
X416.01 Y2.449 Z-37.866 
X419.941 Y2.585 Z-37.09 
X423.867 Y2.724 Z-36.291 
X427.788 Y2.869 Z-35.468 
X431.704 Y3.017 Z-34.623 
X435.614 Y3.169 Z-33.753 
X439.519 Y3.325 Z-32.861 
X443.418 Y3.486 Z-31.945 
X447.311 Y3.65 Z-31.007 
X451.199 Y3.819 Z-30.045 
X455.08 Y3.991 Z-29.06 
X458.955 Y4.168 Z-28.052 
X462.824 Y4.349 Z-27.021 
X466.687 Y4.533 Z-25.966 
X470.542 Y4.722 Z-24.889 
X474.391 Y4.915 Z-23.789 
X478.233 Y5.112 Z-22.666 
X482.068 Y5.313 Z-21.519 
X485.896 Y5.518 Z-20.35 
X489.716 Y5.727 Z-19.158 
X493.529 Y5.94 Z-17.943 
X497.335 Y6.157 Z-16.705 
X501.133 Y6.378 Z-15.445 
X504.923 Y6.603 Z-14.161 
X508.704 Y6.832 Z-12.855 
X512.478 Y7.065 Z-11.526 
X516.244 Y7.302 Z-10.175 
X520.001 Y7.543 Z-8.8 
X523.749 Y7.788 Z-7.404 
X527.489 Y8.037 Z-5.984 
X531.22 Y8.289 Z-4.542 
X534.942 Y8.546 Z-3.077 
X538.655 Y8.807 Z-1.59 
Z-1.89 F80 
X534.942 Y8.546 Z-3.377 F3000 
X531.22 Y8.289 Z-4.842 
X527.489 Y8.037 Z-6.284 
X523.749 Y7.788 Z-7.704 
X520.001 Y7.543 Z-9.101 
X516.244 Y7.302 Z-10.475 
X512.478 Y7.065 Z-11.826 
X508.704 Y6.832 Z-13.155 
X504.923 Y6.603 Z-14.461 
X501.133 Y6.378 Z-15.745 
X497.335 Y6.157 Z-17.005 
X493.529 Y5.94 Z-18.243 
X489.716 Y5.727 Z-19.458 
X485.896 Y5.518 Z-20.65 
X482.068 Y5.313 Z-21.819 
X478.233 Y5.112 Z-22.965 
X474.391 Y4.915 Z-24.089 
X470.542 Y4.722 Z-25.189 
X466.687 Y4.533 Z-26.266 
X462.824 Y4.349 Z-27.321 
X458.955 Y4.168 Z-28.352 
X455.08 Y3.991 Z-29.36 
X451.199 Y3.819 Z-30.345 
X447.311 Y3.65 Z-31.307 
X443.418 Y3.486 Z-32.245 
X439.519 Y3.325 Z-33.161 
X435.614 Y3.169 Z-34.053 
X431.704 Y3.017 Z-34.923 
X427.788 Y2.869 Z-35.768 
X423.867 Y2.724 Z-36.591 
X419.941 Y2.585 Z-37.39 
X416.01 Y2.449 Z-38.166 
X412.074 Y2.317 Z-38.918 
X408.133 Y2.189 Z-39.647 
X404.188 Y2.066 Z-40.353 
X400.238 Y1.946 Z-41.035 
X396.285 Y1.831 Z-41.694 
X392.327 Y1.72 Z-42.329 
X388.366 Y1.613 Z-42.94 
X384.4 Y1.51 Z-43.528 
X380.432 Y1.411 Z-44.093 
X376.459 Y1.316 Z-44.633 
X372.484 Y1.226 Z-45.15 
X368.505 Y1.14 Z-45.644 
X364.524 Y1.058 Z-46.113 
X360.54 Y0.98 Z-46.559 
X356.553 Y0.906 Z-46.981 
X352.563 Y0.837 Z-47.379 
X348.571 Y0.771 Z-47.753 
X344.577 Y0.71 Z-48.103 
X340.581 Y0.653 Z-48.429 
X336.583 Y0.6 Z-48.732 
X332.583 Y0.552 Z-49.01 
X328.581 Y0.507 Z-49.264 
X324.578 Y0.467 Z-49.494 
X320.573 Y0.431 Z-49.701 
X316.567 Y0.4 Z-49.883 
X312.56 Y0.372 Z-50.041 
X308.553 Y0.349 Z-50.174 
X304.544 Y0.33 Z-50.284 
X300.535 Y0.316 Z-50.369 
X296.526 Y0.305 Z-50.43 
X292.516 Y0.299 Z-50.466 
X288.494 Y0.298 Z-50.479 
Y0.297 
X284.484 Y0.299 Z-50.467 
X280.475 Y0.305 Z-50.43 
X276.465 Y0.316 Z-50.369 
X272.456 Y0.33 Z-50.284 
X268.447 Y0.349 Z-50.174 
X264.439 Y0.373 Z-50.04 
X260.432 Y0.4 Z-49.882 
X256.425 Y0.432 Z-49.7 
X252.42 Y0.467 Z-49.494 
X248.416 Y0.508 Z-49.264 
X244.413 Y0.552 Z-49.009 
X240.412 Y0.6 Z-48.73 
X236.412 Y0.653 Z-48.428 
X232.415 Y0.71 Z-48.101 
X228.419 Y0.771 Z-47.751 
X224.426 Y0.837 Z-47.377 
X220.435 Y0.906 Z-46.978 
X216.447 Y0.98 Z-46.556 
X212.461 Y1.058 Z-46.11 
X208.478 Y1.14 Z-45.641 
X204.498 Y1.227 Z-45.147 
X200.522 Y1.317 Z-44.63 
X196.549 Y1.412 Z-44.09 
X192.579 Y1.51 Z-43.525 
X188.613 Y1.613 Z-42.937 
X184.651 Y1.72 Z-42.326 
X180.693 Y1.831 Z-41.691 
X176.74 Y1.947 Z-41.032 
X172.79 Y2.066 Z-40.35 
X168.845 Y2.19 Z-39.644 
X164.905 Y2.317 Z-38.916 
X160.97 Y2.449 Z-38.163 
X157.039 Y2.585 Z-37.388 
X153.113 Y2.725 Z-36.589 
X149.192 Y2.869 Z-35.766 
X145.277 Y3.017 Z-34.92 
X141.366 Y3.169 Z-34.051 
X137.461 Y3.326 Z-33.159 
X133.562 Y3.486 Z-32.243 
X129.668 Y3.651 Z-31.305 
X125.78 Y3.819 Z-30.343 
X121.899 Y3.992 Z-29.358 
X118.024 Y4.168 Z-28.349 
X114.155 Y4.349 Z-27.318 
X110.293 Y4.534 Z-26.264 
X106.437 Y4.723 Z-25.187 
X102.589 Y4.916 Z-24.086 
X98.748 Y5.113 Z-22.963 
X94.913 Y5.314 Z-21.816 
X91.086 Y5.518 Z-20.647 
X87.267 Y5.727 Z-19.455 
X83.455 Y5.94 Z-18.24 
X79.65 Y6.157 Z-17.003 
X75.854 Y6.378 Z-15.742 
X72.065 Y6.603 Z-14.458 
X68.284 Y6.832 Z-13.152 
X64.512 Y7.065 Z-11.823 
X60.748 Y7.302 Z-10.472 
X56.992 Y7.543 Z-9.098 
X53.245 Y7.788 Z-7.701 
X49.507 Y8.037 Z-6.281 
X45.778 Y8.29 Z-4.839 
X42.057 Y8.547 Z-3.374 
X38.346 Y8.808 Z-1.887 
Z-2.187 F80 
X42.057 Y8.547 Z-3.674 F3000 
X45.778 Y8.29 Z-5.139 
X49.507 Y8.037 Z-6.581 
X53.245 Y7.788 Z-8.001 
X56.992 Y7.543 Z-9.398 
X60.748 Y7.302 Z-10.772 
X64.512 Y7.065 Z-12.123 
X68.284 Y6.832 Z-13.452 
X72.065 Y6.603 Z-14.759 
X75.854 Y6.378 Z-16.042 
X79.65 Y6.157 Z-17.302 
X83.455 Y5.94 Z-18.54 
X87.267 Y5.727 Z-19.755 
X91.086 Y5.518 Z-20.947 
X94.913 Y5.314 Z-22.117 
X98.748 Y5.113 Z-23.263 
X102.589 Y4.916 Z-24.386 
X106.437 Y4.723 Z-25.486 
X110.293 Y4.534 Z-26.564 
X114.155 Y4.349 Z-27.618 
X118.024 Y4.168 Z-28.649 
X121.899 Y3.992 Z-29.658 
X125.78 Y3.819 Z-30.643 
X129.668 Y3.651 Z-31.605 
X133.562 Y3.486 Z-32.543 
X137.461 Y3.326 Z-33.459 
X141.366 Y3.169 Z-34.351 
X145.277 Y3.017 Z-35.22 
X149.192 Y2.869 Z-36.066 
X153.113 Y2.725 Z-36.889 
X157.039 Y2.585 Z-37.688 
X160.97 Y2.449 Z-38.463 
X164.905 Y2.317 Z-39.215 
X168.845 Y2.19 Z-39.944 
X172.79 Y2.066 Z-40.65 
X176.74 Y1.947 Z-41.332 
X180.693 Y1.831 Z-41.991 
X184.651 Y1.72 Z-42.626 
X188.613 Y1.613 Z-43.237 
X192.579 Y1.51 Z-43.825 
X196.549 Y1.412 Z-44.39 
X200.522 Y1.317 Z-44.93 
X204.498 Y1.227 Z-45.447 
X208.478 Y1.14 Z-45.941 
X212.461 Y1.058 Z-46.41 
X216.447 Y0.98 Z-46.856 
X220.435 Y0.906 Z-47.278 
X224.426 Y0.837 Z-47.677 
X228.419 Y0.771 Z-48.051 
X232.415 Y0.71 Z-48.401 
X236.412 Y0.653 Z-48.728 
X240.412 Y0.6 Z-49.03 
X244.413 Y0.552 Z-49.309 
X248.416 Y0.508 Z-49.563 
X252.42 Y0.467 Z-49.794 
X256.425 Y0.432 Z-50 
X260.432 Y0.4 Z-50.182 
X264.439 Y0.373 Z-50.34 
X268.447 Y0.349 Z-50.474 
X272.456 Y0.33 Z-50.584 
X276.465 Y0.316 Z-50.669 
X280.475 Y0.305 Z-50.73 
X284.484 Y0.299 Z-50.767 
X288.494 Y0.297 Z-50.779 
Y0.298 
X292.516 Y0.299 Z-50.766 
X296.526 Y0.305 Z-50.73 
X300.535 Y0.316 Z-50.669 
X304.544 Y0.33 Z-50.584 
X308.553 Y0.349 Z-50.474 
X312.56 Y0.372 Z-50.34 
X316.567 Y0.4 Z-50.183 
X320.573 Y0.431 Z-50.001 
X324.578 Y0.467 Z-49.794 
X328.581 Y0.507 Z-49.564 
X332.583 Y0.552 Z-49.31 
X336.583 Y0.6 Z-49.032 
X340.581 Y0.653 Z-48.729 
X344.577 Y0.71 Z-48.403 
X348.571 Y0.771 Z-48.053 
X352.563 Y0.837 Z-47.679 
X356.553 Y0.906 Z-47.281 
X360.54 Y0.98 Z-46.859 
X364.524 Y1.058 Z-46.413 
X368.505 Y1.14 Z-45.944 
X372.484 Y1.226 Z-45.45 
X376.459 Y1.316 Z-44.933 
X380.432 Y1.411 Z-44.393 
X384.4 Y1.51 Z-43.828 
X388.366 Y1.613 Z-43.241 
X392.327 Y1.72 Z-42.629 
X396.285 Y1.831 Z-41.994 
X400.238 Y1.946 Z-41.335 
X404.188 Y2.066 Z-40.653 
X408.133 Y2.189 Z-39.947 
X412.074 Y2.317 Z-39.218 
X416.01 Y2.449 Z-38.466 
X419.941 Y2.585 Z-37.69 
X423.867 Y2.724 Z-36.891 
X427.788 Y2.869 Z-36.068 
X431.704 Y3.017 Z-35.222 
X435.614 Y3.169 Z-34.353 
X439.519 Y3.325 Z-33.461 
X443.418 Y3.486 Z-32.546 
X447.311 Y3.65 Z-31.607 
X451.199 Y3.819 Z-30.645 
X455.08 Y3.991 Z-29.66 
X458.955 Y4.168 Z-28.652 
X462.824 Y4.349 Z-27.621 
X466.687 Y4.533 Z-26.566 
X470.542 Y4.722 Z-25.489 
X474.391 Y4.915 Z-24.389 
X478.233 Y5.112 Z-23.265 
X482.068 Y5.313 Z-22.119 
X485.896 Y5.518 Z-20.95 
X489.716 Y5.727 Z-19.758 
X493.529 Y5.94 Z-18.543 
X497.335 Y6.157 Z-17.305 
X501.133 Y6.378 Z-16.045 
X504.923 Y6.603 Z-14.761 
X508.704 Y6.832 Z-13.455 
X512.478 Y7.065 Z-12.126 
X516.244 Y7.302 Z-10.775 
X520.001 Y7.543 Z-9.401 
X523.749 Y7.788 Z-8.004 
X527.489 Y8.037 Z-6.584 
X531.22 Y8.289 Z-5.142 
X534.942 Y8.546 Z-3.677 
X538.655 Y8.807 Z-2.19 
Z-2.49 F80 
X534.942 Y8.546 Z-3.977 F3000 
X531.22 Y8.289 Z-5.442 
X527.489 Y8.037 Z-6.884 
X523.749 Y7.788 Z-8.304 
X520.001 Y7.543 Z-9.7 
X516.244 Y7.302 Z-11.075 
X512.478 Y7.065 Z-12.426 
X508.704 Y6.832 Z-13.755 
X504.923 Y6.603 Z-15.061 
X501.133 Y6.378 Z-16.345 
X497.335 Y6.157 Z-17.605 
X493.529 Y5.94 Z-18.843 
X489.716 Y5.727 Z-20.058 
X485.896 Y5.518 Z-21.25 
X482.068 Y5.313 Z-22.419 
X478.233 Y5.112 Z-23.566 
X474.391 Y4.915 Z-24.689 
X470.542 Y4.722 Z-25.789 
X466.687 Y4.533 Z-26.866 
X462.824 Y4.349 Z-27.921 
X458.955 Y4.168 Z-28.952 
X455.08 Y3.991 Z-29.96 
X451.199 Y3.819 Z-30.945 
X447.311 Y3.65 Z-31.907 
X443.418 Y3.486 Z-32.846 
X439.519 Y3.325 Z-33.761 
X435.614 Y3.169 Z-34.653 
X431.704 Y3.017 Z-35.522 
X427.788 Y2.869 Z-36.368 
X423.867 Y2.724 Z-37.191 
X419.941 Y2.585 Z-37.99 
X416.01 Y2.449 Z-38.766 
X412.074 Y2.317 Z-39.518 
X408.133 Y2.189 Z-40.247 
X404.188 Y2.066 Z-40.953 
X400.238 Y1.946 Z-41.635 
X396.285 Y1.831 Z-42.294 
X392.327 Y1.72 Z-42.929 
X388.366 Y1.613 Z-43.541 
X384.4 Y1.51 Z-44.128 
X380.432 Y1.411 Z-44.693 
X376.459 Y1.316 Z-45.233 
X372.484 Y1.226 Z-45.75 
X368.505 Y1.14 Z-46.243 
X364.524 Y1.058 Z-46.713 
X360.54 Y0.98 Z-47.159 
X356.553 Y0.906 Z-47.581 
X352.563 Y0.837 Z-47.979 
X348.571 Y0.771 Z-48.353 
X344.577 Y0.71 Z-48.703 
X340.581 Y0.653 Z-49.029 
X336.583 Y0.6 Z-49.332 
X332.583 Y0.552 Z-49.61 
X328.581 Y0.507 Z-49.864 
X324.578 Y0.467 Z-50.095 
X320.573 Y0.431 Z-50.301 
X316.567 Y0.4 Z-50.483 
X312.56 Y0.372 Z-50.64 
X308.553 Y0.349 Z-50.774 
X304.544 Y0.33 Z-50.884 
X300.535 Y0.316 Z-50.969 
X296.526 Y0.305 Z-51.03 
X292.516 Y0.299 Z-51.066 
X288.494 Y0.298 Z-51.079 
Y0.297 
X284.484 Y0.299 Z-51.067 
X280.475 Y0.305 Z-51.03 
X276.465 Y0.316 Z-50.969 
X272.456 Y0.33 Z-50.884 
X268.447 Y0.349 Z-50.774 
X264.439 Y0.373 Z-50.64 
X260.432 Y0.4 Z-50.482 
X256.425 Y0.432 Z-50.3 
X252.42 Y0.467 Z-50.094 
X248.416 Y0.508 Z-49.863 
X244.413 Y0.552 Z-49.609 
X240.412 Y0.6 Z-49.331 
X236.412 Y0.653 Z-49.028 
X232.415 Y0.71 Z-48.701 
X228.419 Y0.771 Z-48.351 
X224.426 Y0.837 Z-47.977 
X220.435 Y0.906 Z-47.578 
X216.447 Y0.98 Z-47.156 
X212.461 Y1.058 Z-46.71 
X208.478 Y1.14 Z-46.241 
X204.498 Y1.227 Z-45.747 
X200.522 Y1.317 Z-45.23 
X196.549 Y1.412 Z-44.69 
X192.579 Y1.51 Z-44.125 
X188.613 Y1.613 Z-43.537 
X184.651 Y1.72 Z-42.926 
X180.693 Y1.831 Z-42.291 
X176.74 Y1.947 Z-41.632 
X172.79 Y2.066 Z-40.95 
X168.845 Y2.19 Z-40.244 
X164.905 Y2.317 Z-39.515 
X160.97 Y2.449 Z-38.763 
X157.039 Y2.585 Z-37.987 
X153.113 Y2.725 Z-37.188 
X149.192 Y2.869 Z-36.366 
X145.277 Y3.017 Z-35.52 
X141.366 Y3.169 Z-34.651 
X137.461 Y3.326 Z-33.759 
X133.562 Y3.486 Z-32.843 
X129.668 Y3.651 Z-31.905 
X125.78 Y3.819 Z-30.943 
X121.899 Y3.992 Z-29.958 
X118.024 Y4.168 Z-28.949 
X114.155 Y4.349 Z-27.918 
X110.293 Y4.534 Z-26.864 
X106.437 Y4.723 Z-25.787 
X102.589 Y4.916 Z-24.686 
X98.748 Y5.113 Z-23.563 
X94.913 Y5.314 Z-22.417 
X91.086 Y5.518 Z-21.247 
X87.267 Y5.727 Z-20.055 
X83.455 Y5.94 Z-18.84 
X79.65 Y6.157 Z-17.603 
X75.854 Y6.378 Z-16.342 
X72.065 Y6.603 Z-15.059 
X68.284 Y6.832 Z-13.752 
X64.512 Y7.065 Z-12.423 
X60.748 Y7.302 Z-11.072 
X56.992 Y7.543 Z-9.698 
X53.245 Y7.788 Z-8.301 
X49.507 Y8.037 Z-6.881 
X45.778 Y8.29 Z-5.439 
X42.057 Y8.547 Z-3.974 
X38.346 Y8.808 Z-2.487 
Z-2.787 F80 
X42.057 Y8.547 Z-4.274 F3000 
X45.778 Y8.29 Z-5.739 
X49.507 Y8.037 Z-7.181 
X53.245 Y7.788 Z-8.601 
X56.992 Y7.543 Z-9.998 
X60.748 Y7.302 Z-11.372 
X64.512 Y7.065 Z-12.723 
X68.284 Y6.832 Z-14.052 
X72.065 Y6.603 Z-15.358 
X75.854 Y6.378 Z-16.642 
X79.65 Y6.157 Z-17.903 
X83.455 Y5.94 Z-19.14 
X87.267 Y5.727 Z-20.355 
X91.086 Y5.518 Z-21.547 
X94.913 Y5.314 Z-22.716 
X98.748 Y5.113 Z-23.863 
X102.589 Y4.916 Z-24.986 
X106.437 Y4.723 Z-26.087 
X110.293 Y4.534 Z-27.164 
X114.155 Y4.349 Z-28.218 
X118.024 Y4.168 Z-29.249 
X121.899 Y3.992 Z-30.258 
X125.78 Y3.819 Z-31.243 
X129.668 Y3.651 Z-32.205 
X133.562 Y3.486 Z-33.144 
X137.461 Y3.326 Z-34.059 
X141.366 Y3.169 Z-34.951 
X145.277 Y3.017 Z-35.82 
X149.192 Y2.869 Z-36.666 
X153.113 Y2.725 Z-37.488 
X157.039 Y2.585 Z-38.287 
X160.97 Y2.449 Z-39.063 
X164.905 Y2.317 Z-39.815 
X168.845 Y2.19 Z-40.544 
X172.79 Y2.066 Z-41.25 
X176.74 Y1.947 Z-41.932 
X180.693 Y1.831 Z-42.591 
X184.651 Y1.72 Z-43.226 
X188.613 Y1.613 Z-43.837 
X192.579 Y1.51 Z-44.425 
X196.549 Y1.412 Z-44.99 
X200.522 Y1.317 Z-45.53 
X204.498 Y1.227 Z-46.047 
X208.478 Y1.14 Z-46.541 
X212.461 Y1.058 Z-47.01 
X216.447 Y0.98 Z-47.456 
X220.435 Y0.906 Z-47.878 
X224.426 Y0.837 Z-48.277 
X228.419 Y0.771 Z-48.651 
X232.415 Y0.71 Z-49.001 
X236.412 Y0.653 Z-49.328 
X240.412 Y0.6 Z-49.631 
X244.413 Y0.552 Z-49.909 
X248.416 Y0.508 Z-50.164 
X252.42 Y0.467 Z-50.394 
X256.425 Y0.432 Z-50.6 
X260.432 Y0.4 Z-50.782 
X264.439 Y0.373 Z-50.94 
X268.447 Y0.349 Z-51.074 
X272.456 Y0.33 Z-51.184 
X276.465 Y0.316 Z-51.269 
X280.475 Y0.305 Z-51.33 
X284.484 Y0.299 Z-51.367 
X288.494 Y0.297 Z-51.379 
Y0.298 
X292.516 Y0.299 Z-51.366 
X296.526 Y0.305 Z-51.33 
X300.535 Y0.316 Z-51.269 
X304.544 Y0.33 Z-51.184 
X308.553 Y0.349 Z-51.074 
X312.56 Y0.372 Z-50.94 
X316.567 Y0.4 Z-50.783 
X320.573 Y0.431 Z-50.601 
X324.578 Y0.467 Z-50.395 
X328.581 Y0.507 Z-50.164 
X332.583 Y0.552 Z-49.91 
X336.583 Y0.6 Z-49.632 
X340.581 Y0.653 Z-49.329 
X344.577 Y0.71 Z-49.003 
X348.571 Y0.771 Z-48.653 
X352.563 Y0.837 Z-48.279 
X356.553 Y0.906 Z-47.881 
X360.54 Y0.98 Z-47.459 
X364.524 Y1.058 Z-47.013 
X368.505 Y1.14 Z-46.543 
X372.484 Y1.226 Z-46.05 
X376.459 Y1.316 Z-45.533 
X380.432 Y1.411 Z-44.993 
X384.4 Y1.51 Z-44.428 
X388.366 Y1.613 Z-43.84 
X392.327 Y1.72 Z-43.229 
X396.285 Y1.831 Z-42.594 
X400.238 Y1.946 Z-41.935 
X404.188 Y2.066 Z-41.253 
X408.133 Y2.189 Z-40.547 
X412.074 Y2.317 Z-39.818 
X416.01 Y2.449 Z-39.066 
X419.941 Y2.585 Z-38.29 
X423.867 Y2.724 Z-37.491 
X427.788 Y2.869 Z-36.668 
X431.704 Y3.017 Z-35.822 
X435.614 Y3.169 Z-34.953 
X439.519 Y3.325 Z-34.061 
X443.418 Y3.486 Z-33.146 
X447.311 Y3.65 Z-32.207 
X451.199 Y3.819 Z-31.245 
X455.08 Y3.991 Z-30.26 
X458.955 Y4.168 Z-29.252 
X462.824 Y4.349 Z-28.221 
X466.687 Y4.533 Z-27.166 
X470.542 Y4.722 Z-26.089 
X474.391 Y4.915 Z-24.989 
X478.233 Y5.112 Z-23.865 
X482.068 Y5.313 Z-22.719 
X485.896 Y5.518 Z-21.55 
X489.716 Y5.727 Z-20.358 
X493.529 Y5.94 Z-19.143 
X497.335 Y6.157 Z-17.905 
X501.133 Y6.378 Z-16.645 
X504.923 Y6.603 Z-15.361 
X508.704 Y6.832 Z-14.055 
X512.478 Y7.065 Z-12.726 
X516.244 Y7.302 Z-11.375 
X520.001 Y7.543 Z-10 
X523.749 Y7.788 Z-8.604 
X527.489 Y8.037 Z-7.184 
X531.22 Y8.289 Z-5.742 
X534.942 Y8.546 Z-4.277 
X538.655 Y8.807 Z-2.79 
Z2.213 F500 
G0 Z15 
S24000 M3 
G17 
G0 X38.346 Y9.608 
Z15 
Z2.213 
G1 Z0.213 F80 
X42.057 Y9.347 Z-1.274 F3000 
X45.778 Y9.09 Z-2.739 
X49.507 Y8.837 Z-4.181 
X53.245 Y8.588 Z-5.601 
X56.992 Y8.343 Z-6.998 
X60.748 Y8.102 Z-8.372 
X64.512 Y7.865 Z-9.723 
X68.284 Y7.632 Z-11.052 
X72.065 Y7.403 Z-12.358 
X75.854 Y7.178 Z-13.642 
X79.65 Y6.957 Z-14.903 
X83.455 Y6.74 Z-16.14 
X87.267 Y6.527 Z-17.355 
X91.086 Y6.318 Z-18.547 
X94.913 Y6.114 Z-19.716 
X98.748 Y5.913 Z-20.863 
X102.589 Y5.716 Z-21.986 
X106.437 Y5.523 Z-23.087 
X110.293 Y5.334 Z-24.164 
X114.155 Y5.149 Z-25.218 
X118.024 Y4.968 Z-26.249 
X121.899 Y4.792 Z-27.258 
X125.78 Y4.619 Z-28.243 
X129.668 Y4.451 Z-29.205 
X133.562 Y4.286 Z-30.143 
X137.461 Y4.126 Z-31.059 
X141.366 Y3.969 Z-31.951 
X145.277 Y3.817 Z-32.82 
X149.192 Y3.669 Z-33.666 
X153.113 Y3.525 Z-34.488 
X157.039 Y3.385 Z-35.287 
X160.97 Y3.249 Z-36.063 
X164.905 Y3.117 Z-36.815 
X168.845 Y2.99 Z-37.544 
X172.79 Y2.866 Z-38.25 
X176.74 Y2.747 Z-38.932 
X180.693 Y2.631 Z-39.591 
X184.651 Y2.52 Z-40.226 
X188.613 Y2.413 Z-40.837 
X192.579 Y2.31 Z-41.425 
X196.549 Y2.212 Z-41.99 
X200.522 Y2.117 Z-42.53 
X204.498 Y2.027 Z-43.047 
X208.478 Y1.94 Z-43.541 
X212.461 Y1.858 Z-44.01 
X216.447 Y1.78 Z-44.456 
X220.435 Y1.706 Z-44.878 
X224.426 Y1.637 Z-45.277 
X228.419 Y1.571 Z-45.651 
X232.415 Y1.51 Z-46.001 
X236.412 Y1.453 Z-46.328 
X240.412 Y1.4 Z-46.631 
X244.413 Y1.352 Z-46.909 
X248.416 Y1.308 Z-47.164 
X252.42 Y1.267 Z-47.394 
X256.425 Y1.232 Z-47.6 
X260.432 Y1.2 Z-47.782 
X264.439 Y1.173 Z-47.94 
X268.447 Y1.149 Z-48.074 
X272.456 Y1.13 Z-48.184 
X276.465 Y1.116 Z-48.269 
X280.475 Y1.105 Z-48.33 
X284.484 Y1.099 Z-48.367 
X288.494 Y1.097 Z-48.379 
Y1.098 
X292.516 Y1.099 Z-48.366 
X296.526 Y1.105 Z-48.33 
X300.535 Y1.116 Z-48.269 
X304.544 Y1.13 Z-48.184 
X308.553 Y1.149 Z-48.074 
X312.56 Y1.172 Z-47.94 
X316.567 Y1.2 Z-47.783 
X320.573 Y1.231 Z-47.601 
X324.578 Y1.267 Z-47.395 
X328.581 Y1.307 Z-47.164 
X332.583 Y1.352 Z-46.91 
X336.583 Y1.4 Z-46.632 
X340.581 Y1.453 Z-46.329 
X344.577 Y1.51 Z-46.003 
X348.571 Y1.571 Z-45.653 
X352.563 Y1.637 Z-45.279 
X356.553 Y1.706 Z-44.881 
X360.54 Y1.78 Z-44.459 
X364.524 Y1.858 Z-44.013 
X368.505 Y1.94 Z-43.543 
X372.484 Y2.026 Z-43.05 
X376.459 Y2.116 Z-42.533 
X380.432 Y2.211 Z-41.993 
X384.4 Y2.31 Z-41.428 
X388.366 Y2.413 Z-40.84 
X392.327 Y2.52 Z-40.229 
X396.285 Y2.631 Z-39.594 
X400.238 Y2.746 Z-38.935 
X404.188 Y2.866 Z-38.253 
X408.133 Y2.989 Z-37.547 
X412.074 Y3.117 Z-36.818 
X416.01 Y3.249 Z-36.066 
X419.941 Y3.385 Z-35.29 
X423.867 Y3.524 Z-34.491 
X427.788 Y3.669 Z-33.668 
X431.704 Y3.817 Z-32.822 
X435.614 Y3.969 Z-31.953 
X439.519 Y4.125 Z-31.061 
X443.418 Y4.286 Z-30.146 
X447.311 Y4.45 Z-29.207 
X451.199 Y4.619 Z-28.245 
X455.08 Y4.791 Z-27.26 
X458.955 Y4.968 Z-26.252 
X462.824 Y5.149 Z-25.221 
X466.687 Y5.333 Z-24.166 
X470.542 Y5.522 Z-23.089 
X474.391 Y5.715 Z-21.989 
X478.233 Y5.912 Z-20.865 
X482.068 Y6.113 Z-19.719 
X485.896 Y6.318 Z-18.55 
X489.716 Y6.527 Z-17.358 
X493.529 Y6.74 Z-16.143 
X497.335 Y6.957 Z-14.905 
X501.133 Y7.178 Z-13.645 
X504.923 Y7.403 Z-12.361 
X508.704 Y7.632 Z-11.055 
X512.478 Y7.865 Z-9.726 
X516.244 Y8.102 Z-8.375 
X520.001 Y8.343 Z-7.001 
X523.749 Y8.588 Z-5.604 
X527.489 Y8.837 Z-4.184 
X531.22 Y9.089 Z-2.742 
X534.942 Y9.346 Z-1.277 
X538.655 Y9.607 Z0.21 
Z-0.09 F80 
X534.942 Y9.346 Z-1.577 F3000 
X531.22 Y9.089 Z-3.042 
X527.489 Y8.837 Z-4.484 
X523.749 Y8.588 Z-5.904 
X520.001 Y8.343 Z-7.3 
X516.244 Y8.102 Z-8.675 
X512.478 Y7.865 Z-10.026 
X508.704 Y7.632 Z-11.355 
X504.923 Y7.403 Z-12.661 
X501.133 Y7.178 Z-13.945 
X497.335 Y6.957 Z-15.205 
X493.529 Y6.74 Z-16.443 
X489.716 Y6.527 Z-17.658 
X485.896 Y6.318 Z-18.85 
X482.068 Y6.113 Z-20.019 
X478.233 Y5.912 Z-21.166 
X474.391 Y5.715 Z-22.289 
X470.542 Y5.522 Z-23.389 
X466.687 Y5.333 Z-24.466 
X462.824 Y5.149 Z-25.521 
X458.955 Y4.968 Z-26.552 
X455.08 Y4.791 Z-27.56 
X451.199 Y4.619 Z-28.545 
X447.311 Y4.45 Z-29.507 
X443.418 Y4.286 Z-30.445 
X439.519 Y4.125 Z-31.361 
X435.614 Y3.969 Z-32.253 
X431.704 Y3.817 Z-33.123 
X427.788 Y3.669 Z-33.968 
X423.867 Y3.524 Z-34.791 
X419.941 Y3.385 Z-35.59 
X416.01 Y3.249 Z-36.366 
X412.074 Y3.117 Z-37.118 
X408.133 Y2.989 Z-37.847 
X404.188 Y2.866 Z-38.553 
X400.238 Y2.746 Z-39.235 
X396.285 Y2.631 Z-39.894 
X392.327 Y2.52 Z-40.529 
X388.366 Y2.413 Z-41.14 
X384.4 Y2.31 Z-41.728 
X380.432 Y2.211 Z-42.293 
X376.459 Y2.116 Z-42.833 
X372.484 Y2.026 Z-43.35 
X368.505 Y1.94 Z-43.843 
X364.524 Y1.858 Z-44.313 
X360.54 Y1.78 Z-44.759 
X356.553 Y1.706 Z-45.181 
X352.563 Y1.637 Z-45.579 
X348.571 Y1.571 Z-45.953 
X344.577 Y1.51 Z-46.303 
X340.581 Y1.453 Z-46.629 
X336.583 Y1.4 Z-46.932 
X332.583 Y1.352 Z-47.21 
X328.581 Y1.307 Z-47.464 
X324.578 Y1.267 Z-47.694 
X320.573 Y1.231 Z-47.901 
X316.567 Y1.2 Z-48.083 
X312.56 Y1.172 Z-48.241 
X308.553 Y1.149 Z-48.374 
X304.544 Y1.13 Z-48.484 
X300.535 Y1.116 Z-48.569 
X296.526 Y1.105 Z-48.63 
X292.516 Y1.099 Z-48.666 
X288.494 Y1.098 Z-48.679 
Y1.097 
X284.484 Y1.099 Z-48.667 
X280.475 Y1.105 Z-48.63 
X276.465 Y1.116 Z-48.569 
X272.456 Y1.13 Z-48.484 
X268.447 Y1.149 Z-48.374 
X264.439 Y1.173 Z-48.24 
X260.432 Y1.2 Z-48.082 
X256.425 Y1.232 Z-47.9 
X252.42 Y1.267 Z-47.694 
X248.416 Y1.308 Z-47.464 
X244.413 Y1.352 Z-47.209 
X240.412 Y1.4 Z-46.931 
X236.412 Y1.453 Z-46.628 
X232.415 Y1.51 Z-46.301 
X228.419 Y1.571 Z-45.951 
X224.426 Y1.637 Z-45.577 
X220.435 Y1.706 Z-45.178 
X216.447 Y1.78 Z-44.756 
X212.461 Y1.858 Z-44.31 
X208.478 Y1.94 Z-43.841 
X204.498 Y2.027 Z-43.347 
X200.522 Y2.117 Z-42.83 
X196.549 Y2.212 Z-42.29 
X192.579 Y2.31 Z-41.725 
X188.613 Y2.413 Z-41.137 
X184.651 Y2.52 Z-40.526 
X180.693 Y2.631 Z-39.891 
X176.74 Y2.747 Z-39.232 
X172.79 Y2.866 Z-38.55 
X168.845 Y2.99 Z-37.844 
X164.905 Y3.117 Z-37.116 
X160.97 Y3.249 Z-36.363 
X157.039 Y3.385 Z-35.588 
X153.113 Y3.525 Z-34.789 
X149.192 Y3.669 Z-33.966 
X145.277 Y3.817 Z-33.12 
X141.366 Y3.969 Z-32.251 
X137.461 Y4.126 Z-31.359 
X133.562 Y4.286 Z-30.444 
X129.668 Y4.451 Z-29.505 
X125.78 Y4.619 Z-28.543 
X121.899 Y4.792 Z-27.558 
X118.024 Y4.968 Z-26.549 
X114.155 Y5.149 Z-25.518 
X110.293 Y5.334 Z-24.464 
X106.437 Y5.523 Z-23.386 
X102.589 Y5.716 Z-22.286 
X98.748 Y5.913 Z-21.163 
X94.913 Y6.114 Z-20.017 
X91.086 Y6.318 Z-18.847 
X87.267 Y6.527 Z-17.655 
X83.455 Y6.74 Z-16.44 
X79.65 Y6.957 Z-15.203 
X75.854 Y7.178 Z-13.942 
X72.065 Y7.403 Z-12.658 
X68.284 Y7.632 Z-11.352 
X64.512 Y7.865 Z-10.023 
X60.748 Y8.102 Z-8.672 
X56.992 Y8.343 Z-7.298 
X53.245 Y8.588 Z-5.901 
X49.507 Y8.837 Z-4.481 
X45.778 Y9.09 Z-3.039 
X42.057 Y9.347 Z-1.574 
X38.346 Y9.608 Z-0.087 
Z-0.387 F80 
X42.057 Y9.347 Z-1.874 F3000 
X45.778 Y9.09 Z-3.339 
X49.507 Y8.837 Z-4.781 
X53.245 Y8.588 Z-6.201 
X56.992 Y8.343 Z-7.598 
X60.748 Y8.102 Z-8.972 
X64.512 Y7.865 Z-10.323 
X68.284 Y7.632 Z-11.652 
X72.065 Y7.403 Z-12.958 
X75.854 Y7.178 Z-14.242 
X79.65 Y6.957 Z-15.502 
X83.455 Y6.74 Z-16.74 
X87.267 Y6.527 Z-17.955 
X91.086 Y6.318 Z-19.147 
X94.913 Y6.114 Z-20.316 
X98.748 Y5.913 Z-21.463 
X102.589 Y5.716 Z-22.586 
X106.437 Y5.523 Z-23.687 
X110.293 Y5.334 Z-24.764 
X114.155 Y5.149 Z-25.818 
X118.024 Y4.968 Z-26.849 
X121.899 Y4.792 Z-27.858 
X125.78 Y4.619 Z-28.843 
X129.668 Y4.451 Z-29.805 
X133.562 Y4.286 Z-30.743 
X137.461 Y4.126 Z-31.659 
X141.366 Y3.969 Z-32.551 
X145.277 Y3.817 Z-33.42 
X149.192 Y3.669 Z-34.266 
X153.113 Y3.525 Z-35.089 
X157.039 Y3.385 Z-35.888 
X160.97 Y3.249 Z-36.663 
X164.905 Y3.117 Z-37.416 
X168.845 Y2.99 Z-38.144 
X172.79 Y2.866 Z-38.85 
X176.74 Y2.747 Z-39.532 
X180.693 Y2.631 Z-40.191 
X184.651 Y2.52 Z-40.826 
X188.613 Y2.413 Z-41.437 
X192.579 Y2.31 Z-42.025 
X196.549 Y2.212 Z-42.59 
X200.522 Y2.117 Z-43.13 
X204.498 Y2.027 Z-43.647 
X208.478 Y1.94 Z-44.141 
X212.461 Y1.858 Z-44.61 
X216.447 Y1.78 Z-45.056 
X220.435 Y1.706 Z-45.478 
X224.426 Y1.637 Z-45.877 
X228.419 Y1.571 Z-46.251 
X232.415 Y1.51 Z-46.601 
X236.412 Y1.453 Z-46.928 
X240.412 Y1.4 Z-47.23 
X244.413 Y1.352 Z-47.509 
X248.416 Y1.308 Z-47.764 
X252.42 Y1.267 Z-47.994 
X256.425 Y1.232 Z-48.2 
X260.432 Y1.2 Z-48.382 
X264.439 Y1.173 Z-48.54 
X268.447 Y1.149 Z-48.674 
X272.456 Y1.13 Z-48.784 
X276.465 Y1.116 Z-48.869 
X280.475 Y1.105 Z-48.93 
X284.484 Y1.099 Z-48.967 
X288.494 Y1.097 Z-48.979 
Y1.098 
X292.516 Y1.099 Z-48.966 
X296.526 Y1.105 Z-48.93 
X300.535 Y1.116 Z-48.869 
X304.544 Y1.13 Z-48.784 
X308.553 Y1.149 Z-48.674 
X312.56 Y1.172 Z-48.541 
X316.567 Y1.2 Z-48.383 
X320.573 Y1.231 Z-48.201 
X324.578 Y1.267 Z-47.994 
X328.581 Y1.307 Z-47.764 
X332.583 Y1.352 Z-47.51 
X336.583 Y1.4 Z-47.232 
X340.581 Y1.453 Z-46.929 
X344.577 Y1.51 Z-46.603 
X348.571 Y1.571 Z-46.253 
X352.563 Y1.637 Z-45.879 
X356.553 Y1.706 Z-45.481 
X360.54 Y1.78 Z-45.059 
X364.524 Y1.858 Z-44.613 
X368.505 Y1.94 Z-44.144 
X372.484 Y2.026 Z-43.65 
X376.459 Y2.116 Z-43.133 
X380.432 Y2.211 Z-42.593 
X384.4 Y2.31 Z-42.028 
X388.366 Y2.413 Z-41.44 
X392.327 Y2.52 Z-40.829 
X396.285 Y2.631 Z-40.194 
X400.238 Y2.746 Z-39.535 
X404.188 Y2.866 Z-38.853 
X408.133 Y2.989 Z-38.147 
X412.074 Y3.117 Z-37.418 
X416.01 Y3.249 Z-36.666 
X419.941 Y3.385 Z-35.89 
X423.867 Y3.524 Z-35.091 
X427.788 Y3.669 Z-34.268 
X431.704 Y3.817 Z-33.423 
X435.614 Y3.969 Z-32.553 
X439.519 Y4.125 Z-31.661 
X443.418 Y4.286 Z-30.746 
X447.311 Y4.45 Z-29.807 
X451.199 Y4.619 Z-28.845 
X455.08 Y4.791 Z-27.86 
X458.955 Y4.968 Z-26.852 
X462.824 Y5.149 Z-25.821 
X466.687 Y5.333 Z-24.766 
X470.542 Y5.522 Z-23.689 
X474.391 Y5.715 Z-22.589 
X478.233 Y5.912 Z-21.465 
X482.068 Y6.113 Z-20.319 
X485.896 Y6.318 Z-19.15 
X489.716 Y6.527 Z-17.958 
X493.529 Y6.74 Z-16.743 
X497.335 Y6.957 Z-15.505 
X501.133 Y7.178 Z-14.245 
X504.923 Y7.403 Z-12.961 
X508.704 Y7.632 Z-11.655 
X512.478 Y7.865 Z-10.326 
X516.244 Y8.102 Z-8.975 
X520.001 Y8.343 Z-7.601 
X523.749 Y8.588 Z-6.204 
X527.489 Y8.837 Z-4.784 
X531.22 Y9.089 Z-3.342 
X534.942 Y9.346 Z-1.877 
X538.655 Y9.607 Z-0.39 
Z-0.69 F80 
X534.942 Y9.346 Z-2.177 F3000 
X531.22 Y9.089 Z-3.642 
X527.489 Y8.837 Z-5.084 
X523.749 Y8.588 Z-6.504 
X520.001 Y8.343 Z-7.9 
X516.244 Y8.102 Z-9.275 
X512.478 Y7.865 Z-10.626 
X508.704 Y7.632 Z-11.955 
X504.923 Y7.403 Z-13.261 
X501.133 Y7.178 Z-14.545 
X497.335 Y6.957 Z-15.805 
X493.529 Y6.74 Z-17.043 
X489.716 Y6.527 Z-18.258 
X485.896 Y6.318 Z-19.45 
X482.068 Y6.113 Z-20.619 
X478.233 Y5.912 Z-21.765 
X474.391 Y5.715 Z-22.889 
X470.542 Y5.522 Z-23.989 
X466.687 Y5.333 Z-25.066 
X462.824 Y5.149 Z-26.121 
X458.955 Y4.968 Z-27.152 
X455.08 Y4.791 Z-28.16 
X451.199 Y4.619 Z-29.145 
X447.311 Y4.45 Z-30.107 
X443.418 Y4.286 Z-31.045 
X439.519 Y4.125 Z-31.961 
X435.614 Y3.969 Z-32.853 
X431.704 Y3.817 Z-33.722 
X427.788 Y3.669 Z-34.568 
X423.867 Y3.524 Z-35.391 
X419.941 Y3.385 Z-36.19 
X416.01 Y3.249 Z-36.966 
X412.074 Y3.117 Z-37.718 
X408.133 Y2.989 Z-38.447 
X404.188 Y2.866 Z-39.153 
X400.238 Y2.746 Z-39.835 
X396.285 Y2.631 Z-40.494 
X392.327 Y2.52 Z-41.129 
X388.366 Y2.413 Z-41.741 
X384.4 Y2.31 Z-42.328 
X380.432 Y2.211 Z-42.893 
X376.459 Y2.116 Z-43.433 
X372.484 Y2.026 Z-43.95 
X368.505 Y1.94 Z-44.444 
X364.524 Y1.858 Z-44.913 
X360.54 Y1.78 Z-45.359 
X356.553 Y1.706 Z-45.781 
X352.563 Y1.637 Z-46.179 
X348.571 Y1.571 Z-46.553 
X344.577 Y1.51 Z-46.903 
X340.581 Y1.453 Z-47.229 
X336.583 Y1.4 Z-47.532 
X332.583 Y1.352 Z-47.81 
X328.581 Y1.307 Z-48.064 
X324.578 Y1.267 Z-48.294 
X320.573 Y1.231 Z-48.501 
X316.567 Y1.2 Z-48.683 
X312.56 Y1.172 Z-48.84 
X308.553 Y1.149 Z-48.974 
X304.544 Y1.13 Z-49.084 
X300.535 Y1.116 Z-49.169 
X296.526 Y1.105 Z-49.23 
X292.516 Y1.099 Z-49.266 
X288.494 Y1.098 Z-49.279 
Y1.097 
X284.484 Y1.099 Z-49.267 
X280.475 Y1.105 Z-49.23 
X276.465 Y1.116 Z-49.169 
X272.456 Y1.13 Z-49.084 
X268.447 Y1.149 Z-48.974 
X264.439 Y1.173 Z-48.84 
X260.432 Y1.2 Z-48.682 
X256.425 Y1.232 Z-48.5 
X252.42 Y1.267 Z-48.294 
X248.416 Y1.308 Z-48.063 
X244.413 Y1.352 Z-47.809 
X240.412 Y1.4 Z-47.53 
X236.412 Y1.453 Z-47.228 
X232.415 Y1.51 Z-46.901 
X228.419 Y1.571 Z-46.551 
X224.426 Y1.637 Z-46.177 
X220.435 Y1.706 Z-45.778 
X216.447 Y1.78 Z-45.356 
X212.461 Y1.858 Z-44.91 
X208.478 Y1.94 Z-44.441 
X204.498 Y2.027 Z-43.947 
X200.522 Y2.117 Z-43.43 
X196.549 Y2.212 Z-42.89 
X192.579 Y2.31 Z-42.325 
X188.613 Y2.413 Z-41.737 
X184.651 Y2.52 Z-41.126 
X180.693 Y2.631 Z-40.491 
X176.74 Y2.747 Z-39.832 
X172.79 Y2.866 Z-39.15 
X168.845 Y2.99 Z-38.444 
X164.905 Y3.117 Z-37.715 
X160.97 Y3.249 Z-36.963 
X157.039 Y3.385 Z-36.188 
X153.113 Y3.525 Z-35.389 
X149.192 Y3.669 Z-34.566 
X145.277 Y3.817 Z-33.72 
X141.366 Y3.969 Z-32.851 
X137.461 Y4.126 Z-31.959 
X133.562 Y4.286 Z-31.044 
X129.668 Y4.451 Z-30.105 
X125.78 Y4.619 Z-29.143 
X121.899 Y4.792 Z-28.158 
X118.024 Y4.968 Z-27.149 
X114.155 Y5.149 Z-26.118 
X110.293 Y5.334 Z-25.064 
X106.437 Y5.523 Z-23.986 
X102.589 Y5.716 Z-22.886 
X98.748 Y5.913 Z-21.763 
X94.913 Y6.114 Z-20.617 
X91.086 Y6.318 Z-19.447 
X87.267 Y6.527 Z-18.255 
X83.455 Y6.74 Z-17.04 
X79.65 Y6.957 Z-15.802 
X75.854 Y7.178 Z-14.542 
X72.065 Y7.403 Z-13.259 
X68.284 Y7.632 Z-11.952 
X64.512 Y7.865 Z-10.623 
X60.748 Y8.102 Z-9.272 
X56.992 Y8.343 Z-7.898 
X53.245 Y8.588 Z-6.501 
X49.507 Y8.837 Z-5.081 
X45.778 Y9.09 Z-3.639 
X42.057 Y9.347 Z-2.174 
X38.346 Y9.608 Z-0.687 
Z-0.987 F80 
X42.057 Y9.347 Z-2.474 F3000 
X45.778 Y9.09 Z-3.939 
X49.507 Y8.837 Z-5.381 
X53.245 Y8.588 Z-6.801 
X56.992 Y8.343 Z-8.198 
X60.748 Y8.102 Z-9.572 
X64.512 Y7.865 Z-10.923 
X68.284 Y7.632 Z-12.252 
X72.065 Y7.403 Z-13.559 
X75.854 Y7.178 Z-14.842 
X79.65 Y6.957 Z-16.103 
X83.455 Y6.74 Z-17.34 
X87.267 Y6.527 Z-18.555 
X91.086 Y6.318 Z-19.747 
X94.913 Y6.114 Z-20.917 
X98.748 Y5.913 Z-22.063 
X102.589 Y5.716 Z-23.186 
X106.437 Y5.523 Z-24.287 
X110.293 Y5.334 Z-25.364 
X114.155 Y5.149 Z-26.418 
X118.024 Y4.968 Z-27.449 
X121.899 Y4.792 Z-28.458 
X125.78 Y4.619 Z-29.443 
X129.668 Y4.451 Z-30.405 
X133.562 Y4.286 Z-31.344 
X137.461 Y4.126 Z-32.259 
X141.366 Y3.969 Z-33.151 
X145.277 Y3.817 Z-34.02 
X149.192 Y3.669 Z-34.866 
X153.113 Y3.525 Z-35.688 
X157.039 Y3.385 Z-36.487 
X160.97 Y3.249 Z-37.263 
X164.905 Y3.117 Z-38.015 
X168.845 Y2.99 Z-38.744 
X172.79 Y2.866 Z-39.45 
X176.74 Y2.747 Z-40.132 
X180.693 Y2.631 Z-40.791 
X184.651 Y2.52 Z-41.426 
X188.613 Y2.413 Z-42.037 
X192.579 Y2.31 Z-42.625 
X196.549 Y2.212 Z-43.19 
X200.522 Y2.117 Z-43.73 
X204.498 Y2.027 Z-44.247 
X208.478 Y1.94 Z-44.741 
X212.461 Y1.858 Z-45.21 
X216.447 Y1.78 Z-45.656 
X220.435 Y1.706 Z-46.078 
X224.426 Y1.637 Z-46.477 
X228.419 Y1.571 Z-46.851 
X232.415 Y1.51 Z-47.201 
X236.412 Y1.453 Z-47.528 
X240.412 Y1.4 Z-47.831 
X244.413 Y1.352 Z-48.109 
X248.416 Y1.308 Z-48.363 
X252.42 Y1.267 Z-48.594 
X256.425 Y1.232 Z-48.8 
X260.432 Y1.2 Z-48.982 
X264.439 Y1.173 Z-49.14 
X268.447 Y1.149 Z-49.274 
X272.456 Y1.13 Z-49.384 
X276.465 Y1.116 Z-49.469 
X280.475 Y1.105 Z-49.53 
X284.484 Y1.099 Z-49.567 
X288.494 Y1.097 Z-49.579 
Y1.098 
X292.516 Y1.099 Z-49.566 
X296.526 Y1.105 Z-49.53 
X300.535 Y1.116 Z-49.469 
X304.544 Y1.13 Z-49.384 
X308.553 Y1.149 Z-49.274 
X312.56 Y1.172 Z-49.14 
X316.567 Y1.2 Z-48.983 
X320.573 Y1.231 Z-48.801 
X324.578 Y1.267 Z-48.595 
X328.581 Y1.307 Z-48.364 
X332.583 Y1.352 Z-48.11 
X336.583 Y1.4 Z-47.832 
X340.581 Y1.453 Z-47.529 
X344.577 Y1.51 Z-47.203 
X348.571 Y1.571 Z-46.853 
X352.563 Y1.637 Z-46.479 
X356.553 Y1.706 Z-46.081 
X360.54 Y1.78 Z-45.659 
X364.524 Y1.858 Z-45.213 
X368.505 Y1.94 Z-44.743 
X372.484 Y2.026 Z-44.25 
X376.459 Y2.116 Z-43.733 
X380.432 Y2.211 Z-43.193 
X384.4 Y2.31 Z-42.628 
X388.366 Y2.413 Z-42.041 
X392.327 Y2.52 Z-41.429 
X396.285 Y2.631 Z-40.794 
X400.238 Y2.746 Z-40.135 
X404.188 Y2.866 Z-39.453 
X408.133 Y2.989 Z-38.747 
X412.074 Y3.117 Z-38.018 
X416.01 Y3.249 Z-37.266 
X419.941 Y3.385 Z-36.49 
X423.867 Y3.524 Z-35.691 
X427.788 Y3.669 Z-34.868 
X431.704 Y3.817 Z-34.022 
X435.614 Y3.969 Z-33.153 
X439.519 Y4.125 Z-32.261 
X443.418 Y4.286 Z-31.346 
X447.311 Y4.45 Z-30.407 
X451.199 Y4.619 Z-29.445 
X455.08 Y4.791 Z-28.46 
X458.955 Y4.968 Z-27.452 
X462.824 Y5.149 Z-26.421 
X466.687 Y5.333 Z-25.366 
X470.542 Y5.522 Z-24.289 
X474.391 Y5.715 Z-23.189 
X478.233 Y5.912 Z-22.066 
X482.068 Y6.113 Z-20.919 
X485.896 Y6.318 Z-19.75 
X489.716 Y6.527 Z-18.558 
X493.529 Y6.74 Z-17.343 
X497.335 Y6.957 Z-16.105 
X501.133 Y7.178 Z-14.845 
X504.923 Y7.403 Z-13.561 
X508.704 Y7.632 Z-12.255 
X512.478 Y7.865 Z-10.926 
X516.244 Y8.102 Z-9.575 
X520.001 Y8.343 Z-8.2 
X523.749 Y8.588 Z-6.804 
X527.489 Y8.837 Z-5.384 
X531.22 Y9.089 Z-3.942 
X534.942 Y9.346 Z-2.477 
X538.655 Y9.607 Z-0.99 
Z-1.29 F80 
X534.942 Y9.346 Z-2.777 F3000 
X531.22 Y9.089 Z-4.242 
X527.489 Y8.837 Z-5.684 
X523.749 Y8.588 Z-7.104 
X520.001 Y8.343 Z-8.5 
X516.244 Y8.102 Z-9.875 
X512.478 Y7.865 Z-11.226 
X508.704 Y7.632 Z-12.555 
X504.923 Y7.403 Z-13.861 
X501.133 Y7.178 Z-15.145 
X497.335 Y6.957 Z-16.405 
X493.529 Y6.74 Z-17.643 
X489.716 Y6.527 Z-18.858 
X485.896 Y6.318 Z-20.05 
X482.068 Y6.113 Z-21.219 
X478.233 Y5.912 Z-22.365 
X474.391 Y5.715 Z-23.489 
X470.542 Y5.522 Z-24.589 
X466.687 Y5.333 Z-25.666 
X462.824 Y5.149 Z-26.721 
X458.955 Y4.968 Z-27.752 
X455.08 Y4.791 Z-28.76 
X451.199 Y4.619 Z-29.745 
X447.311 Y4.45 Z-30.707 
X443.418 Y4.286 Z-31.646 
X439.519 Y4.125 Z-32.561 
X435.614 Y3.969 Z-33.453 
X431.704 Y3.817 Z-34.322 
X427.788 Y3.669 Z-35.168 
X423.867 Y3.524 Z-35.991 
X419.941 Y3.385 Z-36.79 
X416.01 Y3.249 Z-37.566 
X412.074 Y3.117 Z-38.318 
X408.133 Y2.989 Z-39.047 
X404.188 Y2.866 Z-39.753 
X400.238 Y2.746 Z-40.435 
X396.285 Y2.631 Z-41.094 
X392.327 Y2.52 Z-41.729 
X388.366 Y2.413 Z-42.34 
X384.4 Y2.31 Z-42.928 
X380.432 Y2.211 Z-43.493 
X376.459 Y2.116 Z-44.033 
X372.484 Y2.026 Z-44.55 
X368.505 Y1.94 Z-45.043 
X364.524 Y1.858 Z-45.513 
X360.54 Y1.78 Z-45.959 
X356.553 Y1.706 Z-46.381 
X352.563 Y1.637 Z-46.779 
X348.571 Y1.571 Z-47.153 
X344.577 Y1.51 Z-47.503 
X340.581 Y1.453 Z-47.829 
X336.583 Y1.4 Z-48.132 
X332.583 Y1.352 Z-48.41 
X328.581 Y1.307 Z-48.664 
X324.578 Y1.267 Z-48.895 
X320.573 Y1.231 Z-49.101 
X316.567 Y1.2 Z-49.283 
X312.56 Y1.172 Z-49.44 
X308.553 Y1.149 Z-49.574 
X304.544 Y1.13 Z-49.684 
X300.535 Y1.116 Z-49.769 
X296.526 Y1.105 Z-49.83 
X292.516 Y1.099 Z-49.866 
X288.494 Y1.098 Z-49.879 
Y1.097 
X284.484 Y1.099 Z-49.867 
X280.475 Y1.105 Z-49.83 
X276.465 Y1.116 Z-49.769 
X272.456 Y1.13 Z-49.684 
X268.447 Y1.149 Z-49.574 
X264.439 Y1.173 Z-49.44 
X260.432 Y1.2 Z-49.282 
X256.425 Y1.232 Z-49.1 
X252.42 Y1.267 Z-48.894 
X248.416 Y1.308 Z-48.664 
X244.413 Y1.352 Z-48.409 
X240.412 Y1.4 Z-48.131 
X236.412 Y1.453 Z-47.828 
X232.415 Y1.51 Z-47.501 
X228.419 Y1.571 Z-47.151 
X224.426 Y1.637 Z-46.777 
X220.435 Y1.706 Z-46.378 
X216.447 Y1.78 Z-45.956 
X212.461 Y1.858 Z-45.51 
X208.478 Y1.94 Z-45.041 
X204.498 Y2.027 Z-44.547 
X200.522 Y2.117 Z-44.03 
X196.549 Y2.212 Z-43.49 
X192.579 Y2.31 Z-42.925 
X188.613 Y2.413 Z-42.337 
X184.651 Y2.52 Z-41.726 
X180.693 Y2.631 Z-41.091 
X176.74 Y2.747 Z-40.432 
X172.79 Y2.866 Z-39.75 
X168.845 Y2.99 Z-39.044 
X164.905 Y3.117 Z-38.315 
X160.97 Y3.249 Z-37.563 
X157.039 Y3.385 Z-36.787 
X153.113 Y3.525 Z-35.988 
X149.192 Y3.669 Z-35.166 
X145.277 Y3.817 Z-34.32 
X141.366 Y3.969 Z-33.451 
X137.461 Y4.126 Z-32.559 
X133.562 Y4.286 Z-31.643 
X129.668 Y4.451 Z-30.705 
X125.78 Y4.619 Z-29.743 
X121.899 Y4.792 Z-28.758 
X118.024 Y4.968 Z-27.749 
X114.155 Y5.149 Z-26.718 
X110.293 Y5.334 Z-25.664 
X106.437 Y5.523 Z-24.587 
X102.589 Y5.716 Z-23.486 
X98.748 Y5.913 Z-22.363 
X94.913 Y6.114 Z-21.216 
X91.086 Y6.318 Z-20.047 
X87.267 Y6.527 Z-18.855 
X83.455 Y6.74 Z-17.64 
X79.65 Y6.957 Z-16.403 
X75.854 Y7.178 Z-15.142 
X72.065 Y7.403 Z-13.858 
X68.284 Y7.632 Z-12.552 
X64.512 Y7.865 Z-11.223 
X60.748 Y8.102 Z-9.872 
X56.992 Y8.343 Z-8.498 
X53.245 Y8.588 Z-7.101 
X49.507 Y8.837 Z-5.681 
X45.778 Y9.09 Z-4.239 
X42.057 Y9.347 Z-2.774 
X38.346 Y9.608 Z-1.287 
Z-1.587 F80 
X42.057 Y9.347 Z-3.074 F3000 
X45.778 Y9.09 Z-4.539 
X49.507 Y8.837 Z-5.981 
X53.245 Y8.588 Z-7.401 
X56.992 Y8.343 Z-8.798 
X60.748 Y8.102 Z-10.172 
X64.512 Y7.865 Z-11.523 
X68.284 Y7.632 Z-12.852 
X72.065 Y7.403 Z-14.158 
X75.854 Y7.178 Z-15.442 
X79.65 Y6.957 Z-16.702 
X83.455 Y6.74 Z-17.94 
X87.267 Y6.527 Z-19.155 
X91.086 Y6.318 Z-20.347 
X94.913 Y6.114 Z-21.517 
X98.748 Y5.913 Z-22.663 
X102.589 Y5.716 Z-23.786 
X106.437 Y5.523 Z-24.886 
X110.293 Y5.334 Z-25.964 
X114.155 Y5.149 Z-27.018 
X118.024 Y4.968 Z-28.049 
X121.899 Y4.792 Z-29.058 
X125.78 Y4.619 Z-30.043 
X129.668 Y4.451 Z-31.005 
X133.562 Y4.286 Z-31.944 
X137.461 Y4.126 Z-32.859 
X141.366 Y3.969 Z-33.751 
X145.277 Y3.817 Z-34.62 
X149.192 Y3.669 Z-35.466 
X153.113 Y3.525 Z-36.289 
X157.039 Y3.385 Z-37.088 
X160.97 Y3.249 Z-37.863 
X164.905 Y3.117 Z-38.616 
X168.845 Y2.99 Z-39.344 
X172.79 Y2.866 Z-40.05 
X176.74 Y2.747 Z-40.732 
X180.693 Y2.631 Z-41.391 
X184.651 Y2.52 Z-42.026 
X188.613 Y2.413 Z-42.637 
X192.579 Y2.31 Z-43.225 
X196.549 Y2.212 Z-43.79 
X200.522 Y2.117 Z-44.33 
X204.498 Y2.027 Z-44.847 
X208.478 Y1.94 Z-45.341 
X212.461 Y1.858 Z-45.81 
X216.447 Y1.78 Z-46.256 
X220.435 Y1.706 Z-46.678 
X224.426 Y1.637 Z-47.077 
X228.419 Y1.571 Z-47.451 
X232.415 Y1.51 Z-47.801 
X236.412 Y1.453 Z-48.128 
X240.412 Y1.4 Z-48.431 
X244.413 Y1.352 Z-48.709 
X248.416 Y1.308 Z-48.964 
X252.42 Y1.267 Z-49.194 
X256.425 Y1.232 Z-49.4 
X260.432 Y1.2 Z-49.582 
X264.439 Y1.173 Z-49.74 
X268.447 Y1.149 Z-49.874 
X272.456 Y1.13 Z-49.984 
X276.465 Y1.116 Z-50.069 
X280.475 Y1.105 Z-50.13 
X284.484 Y1.099 Z-50.167 
X288.494 Y1.097 Z-50.179 
Y1.098 
X292.516 Y1.099 Z-50.166 
X296.526 Y1.105 Z-50.13 
X300.535 Y1.116 Z-50.069 
X304.544 Y1.13 Z-49.984 
X308.553 Y1.149 Z-49.874 
X312.56 Y1.172 Z-49.741 
X316.567 Y1.2 Z-49.583 
X320.573 Y1.231 Z-49.401 
X324.578 Y1.267 Z-49.194 
X328.581 Y1.307 Z-48.964 
X332.583 Y1.352 Z-48.71 
X336.583 Y1.4 Z-48.432 
X340.581 Y1.453 Z-48.129 
X344.577 Y1.51 Z-47.803 
X348.571 Y1.571 Z-47.453 
X352.563 Y1.637 Z-47.079 
X356.553 Y1.706 Z-46.681 
X360.54 Y1.78 Z-46.259 
X364.524 Y1.858 Z-45.813 
X368.505 Y1.94 Z-45.343 
X372.484 Y2.026 Z-44.85 
X376.459 Y2.116 Z-44.333 
X380.432 Y2.211 Z-43.793 
X384.4 Y2.31 Z-43.228 
X388.366 Y2.413 Z-42.64 
X392.327 Y2.52 Z-42.029 
X396.285 Y2.631 Z-41.394 
X400.238 Y2.746 Z-40.735 
X404.188 Y2.866 Z-40.053 
X408.133 Y2.989 Z-39.347 
X412.074 Y3.117 Z-38.618 
X416.01 Y3.249 Z-37.866 
X419.941 Y3.385 Z-37.09 
X423.867 Y3.524 Z-36.291 
X427.788 Y3.669 Z-35.468 
X431.704 Y3.817 Z-34.623 
X435.614 Y3.969 Z-33.753 
X439.519 Y4.125 Z-32.861 
X443.418 Y4.286 Z-31.945 
X447.311 Y4.45 Z-31.007 
X451.199 Y4.619 Z-30.045 
X455.08 Y4.791 Z-29.06 
X458.955 Y4.968 Z-28.052 
X462.824 Y5.149 Z-27.021 
X466.687 Y5.333 Z-25.966 
X470.542 Y5.522 Z-24.889 
X474.391 Y5.715 Z-23.789 
X478.233 Y5.912 Z-22.666 
X482.068 Y6.113 Z-21.519 
X485.896 Y6.318 Z-20.35 
X489.716 Y6.527 Z-19.158 
X493.529 Y6.74 Z-17.943 
X497.335 Y6.957 Z-16.705 
X501.133 Y7.178 Z-15.445 
X504.923 Y7.403 Z-14.161 
X508.704 Y7.632 Z-12.855 
X512.478 Y7.865 Z-11.526 
X516.244 Y8.102 Z-10.175 
X520.001 Y8.343 Z-8.8 
X523.749 Y8.588 Z-7.404 
X527.489 Y8.837 Z-5.984 
X531.22 Y9.089 Z-4.542 
X534.942 Y9.346 Z-3.077 
X538.655 Y9.607 Z-1.59 
Z-1.89 F80 
X534.942 Y9.346 Z-3.377 F3000 
X531.22 Y9.089 Z-4.842 
X527.489 Y8.837 Z-6.284 
X523.749 Y8.588 Z-7.704 
X520.001 Y8.343 Z-9.101 
X516.244 Y8.102 Z-10.475 
X512.478 Y7.865 Z-11.826 
X508.704 Y7.632 Z-13.155 
X504.923 Y7.403 Z-14.461 
X501.133 Y7.178 Z-15.745 
X497.335 Y6.957 Z-17.005 
X493.529 Y6.74 Z-18.243 
X489.716 Y6.527 Z-19.458 
X485.896 Y6.318 Z-20.65 
X482.068 Y6.113 Z-21.819 
X478.233 Y5.912 Z-22.965 
X474.391 Y5.715 Z-24.089 
X470.542 Y5.522 Z-25.189 
X466.687 Y5.333 Z-26.266 
X462.824 Y5.149 Z-27.321 
X458.955 Y4.968 Z-28.352 
X455.08 Y4.791 Z-29.36 
X451.199 Y4.619 Z-30.345 
X447.311 Y4.45 Z-31.307 
X443.418 Y4.286 Z-32.245 
X439.519 Y4.125 Z-33.161 
X435.614 Y3.969 Z-34.053 
X431.704 Y3.817 Z-34.923 
X427.788 Y3.669 Z-35.768 
X423.867 Y3.524 Z-36.591 
X419.941 Y3.385 Z-37.39 
X416.01 Y3.249 Z-38.166 
X412.074 Y3.117 Z-38.918 
X408.133 Y2.989 Z-39.647 
X404.188 Y2.866 Z-40.353 
X400.238 Y2.746 Z-41.035 
X396.285 Y2.631 Z-41.694 
X392.327 Y2.52 Z-42.329 
X388.366 Y2.413 Z-42.94 
X384.4 Y2.31 Z-43.528 
X380.432 Y2.211 Z-44.093 
X376.459 Y2.116 Z-44.633 
X372.484 Y2.026 Z-45.15 
X368.505 Y1.94 Z-45.644 
X364.524 Y1.858 Z-46.113 
X360.54 Y1.78 Z-46.559 
X356.553 Y1.706 Z-46.981 
X352.563 Y1.637 Z-47.379 
X348.571 Y1.571 Z-47.753 
X344.577 Y1.51 Z-48.103 
X340.581 Y1.453 Z-48.429 
X336.583 Y1.4 Z-48.732 
X332.583 Y1.352 Z-49.01 
X328.581 Y1.307 Z-49.264 
X324.578 Y1.267 Z-49.494 
X320.573 Y1.231 Z-49.701 
X316.567 Y1.2 Z-49.883 
X312.56 Y1.172 Z-50.041 
X308.553 Y1.149 Z-50.174 
X304.544 Y1.13 Z-50.284 
X300.535 Y1.116 Z-50.369 
X296.526 Y1.105 Z-50.43 
X292.516 Y1.099 Z-50.466 
X288.494 Y1.098 Z-50.479 
Y1.097 
X284.484 Y1.099 Z-50.467 
X280.475 Y1.105 Z-50.43 
X276.465 Y1.116 Z-50.369 
X272.456 Y1.13 Z-50.284 
X268.447 Y1.149 Z-50.174 
X264.439 Y1.173 Z-50.04 
X260.432 Y1.2 Z-49.882 
X256.425 Y1.232 Z-49.7 
X252.42 Y1.267 Z-49.494 
X248.416 Y1.308 Z-49.264 
X244.413 Y1.352 Z-49.009 
X240.412 Y1.4 Z-48.73 
X236.412 Y1.453 Z-48.428 
X232.415 Y1.51 Z-48.101 
X228.419 Y1.571 Z-47.751 
X224.426 Y1.637 Z-47.377 
X220.435 Y1.706 Z-46.978 
X216.447 Y1.78 Z-46.556 
X212.461 Y1.858 Z-46.11 
X208.478 Y1.94 Z-45.641 
X204.498 Y2.027 Z-45.147 
X200.522 Y2.117 Z-44.63 
X196.549 Y2.212 Z-44.09 
X192.579 Y2.31 Z-43.525 
X188.613 Y2.413 Z-42.937 
X184.651 Y2.52 Z-42.326 
X180.693 Y2.631 Z-41.691 
X176.74 Y2.747 Z-41.032 
X172.79 Y2.866 Z-40.35 
X168.845 Y2.99 Z-39.644 
X164.905 Y3.117 Z-38.916 
X160.97 Y3.249 Z-38.163 
X157.039 Y3.385 Z-37.388 
X153.113 Y3.525 Z-36.589 
X149.192 Y3.669 Z-35.766 
X145.277 Y3.817 Z-34.92 
X141.366 Y3.969 Z-34.051 
X137.461 Y4.126 Z-33.159 
X133.562 Y4.286 Z-32.243 
X129.668 Y4.451 Z-31.305 
X125.78 Y4.619 Z-30.343 
X121.899 Y4.792 Z-29.358 
X118.024 Y4.968 Z-28.349 
X114.155 Y5.149 Z-27.318 
X110.293 Y5.334 Z-26.264 
X106.437 Y5.523 Z-25.187 
X102.589 Y5.716 Z-24.086 
X98.748 Y5.913 Z-22.963 
X94.913 Y6.114 Z-21.816 
X91.086 Y6.318 Z-20.647 
X87.267 Y6.527 Z-19.455 
X83.455 Y6.74 Z-18.24 
X79.65 Y6.957 Z-17.003 
X75.854 Y7.178 Z-15.742 
X72.065 Y7.403 Z-14.458 
X68.284 Y7.632 Z-13.152 
X64.512 Y7.865 Z-11.823 
X60.748 Y8.102 Z-10.472 
X56.992 Y8.343 Z-9.098 
X53.245 Y8.588 Z-7.701 
X49.507 Y8.837 Z-6.281 
X45.778 Y9.09 Z-4.839 
X42.057 Y9.347 Z-3.374 
X38.346 Y9.608 Z-1.887 
Z-2.187 F80 
X42.057 Y9.347 Z-3.674 F3000 
X45.778 Y9.09 Z-5.139 
X49.507 Y8.837 Z-6.581 
X53.245 Y8.588 Z-8.001 
X56.992 Y8.343 Z-9.398 
X60.748 Y8.102 Z-10.772 
X64.512 Y7.865 Z-12.123 
X68.284 Y7.632 Z-13.452 
X72.065 Y7.403 Z-14.759 
X75.854 Y7.178 Z-16.042 
X79.65 Y6.957 Z-17.302 
X83.455 Y6.74 Z-18.54 
X87.267 Y6.527 Z-19.755 
X91.086 Y6.318 Z-20.947 
X94.913 Y6.114 Z-22.117 
X98.748 Y5.913 Z-23.263 
X102.589 Y5.716 Z-24.386 
X106.437 Y5.523 Z-25.486 
X110.293 Y5.334 Z-26.564 
X114.155 Y5.149 Z-27.618 
X118.024 Y4.968 Z-28.649 
X121.899 Y4.792 Z-29.658 
X125.78 Y4.619 Z-30.643 
X129.668 Y4.451 Z-31.605 
X133.562 Y4.286 Z-32.543 
X137.461 Y4.126 Z-33.459 
X141.366 Y3.969 Z-34.351 
X145.277 Y3.817 Z-35.22 
X149.192 Y3.669 Z-36.066 
X153.113 Y3.525 Z-36.889 
X157.039 Y3.385 Z-37.688 
X160.97 Y3.249 Z-38.463 
X164.905 Y3.117 Z-39.215 
X168.845 Y2.99 Z-39.944 
X172.79 Y2.866 Z-40.65 
X176.74 Y2.747 Z-41.332 
X180.693 Y2.631 Z-41.991 
X184.651 Y2.52 Z-42.626 
X188.613 Y2.413 Z-43.237 
X192.579 Y2.31 Z-43.825 
X196.549 Y2.212 Z-44.39 
X200.522 Y2.117 Z-44.93 
X204.498 Y2.027 Z-45.447 
X208.478 Y1.94 Z-45.941 
X212.461 Y1.858 Z-46.41 
X216.447 Y1.78 Z-46.856 
X220.435 Y1.706 Z-47.278 
X224.426 Y1.637 Z-47.677 
X228.419 Y1.571 Z-48.051 
X232.415 Y1.51 Z-48.401 
X236.412 Y1.453 Z-48.728 
X240.412 Y1.4 Z-49.03 
X244.413 Y1.352 Z-49.309 
X248.416 Y1.308 Z-49.563 
X252.42 Y1.267 Z-49.794 
X256.425 Y1.232 Z-50 
X260.432 Y1.2 Z-50.182 
X264.439 Y1.173 Z-50.34 
X268.447 Y1.149 Z-50.474 
X272.456 Y1.13 Z-50.584 
X276.465 Y1.116 Z-50.669 
X280.475 Y1.105 Z-50.73 
X284.484 Y1.099 Z-50.767 
X288.494 Y1.097 Z-50.779 
Y1.098 
X292.516 Y1.099 Z-50.766 
X296.526 Y1.105 Z-50.73 
X300.535 Y1.116 Z-50.669 
X304.544 Y1.13 Z-50.584 
X308.553 Y1.149 Z-50.474 
X312.56 Y1.172 Z-50.34 
X316.567 Y1.2 Z-50.183 
X320.573 Y1.231 Z-50.001 
X324.578 Y1.267 Z-49.794 
X328.581 Y1.307 Z-49.564 
X332.583 Y1.352 Z-49.31 
X336.583 Y1.4 Z-49.032 
X340.581 Y1.453 Z-48.729 
X344.577 Y1.51 Z-48.403 
X348.571 Y1.571 Z-48.053 
X352.563 Y1.637 Z-47.679 
X356.553 Y1.706 Z-47.281 
X360.54 Y1.78 Z-46.859 
X364.524 Y1.858 Z-46.413 
X368.505 Y1.94 Z-45.944 
X372.484 Y2.026 Z-45.45 
X376.459 Y2.116 Z-44.933 
X380.432 Y2.211 Z-44.393 
X384.4 Y2.31 Z-43.828 
X388.366 Y2.413 Z-43.241 
X392.327 Y2.52 Z-42.629 
X396.285 Y2.631 Z-41.994 
X400.238 Y2.746 Z-41.335 
X404.188 Y2.866 Z-40.653 
X408.133 Y2.989 Z-39.947 
X412.074 Y3.117 Z-39.218 
X416.01 Y3.249 Z-38.466 
X419.941 Y3.385 Z-37.69 
X423.867 Y3.524 Z-36.891 
X427.788 Y3.669 Z-36.068 
X431.704 Y3.817 Z-35.222 
X435.614 Y3.969 Z-34.353 
X439.519 Y4.125 Z-33.461 
X443.418 Y4.286 Z-32.546 
X447.311 Y4.45 Z-31.607 
X451.199 Y4.619 Z-30.645 
X455.08 Y4.791 Z-29.66 
X458.955 Y4.968 Z-28.652 
X462.824 Y5.149 Z-27.621 
X466.687 Y5.333 Z-26.566 
X470.542 Y5.522 Z-25.489 
X474.391 Y5.715 Z-24.389 
X478.233 Y5.912 Z-23.265 
X482.068 Y6.113 Z-22.119 
X485.896 Y6.318 Z-20.95 
X489.716 Y6.527 Z-19.758 
X493.529 Y6.74 Z-18.543 
X497.335 Y6.957 Z-17.305 
X501.133 Y7.178 Z-16.045 
X504.923 Y7.403 Z-14.761 
X508.704 Y7.632 Z-13.455 
X512.478 Y7.865 Z-12.126 
X516.244 Y8.102 Z-10.775 
X520.001 Y8.343 Z-9.401 
X523.749 Y8.588 Z-8.004 
X527.489 Y8.837 Z-6.584 
X531.22 Y9.089 Z-5.142 
X534.942 Y9.346 Z-3.677 
X538.655 Y9.607 Z-2.19 
Z-2.49 F80 
X534.942 Y9.346 Z-3.977 F3000 
X531.22 Y9.089 Z-5.442 
X527.489 Y8.837 Z-6.884 
X523.749 Y8.588 Z-8.304 
X520.001 Y8.343 Z-9.7 
X516.244 Y8.102 Z-11.075 
X512.478 Y7.865 Z-12.426 
X508.704 Y7.632 Z-13.755 
X504.923 Y7.403 Z-15.061 
X501.133 Y7.178 Z-16.345 
X497.335 Y6.957 Z-17.605 
X493.529 Y6.74 Z-18.843 
X489.716 Y6.527 Z-20.058 
X485.896 Y6.318 Z-21.25 
X482.068 Y6.113 Z-22.419 
X478.233 Y5.912 Z-23.566 
X474.391 Y5.715 Z-24.689 
X470.542 Y5.522 Z-25.789 
X466.687 Y5.333 Z-26.866 
X462.824 Y5.149 Z-27.921 
X458.955 Y4.968 Z-28.952 
X455.08 Y4.791 Z-29.96 
X451.199 Y4.619 Z-30.945 
X447.311 Y4.45 Z-31.907 
X443.418 Y4.286 Z-32.846 
X439.519 Y4.125 Z-33.761 
X435.614 Y3.969 Z-34.653 
X431.704 Y3.817 Z-35.522 
X427.788 Y3.669 Z-36.368 
X423.867 Y3.524 Z-37.191 
X419.941 Y3.385 Z-37.99 
X416.01 Y3.249 Z-38.766 
X412.074 Y3.117 Z-39.518 
X408.133 Y2.989 Z-40.247 
X404.188 Y2.866 Z-40.953 
X400.238 Y2.746 Z-41.635 
X396.285 Y2.631 Z-42.294 
X392.327 Y2.52 Z-42.929 
X388.366 Y2.413 Z-43.541 
X384.4 Y2.31 Z-44.128 
X380.432 Y2.211 Z-44.693 
X376.459 Y2.116 Z-45.233 
X372.484 Y2.026 Z-45.75 
X368.505 Y1.94 Z-46.243 
X364.524 Y1.858 Z-46.713 
X360.54 Y1.78 Z-47.159 
X356.553 Y1.706 Z-47.581 
X352.563 Y1.637 Z-47.979 
X348.571 Y1.571 Z-48.353 
X344.577 Y1.51 Z-48.703 
X340.581 Y1.453 Z-49.029 
X336.583 Y1.4 Z-49.332 
X332.583 Y1.352 Z-49.61 
X328.581 Y1.307 Z-49.864 
X324.578 Y1.267 Z-50.095 
X320.573 Y1.231 Z-50.301 
X316.567 Y1.2 Z-50.483 
X312.56 Y1.172 Z-50.64 
X308.553 Y1.149 Z-50.774 
X304.544 Y1.13 Z-50.884 
X300.535 Y1.116 Z-50.969 
X296.526 Y1.105 Z-51.03 
X292.516 Y1.099 Z-51.066 
X288.494 Y1.098 Z-51.079 
Y1.097 
X284.484 Y1.099 Z-51.067 
X280.475 Y1.105 Z-51.03 
X276.465 Y1.116 Z-50.969 
X272.456 Y1.13 Z-50.884 
X268.447 Y1.149 Z-50.774 
X264.439 Y1.173 Z-50.64 
X260.432 Y1.2 Z-50.482 
X256.425 Y1.232 Z-50.3 
X252.42 Y1.267 Z-50.094 
X248.416 Y1.308 Z-49.863 
X244.413 Y1.352 Z-49.609 
X240.412 Y1.4 Z-49.331 
X236.412 Y1.453 Z-49.028 
X232.415 Y1.51 Z-48.701 
X228.419 Y1.571 Z-48.351 
X224.426 Y1.637 Z-47.977 
X220.435 Y1.706 Z-47.578 
X216.447 Y1.78 Z-47.156 
X212.461 Y1.858 Z-46.71 
X208.478 Y1.94 Z-46.241 
X204.498 Y2.027 Z-45.747 
X200.522 Y2.117 Z-45.23 
X196.549 Y2.212 Z-44.69 
X192.579 Y2.31 Z-44.125 
X188.613 Y2.413 Z-43.537 
X184.651 Y2.52 Z-42.926 
X180.693 Y2.631 Z-42.291 
X176.74 Y2.747 Z-41.632 
X172.79 Y2.866 Z-40.95 
X168.845 Y2.99 Z-40.244 
X164.905 Y3.117 Z-39.515 
X160.97 Y3.249 Z-38.763 
X157.039 Y3.385 Z-37.987 
X153.113 Y3.525 Z-37.188 
X149.192 Y3.669 Z-36.366 
X145.277 Y3.817 Z-35.52 
X141.366 Y3.969 Z-34.651 
X137.461 Y4.126 Z-33.759 
X133.562 Y4.286 Z-32.843 
X129.668 Y4.451 Z-31.905 
X125.78 Y4.619 Z-30.943 
X121.899 Y4.792 Z-29.958 
X118.024 Y4.968 Z-28.949 
X114.155 Y5.149 Z-27.918 
X110.293 Y5.334 Z-26.864 
X106.437 Y5.523 Z-25.787 
X102.589 Y5.716 Z-24.686 
X98.748 Y5.913 Z-23.563 
X94.913 Y6.114 Z-22.417 
X91.086 Y6.318 Z-21.247 
X87.267 Y6.527 Z-20.055 
X83.455 Y6.74 Z-18.84 
X79.65 Y6.957 Z-17.603 
X75.854 Y7.178 Z-16.342 
X72.065 Y7.403 Z-15.059 
X68.284 Y7.632 Z-13.752 
X64.512 Y7.865 Z-12.423 
X60.748 Y8.102 Z-11.072 
X56.992 Y8.343 Z-9.698 
X53.245 Y8.588 Z-8.301 
X49.507 Y8.837 Z-6.881 
X45.778 Y9.09 Z-5.439 
X42.057 Y9.347 Z-3.974 
X38.346 Y9.608 Z-2.487 
Z-2.787 F80 
X42.057 Y9.347 Z-4.274 F3000 
X45.778 Y9.09 Z-5.739 
X49.507 Y8.837 Z-7.181 
X53.245 Y8.588 Z-8.601 
X56.992 Y8.343 Z-9.998 
X60.748 Y8.102 Z-11.372 
X64.512 Y7.865 Z-12.723 
X68.284 Y7.632 Z-14.052 
X72.065 Y7.403 Z-15.358 
X75.854 Y7.178 Z-16.642 
X79.65 Y6.957 Z-17.903 
X83.455 Y6.74 Z-19.14 
X87.267 Y6.527 Z-20.355 
X91.086 Y6.318 Z-21.547 
X94.913 Y6.114 Z-22.716 
X98.748 Y5.913 Z-23.863 
X102.589 Y5.716 Z-24.986 
X106.437 Y5.523 Z-26.087 
X110.293 Y5.334 Z-27.164 
X114.155 Y5.149 Z-28.218 
X118.024 Y4.968 Z-29.249 
X121.899 Y4.792 Z-30.258 
X125.78 Y4.619 Z-31.243 
X129.668 Y4.451 Z-32.205 
X133.562 Y4.286 Z-33.144 
X137.461 Y4.126 Z-34.059 
X141.366 Y3.969 Z-34.951 
X145.277 Y3.817 Z-35.82 
X149.192 Y3.669 Z-36.666 
X153.113 Y3.525 Z-37.488 
X157.039 Y3.385 Z-38.287 
X160.97 Y3.249 Z-39.063 
X164.905 Y3.117 Z-39.815 
X168.845 Y2.99 Z-40.544 
X172.79 Y2.866 Z-41.25 
X176.74 Y2.747 Z-41.932 
X180.693 Y2.631 Z-42.591 
X184.651 Y2.52 Z-43.226 
X188.613 Y2.413 Z-43.837 
X192.579 Y2.31 Z-44.425 
X196.549 Y2.212 Z-44.99 
X200.522 Y2.117 Z-45.53 
X204.498 Y2.027 Z-46.047 
X208.478 Y1.94 Z-46.541 
X212.461 Y1.858 Z-47.01 
X216.447 Y1.78 Z-47.456 
X220.435 Y1.706 Z-47.878 
X224.426 Y1.637 Z-48.277 
X228.419 Y1.571 Z-48.651 
X232.415 Y1.51 Z-49.001 
X236.412 Y1.453 Z-49.328 
X240.412 Y1.4 Z-49.631 
X244.413 Y1.352 Z-49.909 
X248.416 Y1.308 Z-50.164 
X252.42 Y1.267 Z-50.394 
X256.425 Y1.232 Z-50.6 
X260.432 Y1.2 Z-50.782 
X264.439 Y1.173 Z-50.94 
X268.447 Y1.149 Z-51.074 
X272.456 Y1.13 Z-51.184 
X276.465 Y1.116 Z-51.269 
X280.475 Y1.105 Z-51.33 
X284.484 Y1.099 Z-51.367 
X288.494 Y1.097 Z-51.379 
Y1.098 
X292.516 Y1.099 Z-51.366 
X296.526 Y1.105 Z-51.33 
X300.535 Y1.116 Z-51.269 
X304.544 Y1.13 Z-51.184 
X308.553 Y1.149 Z-51.074 
X312.56 Y1.172 Z-50.94 
X316.567 Y1.2 Z-50.783 
X320.573 Y1.231 Z-50.601 
X324.578 Y1.267 Z-50.395 
X328.581 Y1.307 Z-50.164 
X332.583 Y1.352 Z-49.91 
X336.583 Y1.4 Z-49.632 
X340.581 Y1.453 Z-49.329 
X344.577 Y1.51 Z-49.003 
X348.571 Y1.571 Z-48.653 
X352.563 Y1.637 Z-48.279 
X356.553 Y1.706 Z-47.881 
X360.54 Y1.78 Z-47.459 
X364.524 Y1.858 Z-47.013 
X368.505 Y1.94 Z-46.543 
X372.484 Y2.026 Z-46.05 
X376.459 Y2.116 Z-45.533 
X380.432 Y2.211 Z-44.993 
X384.4 Y2.31 Z-44.428 
X388.366 Y2.413 Z-43.84 
X392.327 Y2.52 Z-43.229 
X396.285 Y2.631 Z-42.594 
X400.238 Y2.746 Z-41.935 
X404.188 Y2.866 Z-41.253 
X408.133 Y2.989 Z-40.547 
X412.074 Y3.117 Z-39.818 
X416.01 Y3.249 Z-39.066 
X419.941 Y3.385 Z-38.29 
X423.867 Y3.524 Z-37.491 
X427.788 Y3.669 Z-36.668 
X431.704 Y3.817 Z-35.822 
X435.614 Y3.969 Z-34.953 
X439.519 Y4.125 Z-34.061 
X443.418 Y4.286 Z-33.146 
X447.311 Y4.45 Z-32.207 
X451.199 Y4.619 Z-31.245 
X455.08 Y4.791 Z-30.26 
X458.955 Y4.968 Z-29.252 
X462.824 Y5.149 Z-28.221 
X466.687 Y5.333 Z-27.166 
X470.542 Y5.522 Z-26.089 
X474.391 Y5.715 Z-24.989 
X478.233 Y5.912 Z-23.865 
X482.068 Y6.113 Z-22.719 
X485.896 Y6.318 Z-21.55 
X489.716 Y6.527 Z-20.358 
X493.529 Y6.74 Z-19.143 
X497.335 Y6.957 Z-17.905 
X501.133 Y7.178 Z-16.645 
X504.923 Y7.403 Z-15.361 
X508.704 Y7.632 Z-14.055 
X512.478 Y7.865 Z-12.726 
X516.244 Y8.102 Z-11.375 
X520.001 Y8.343 Z-10 
X523.749 Y8.588 Z-8.604 
X527.489 Y8.837 Z-7.184 
X531.22 Y9.089 Z-5.742 
X534.942 Y9.346 Z-4.277 
X538.655 Y9.607 Z-2.79 
Z2.213 F500 
G0 Z15 
S24000 M3 
G17 
G0 X38.346 Y10.408 
Z15 
Z2.213 
G1 Z0.213 F80 
X42.057 Y10.147 Z-1.274 F3000 
X45.778 Y9.89 Z-2.739 
X49.507 Y9.637 Z-4.181 
X53.245 Y9.388 Z-5.601 
X56.992 Y9.143 Z-6.998 
X60.748 Y8.902 Z-8.372 
X64.512 Y8.665 Z-9.723 
X68.284 Y8.432 Z-11.052 
X72.065 Y8.203 Z-12.358 
X75.854 Y7.978 Z-13.642 
X79.65 Y7.757 Z-14.903 
X83.455 Y7.54 Z-16.14 
X87.267 Y7.327 Z-17.355 
X91.086 Y7.118 Z-18.547 
X94.913 Y6.914 Z-19.716 
X98.748 Y6.713 Z-20.863 
X102.589 Y6.516 Z-21.986 
X106.437 Y6.323 Z-23.087 
X110.293 Y6.134 Z-24.164 
X114.155 Y5.949 Z-25.218 
X118.024 Y5.768 Z-26.249 
X121.899 Y5.592 Z-27.258 
X125.78 Y5.419 Z-28.243 
X129.668 Y5.251 Z-29.205 
X133.562 Y5.086 Z-30.143 
X137.461 Y4.926 Z-31.059 
X141.366 Y4.769 Z-31.951 
X145.277 Y4.617 Z-32.82 
X149.192 Y4.469 Z-33.666 
X153.113 Y4.325 Z-34.488 
X157.039 Y4.185 Z-35.287 
X160.97 Y4.049 Z-36.063 
X164.905 Y3.917 Z-36.815 
X168.845 Y3.79 Z-37.544 
X172.79 Y3.666 Z-38.25 
X176.74 Y3.547 Z-38.932 
X180.693 Y3.431 Z-39.591 
X184.651 Y3.32 Z-40.226 
X188.613 Y3.213 Z-40.837 
X192.579 Y3.11 Z-41.425 
X196.549 Y3.012 Z-41.99 
X200.522 Y2.917 Z-42.53 
X204.498 Y2.827 Z-43.047 
X208.478 Y2.74 Z-43.541 
X212.461 Y2.658 Z-44.01 
X216.447 Y2.58 Z-44.456 
X220.435 Y2.506 Z-44.878 
X224.426 Y2.437 Z-45.277 
X228.419 Y2.371 Z-45.651 
X232.415 Y2.31 Z-46.001 
X236.412 Y2.253 Z-46.328 
X240.412 Y2.2 Z-46.631 
X244.413 Y2.152 Z-46.909 
X248.416 Y2.108 Z-47.164 
X252.42 Y2.067 Z-47.394 
X256.425 Y2.032 Z-47.6 
X260.432 Y2.0 Z-47.782 
X264.439 Y1.973 Z-47.94 
X268.447 Y1.949 Z-48.074 
X272.456 Y1.93 Z-48.184 
X276.465 Y1.916 Z-48.269 
X280.475 Y1.905 Z-48.33 
X284.484 Y1.899 Z-48.367 
X288.494 Y1.897 Z-48.379 
Y1.898 
X292.516 Y1.899 Z-48.366 
X296.526 Y1.905 Z-48.33 
X300.535 Y1.916 Z-48.269 
X304.544 Y1.93 Z-48.184 
X308.553 Y1.949 Z-48.074 
X312.56 Y1.972 Z-47.94 
X316.567 Y2.0 Z-47.783 
X320.573 Y2.031 Z-47.601 
X324.578 Y2.067 Z-47.395 
X328.581 Y2.107 Z-47.164 
X332.583 Y2.152 Z-46.91 
X336.583 Y2.2 Z-46.632 
X340.581 Y2.253 Z-46.329 
X344.577 Y2.31 Z-46.003 
X348.571 Y2.371 Z-45.653 
X352.563 Y2.437 Z-45.279 
X356.553 Y2.506 Z-44.881 
X360.54 Y2.58 Z-44.459 
X364.524 Y2.658 Z-44.013 
X368.505 Y2.74 Z-43.543 
X372.484 Y2.826 Z-43.05 
X376.459 Y2.916 Z-42.533 
X380.432 Y3.011 Z-41.993 
X384.4 Y3.11 Z-41.428 
X388.366 Y3.213 Z-40.84 
X392.327 Y3.32 Z-40.229 
X396.285 Y3.431 Z-39.594 
X400.238 Y3.546 Z-38.935 
X404.188 Y3.666 Z-38.253 
X408.133 Y3.789 Z-37.547 
X412.074 Y3.917 Z-36.818 
X416.01 Y4.049 Z-36.066 
X419.941 Y4.185 Z-35.29 
X423.867 Y4.324 Z-34.491 
X427.788 Y4.469 Z-33.668 
X431.704 Y4.617 Z-32.822 
X435.614 Y4.769 Z-31.953 
X439.519 Y4.925 Z-31.061 
X443.418 Y5.086 Z-30.146 
X447.311 Y5.25 Z-29.207 
X451.199 Y5.419 Z-28.245 
X455.08 Y5.591 Z-27.26 
X458.955 Y5.768 Z-26.252 
X462.824 Y5.949 Z-25.221 
X466.687 Y6.133 Z-24.166 
X470.542 Y6.322 Z-23.089 
X474.391 Y6.515 Z-21.989 
X478.233 Y6.712 Z-20.865 
X482.068 Y6.913 Z-19.719 
X485.896 Y7.118 Z-18.55 
X489.716 Y7.327 Z-17.358 
X493.529 Y7.54 Z-16.143 
X497.335 Y7.757 Z-14.905 
X501.133 Y7.978 Z-13.645 
X504.923 Y8.203 Z-12.361 
X508.704 Y8.432 Z-11.055 
X512.478 Y8.665 Z-9.726 
X516.244 Y8.902 Z-8.375 
X520.001 Y9.143 Z-7.001 
X523.749 Y9.388 Z-5.604 
X527.489 Y9.637 Z-4.184 
X531.22 Y9.889 Z-2.742 
X534.942 Y10.146 Z-1.277 
X538.655 Y10.407 Z0.21 
Z-0.09 F80 
X534.942 Y10.146 Z-1.577 F3000 
X531.22 Y9.889 Z-3.042 
X527.489 Y9.637 Z-4.484 
X523.749 Y9.388 Z-5.904 
X520.001 Y9.143 Z-7.3 
X516.244 Y8.902 Z-8.675 
X512.478 Y8.665 Z-10.026 
X508.704 Y8.432 Z-11.355 
X504.923 Y8.203 Z-12.661 
X501.133 Y7.978 Z-13.945 
X497.335 Y7.757 Z-15.205 
X493.529 Y7.54 Z-16.443 
X489.716 Y7.327 Z-17.658 
X485.896 Y7.118 Z-18.85 
X482.068 Y6.913 Z-20.019 
X478.233 Y6.712 Z-21.166 
X474.391 Y6.515 Z-22.289 
X470.542 Y6.322 Z-23.389 
X466.687 Y6.133 Z-24.466 
X462.824 Y5.949 Z-25.521 
X458.955 Y5.768 Z-26.552 
X455.08 Y5.591 Z-27.56 
X451.199 Y5.419 Z-28.545 
X447.311 Y5.25 Z-29.507 
X443.418 Y5.086 Z-30.445 
X439.519 Y4.925 Z-31.361 
X435.614 Y4.769 Z-32.253 
X431.704 Y4.617 Z-33.123 
X427.788 Y4.469 Z-33.968 
X423.867 Y4.324 Z-34.791 
X419.941 Y4.185 Z-35.59 
X416.01 Y4.049 Z-36.366 
X412.074 Y3.917 Z-37.118 
X408.133 Y3.789 Z-37.847 
X404.188 Y3.666 Z-38.553 
X400.238 Y3.546 Z-39.235 
X396.285 Y3.431 Z-39.894 
X392.327 Y3.32 Z-40.529 
X388.366 Y3.213 Z-41.14 
X384.4 Y3.11 Z-41.728 
X380.432 Y3.011 Z-42.293 
X376.459 Y2.916 Z-42.833 
X372.484 Y2.826 Z-43.35 
X368.505 Y2.74 Z-43.843 
X364.524 Y2.658 Z-44.313 
X360.54 Y2.58 Z-44.759 
X356.553 Y2.506 Z-45.181 
X352.563 Y2.437 Z-45.579 
X348.571 Y2.371 Z-45.953 
X344.577 Y2.31 Z-46.303 
X340.581 Y2.253 Z-46.629 
X336.583 Y2.2 Z-46.932 
X332.583 Y2.152 Z-47.21 
X328.581 Y2.107 Z-47.464 
X324.578 Y2.067 Z-47.694 
X320.573 Y2.031 Z-47.901 
X316.567 Y2.0 Z-48.083 
X312.56 Y1.972 Z-48.241 
X308.553 Y1.949 Z-48.374 
X304.544 Y1.93 Z-48.484 
X300.535 Y1.916 Z-48.569 
X296.526 Y1.905 Z-48.63 
X292.516 Y1.899 Z-48.666 
X288.494 Y1.898 Z-48.679 
Y1.897 
X284.484 Y1.899 Z-48.667 
X280.475 Y1.905 Z-48.63 
X276.465 Y1.916 Z-48.569 
X272.456 Y1.93 Z-48.484 
X268.447 Y1.949 Z-48.374 
X264.439 Y1.973 Z-48.24 
X260.432 Y2.0 Z-48.082 
X256.425 Y2.032 Z-47.9 
X252.42 Y2.067 Z-47.694 
X248.416 Y2.108 Z-47.464 
X244.413 Y2.152 Z-47.209 
X240.412 Y2.2 Z-46.931 
X236.412 Y2.253 Z-46.628 
X232.415 Y2.31 Z-46.301 
X228.419 Y2.371 Z-45.951 
X224.426 Y2.437 Z-45.577 
X220.435 Y2.506 Z-45.178 
X216.447 Y2.58 Z-44.756 
X212.461 Y2.658 Z-44.31 
X208.478 Y2.74 Z-43.841 
X204.498 Y2.827 Z-43.347 
X200.522 Y2.917 Z-42.83 
X196.549 Y3.012 Z-42.29 
X192.579 Y3.11 Z-41.725 
X188.613 Y3.213 Z-41.137 
X184.651 Y3.32 Z-40.526 
X180.693 Y3.431 Z-39.891 
X176.74 Y3.547 Z-39.232 
X172.79 Y3.666 Z-38.55 
X168.845 Y3.79 Z-37.844 
X164.905 Y3.917 Z-37.116 
X160.97 Y4.049 Z-36.363 
X157.039 Y4.185 Z-35.588 
X153.113 Y4.325 Z-34.789 
X149.192 Y4.469 Z-33.966 
X145.277 Y4.617 Z-33.12 
X141.366 Y4.769 Z-32.251 
X137.461 Y4.926 Z-31.359 
X133.562 Y5.086 Z-30.444 
X129.668 Y5.251 Z-29.505 
X125.78 Y5.419 Z-28.543 
X121.899 Y5.592 Z-27.558 
X118.024 Y5.768 Z-26.549 
X114.155 Y5.949 Z-25.518 
X110.293 Y6.134 Z-24.464 
X106.437 Y6.323 Z-23.386 
X102.589 Y6.516 Z-22.286 
X98.748 Y6.713 Z-21.163 
X94.913 Y6.914 Z-20.017 
X91.086 Y7.118 Z-18.847 
X87.267 Y7.327 Z-17.655 
X83.455 Y7.54 Z-16.44 
X79.65 Y7.757 Z-15.203 
X75.854 Y7.978 Z-13.942 
X72.065 Y8.203 Z-12.658 
X68.284 Y8.432 Z-11.352 
X64.512 Y8.665 Z-10.023 
X60.748 Y8.902 Z-8.672 
X56.992 Y9.143 Z-7.298 
X53.245 Y9.388 Z-5.901 
X49.507 Y9.637 Z-4.481 
X45.778 Y9.89 Z-3.039 
X42.057 Y10.147 Z-1.574 
X38.346 Y10.408 Z-0.087 
Z-0.387 F80 
X42.057 Y10.147 Z-1.874 F3000 
X45.778 Y9.89 Z-3.339 
X49.507 Y9.637 Z-4.781 
X53.245 Y9.388 Z-6.201 
X56.992 Y9.143 Z-7.598 
X60.748 Y8.902 Z-8.972 
X64.512 Y8.665 Z-10.323 
X68.284 Y8.432 Z-11.652 
X72.065 Y8.203 Z-12.958 
X75.854 Y7.978 Z-14.242 
X79.65 Y7.757 Z-15.502 
X83.455 Y7.54 Z-16.74 
X87.267 Y7.327 Z-17.955 
X91.086 Y7.118 Z-19.147 
X94.913 Y6.914 Z-20.316 
X98.748 Y6.713 Z-21.463 
X102.589 Y6.516 Z-22.586 
X106.437 Y6.323 Z-23.687 
X110.293 Y6.134 Z-24.764 
X114.155 Y5.949 Z-25.818 
X118.024 Y5.768 Z-26.849 
X121.899 Y5.592 Z-27.858 
X125.78 Y5.419 Z-28.843 
X129.668 Y5.251 Z-29.805 
X133.562 Y5.086 Z-30.743 
X137.461 Y4.926 Z-31.659 
X141.366 Y4.769 Z-32.551 
X145.277 Y4.617 Z-33.42 
X149.192 Y4.469 Z-34.266 
X153.113 Y4.325 Z-35.089 
X157.039 Y4.185 Z-35.888 
X160.97 Y4.049 Z-36.663 
X164.905 Y3.917 Z-37.416 
X168.845 Y3.79 Z-38.144 
X172.79 Y3.666 Z-38.85 
X176.74 Y3.547 Z-39.532 
X180.693 Y3.431 Z-40.191 
X184.651 Y3.32 Z-40.826 
X188.613 Y3.213 Z-41.437 
X192.579 Y3.11 Z-42.025 
X196.549 Y3.012 Z-42.59 
X200.522 Y2.917 Z-43.13 
X204.498 Y2.827 Z-43.647 
X208.478 Y2.74 Z-44.141 
X212.461 Y2.658 Z-44.61 
X216.447 Y2.58 Z-45.056 
X220.435 Y2.506 Z-45.478 
X224.426 Y2.437 Z-45.877 
X228.419 Y2.371 Z-46.251 
X232.415 Y2.31 Z-46.601 
X236.412 Y2.253 Z-46.928 
X240.412 Y2.2 Z-47.23 
X244.413 Y2.152 Z-47.509 
X248.416 Y2.108 Z-47.764 
X252.42 Y2.067 Z-47.994 
X256.425 Y2.032 Z-48.2 
X260.432 Y2.0 Z-48.382 
X264.439 Y1.973 Z-48.54 
X268.447 Y1.949 Z-48.674 
X272.456 Y1.93 Z-48.784 
X276.465 Y1.916 Z-48.869 
X280.475 Y1.905 Z-48.93 
X284.484 Y1.899 Z-48.967 
X288.494 Y1.897 Z-48.979 
Y1.898 
X292.516 Y1.899 Z-48.966 
X296.526 Y1.905 Z-48.93 
X300.535 Y1.916 Z-48.869 
X304.544 Y1.93 Z-48.784 
X308.553 Y1.949 Z-48.674 
X312.56 Y1.972 Z-48.541 
X316.567 Y2.0 Z-48.383 
X320.573 Y2.031 Z-48.201 
X324.578 Y2.067 Z-47.994 
X328.581 Y2.107 Z-47.764 
X332.583 Y2.152 Z-47.51 
X336.583 Y2.2 Z-47.232 
X340.581 Y2.253 Z-46.929 
X344.577 Y2.31 Z-46.603 
X348.571 Y2.371 Z-46.253 
X352.563 Y2.437 Z-45.879 
X356.553 Y2.506 Z-45.481 
X360.54 Y2.58 Z-45.059 
X364.524 Y2.658 Z-44.613 
X368.505 Y2.74 Z-44.144 
X372.484 Y2.826 Z-43.65 
X376.459 Y2.916 Z-43.133 
X380.432 Y3.011 Z-42.593 
X384.4 Y3.11 Z-42.028 
X388.366 Y3.213 Z-41.44 
X392.327 Y3.32 Z-40.829 
X396.285 Y3.431 Z-40.194 
X400.238 Y3.546 Z-39.535 
X404.188 Y3.666 Z-38.853 
X408.133 Y3.789 Z-38.147 
X412.074 Y3.917 Z-37.418 
X416.01 Y4.049 Z-36.666 
X419.941 Y4.185 Z-35.89 
X423.867 Y4.324 Z-35.091 
X427.788 Y4.469 Z-34.268 
X431.704 Y4.617 Z-33.423 
X435.614 Y4.769 Z-32.553 
X439.519 Y4.925 Z-31.661 
X443.418 Y5.086 Z-30.746 
X447.311 Y5.25 Z-29.807 
X451.199 Y5.419 Z-28.845 
X455.08 Y5.591 Z-27.86 
X458.955 Y5.768 Z-26.852 
X462.824 Y5.949 Z-25.821 
X466.687 Y6.133 Z-24.766 
X470.542 Y6.322 Z-23.689 
X474.391 Y6.515 Z-22.589 
X478.233 Y6.712 Z-21.465 
X482.068 Y6.913 Z-20.319 
X485.896 Y7.118 Z-19.15 
X489.716 Y7.327 Z-17.958 
X493.529 Y7.54 Z-16.743 
X497.335 Y7.757 Z-15.505 
X501.133 Y7.978 Z-14.245 
X504.923 Y8.203 Z-12.961 
X508.704 Y8.432 Z-11.655 
X512.478 Y8.665 Z-10.326 
X516.244 Y8.902 Z-8.975 
X520.001 Y9.143 Z-7.601 
X523.749 Y9.388 Z-6.204 
X527.489 Y9.637 Z-4.784 
X531.22 Y9.889 Z-3.342 
X534.942 Y10.146 Z-1.877 
X538.655 Y10.407 Z-0.39 
Z-0.69 F80 
X534.942 Y10.146 Z-2.177 F3000 
X531.22 Y9.889 Z-3.642 
X527.489 Y9.637 Z-5.084 
X523.749 Y9.388 Z-6.504 
X520.001 Y9.143 Z-7.9 
X516.244 Y8.902 Z-9.275 
X512.478 Y8.665 Z-10.626 
X508.704 Y8.432 Z-11.955 
X504.923 Y8.203 Z-13.261 
X501.133 Y7.978 Z-14.545 
X497.335 Y7.757 Z-15.805 
X493.529 Y7.54 Z-17.043 
X489.716 Y7.327 Z-18.258 
X485.896 Y7.118 Z-19.45 
X482.068 Y6.913 Z-20.619 
X478.233 Y6.712 Z-21.765 
X474.391 Y6.515 Z-22.889 
X470.542 Y6.322 Z-23.989 
X466.687 Y6.133 Z-25.066 
X462.824 Y5.949 Z-26.121 
X458.955 Y5.768 Z-27.152 
X455.08 Y5.591 Z-28.16 
X451.199 Y5.419 Z-29.145 
X447.311 Y5.25 Z-30.107 
X443.418 Y5.086 Z-31.045 
X439.519 Y4.925 Z-31.961 
X435.614 Y4.769 Z-32.853 
X431.704 Y4.617 Z-33.722 
X427.788 Y4.469 Z-34.568 
X423.867 Y4.324 Z-35.391 
X419.941 Y4.185 Z-36.19 
X416.01 Y4.049 Z-36.966 
X412.074 Y3.917 Z-37.718 
X408.133 Y3.789 Z-38.447 
X404.188 Y3.666 Z-39.153 
X400.238 Y3.546 Z-39.835 
X396.285 Y3.431 Z-40.494 
X392.327 Y3.32 Z-41.129 
X388.366 Y3.213 Z-41.741 
X384.4 Y3.11 Z-42.328 
X380.432 Y3.011 Z-42.893 
X376.459 Y2.916 Z-43.433 
X372.484 Y2.826 Z-43.95 
X368.505 Y2.74 Z-44.444 
X364.524 Y2.658 Z-44.913 
X360.54 Y2.58 Z-45.359 
X356.553 Y2.506 Z-45.781 
X352.563 Y2.437 Z-46.179 
X348.571 Y2.371 Z-46.553 
X344.577 Y2.31 Z-46.903 
X340.581 Y2.253 Z-47.229 
X336.583 Y2.2 Z-47.532 
X332.583 Y2.152 Z-47.81 
X328.581 Y2.107 Z-48.064 
X324.578 Y2.067 Z-48.294 
X320.573 Y2.031 Z-48.501 
X316.567 Y2.0 Z-48.683 
X312.56 Y1.972 Z-48.84 
X308.553 Y1.949 Z-48.974 
X304.544 Y1.93 Z-49.084 
X300.535 Y1.916 Z-49.169 
X296.526 Y1.905 Z-49.23 
X292.516 Y1.899 Z-49.266 
X288.494 Y1.898 Z-49.279 
Y1.897 
X284.484 Y1.899 Z-49.267 
X280.475 Y1.905 Z-49.23 
X276.465 Y1.916 Z-49.169 
X272.456 Y1.93 Z-49.084 
X268.447 Y1.949 Z-48.974 
X264.439 Y1.973 Z-48.84 
X260.432 Y2.0 Z-48.682 
X256.425 Y2.032 Z-48.5 
X252.42 Y2.067 Z-48.294 
X248.416 Y2.108 Z-48.063 
X244.413 Y2.152 Z-47.809 
X240.412 Y2.2 Z-47.53 
X236.412 Y2.253 Z-47.228 
X232.415 Y2.31 Z-46.901 
X228.419 Y2.371 Z-46.551 
X224.426 Y2.437 Z-46.177 
X220.435 Y2.506 Z-45.778 
X216.447 Y2.58 Z-45.356 
X212.461 Y2.658 Z-44.91 
X208.478 Y2.74 Z-44.441 
X204.498 Y2.827 Z-43.947 
X200.522 Y2.917 Z-43.43 
X196.549 Y3.012 Z-42.89 
X192.579 Y3.11 Z-42.325 
X188.613 Y3.213 Z-41.737 
X184.651 Y3.32 Z-41.126 
X180.693 Y3.431 Z-40.491 
X176.74 Y3.547 Z-39.832 
X172.79 Y3.666 Z-39.15 
X168.845 Y3.79 Z-38.444 
X164.905 Y3.917 Z-37.715 
X160.97 Y4.049 Z-36.963 
X157.039 Y4.185 Z-36.188 
X153.113 Y4.325 Z-35.389 
X149.192 Y4.469 Z-34.566 
X145.277 Y4.617 Z-33.72 
X141.366 Y4.769 Z-32.851 
X137.461 Y4.926 Z-31.959 
X133.562 Y5.086 Z-31.044 
X129.668 Y5.251 Z-30.105 
X125.78 Y5.419 Z-29.143 
X121.899 Y5.592 Z-28.158 
X118.024 Y5.768 Z-27.149 
X114.155 Y5.949 Z-26.118 
X110.293 Y6.134 Z-25.064 
X106.437 Y6.323 Z-23.986 
X102.589 Y6.516 Z-22.886 
X98.748 Y6.713 Z-21.763 
X94.913 Y6.914 Z-20.617 
X91.086 Y7.118 Z-19.447 
X87.267 Y7.327 Z-18.255 
X83.455 Y7.54 Z-17.04 
X79.65 Y7.757 Z-15.802 
X75.854 Y7.978 Z-14.542 
X72.065 Y8.203 Z-13.259 
X68.284 Y8.432 Z-11.952 
X64.512 Y8.665 Z-10.623 
X60.748 Y8.902 Z-9.272 
X56.992 Y9.143 Z-7.898 
X53.245 Y9.388 Z-6.501 
X49.507 Y9.637 Z-5.081 
X45.778 Y9.89 Z-3.639 
X42.057 Y10.147 Z-2.174 
X38.346 Y10.408 Z-0.687 
Z-0.987 F80 
X42.057 Y10.147 Z-2.474 F3000 
X45.778 Y9.89 Z-3.939 
X49.507 Y9.637 Z-5.381 
X53.245 Y9.388 Z-6.801 
X56.992 Y9.143 Z-8.198 
X60.748 Y8.902 Z-9.572 
X64.512 Y8.665 Z-10.923 
X68.284 Y8.432 Z-12.252 
X72.065 Y8.203 Z-13.559 
X75.854 Y7.978 Z-14.842 
X79.65 Y7.757 Z-16.103 
X83.455 Y7.54 Z-17.34 
X87.267 Y7.327 Z-18.555 
X91.086 Y7.118 Z-19.747 
X94.913 Y6.914 Z-20.917 
X98.748 Y6.713 Z-22.063 
X102.589 Y6.516 Z-23.186 
X106.437 Y6.323 Z-24.287 
X110.293 Y6.134 Z-25.364 
X114.155 Y5.949 Z-26.418 
X118.024 Y5.768 Z-27.449 
X121.899 Y5.592 Z-28.458 
X125.78 Y5.419 Z-29.443 
X129.668 Y5.251 Z-30.405 
X133.562 Y5.086 Z-31.344 
X137.461 Y4.926 Z-32.259 
X141.366 Y4.769 Z-33.151 
X145.277 Y4.617 Z-34.02 
X149.192 Y4.469 Z-34.866 
X153.113 Y4.325 Z-35.688 
X157.039 Y4.185 Z-36.487 
X160.97 Y4.049 Z-37.263 
X164.905 Y3.917 Z-38.015 
X168.845 Y3.79 Z-38.744 
X172.79 Y3.666 Z-39.45 
X176.74 Y3.547 Z-40.132 
X180.693 Y3.431 Z-40.791 
X184.651 Y3.32 Z-41.426 
X188.613 Y3.213 Z-42.037 
X192.579 Y3.11 Z-42.625 
X196.549 Y3.012 Z-43.19 
X200.522 Y2.917 Z-43.73 
X204.498 Y2.827 Z-44.247 
X208.478 Y2.74 Z-44.741 
X212.461 Y2.658 Z-45.21 
X216.447 Y2.58 Z-45.656 
X220.435 Y2.506 Z-46.078 
X224.426 Y2.437 Z-46.477 
X228.419 Y2.371 Z-46.851 
X232.415 Y2.31 Z-47.201 
X236.412 Y2.253 Z-47.528 
X240.412 Y2.2 Z-47.831 
X244.413 Y2.152 Z-48.109 
X248.416 Y2.108 Z-48.363 
X252.42 Y2.067 Z-48.594 
X256.425 Y2.032 Z-48.8 
X260.432 Y2.0 Z-48.982 
X264.439 Y1.973 Z-49.14 
X268.447 Y1.949 Z-49.274 
X272.456 Y1.93 Z-49.384 
X276.465 Y1.916 Z-49.469 
X280.475 Y1.905 Z-49.53 
X284.484 Y1.899 Z-49.567 
X288.494 Y1.897 Z-49.579 
Y1.898 
X292.516 Y1.899 Z-49.566 
X296.526 Y1.905 Z-49.53 
X300.535 Y1.916 Z-49.469 
X304.544 Y1.93 Z-49.384 
X308.553 Y1.949 Z-49.274 
X312.56 Y1.972 Z-49.14 
X316.567 Y2.0 Z-48.983 
X320.573 Y2.031 Z-48.801 
X324.578 Y2.067 Z-48.595 
X328.581 Y2.107 Z-48.364 
X332.583 Y2.152 Z-48.11 
X336.583 Y2.2 Z-47.832 
X340.581 Y2.253 Z-47.529 
X344.577 Y2.31 Z-47.203 
X348.571 Y2.371 Z-46.853 
X352.563 Y2.437 Z-46.479 
X356.553 Y2.506 Z-46.081 
X360.54 Y2.58 Z-45.659 
X364.524 Y2.658 Z-45.213 
X368.505 Y2.74 Z-44.743 
X372.484 Y2.826 Z-44.25 
X376.459 Y2.916 Z-43.733 
X380.432 Y3.011 Z-43.193 
X384.4 Y3.11 Z-42.628 
X388.366 Y3.213 Z-42.041 
X392.327 Y3.32 Z-41.429 
X396.285 Y3.431 Z-40.794 
X400.238 Y3.546 Z-40.135 
X404.188 Y3.666 Z-39.453 
X408.133 Y3.789 Z-38.747 
X412.074 Y3.917 Z-38.018 
X416.01 Y4.049 Z-37.266 
X419.941 Y4.185 Z-36.49 
X423.867 Y4.324 Z-35.691 
X427.788 Y4.469 Z-34.868 
X431.704 Y4.617 Z-34.022 
X435.614 Y4.769 Z-33.153 
X439.519 Y4.925 Z-32.261 
X443.418 Y5.086 Z-31.346 
X447.311 Y5.25 Z-30.407 
X451.199 Y5.419 Z-29.445 
X455.08 Y5.591 Z-28.46 
X458.955 Y5.768 Z-27.452 
X462.824 Y5.949 Z-26.421 
X466.687 Y6.133 Z-25.366 
X470.542 Y6.322 Z-24.289 
X474.391 Y6.515 Z-23.189 
X478.233 Y6.712 Z-22.066 
X482.068 Y6.913 Z-20.919 
X485.896 Y7.118 Z-19.75 
X489.716 Y7.327 Z-18.558 
X493.529 Y7.54 Z-17.343 
X497.335 Y7.757 Z-16.105 
X501.133 Y7.978 Z-14.845 
X504.923 Y8.203 Z-13.561 
X508.704 Y8.432 Z-12.255 
X512.478 Y8.665 Z-10.926 
X516.244 Y8.902 Z-9.575 
X520.001 Y9.143 Z-8.2 
X523.749 Y9.388 Z-6.804 
X527.489 Y9.637 Z-5.384 
X531.22 Y9.889 Z-3.942 
X534.942 Y10.146 Z-2.477 
X538.655 Y10.407 Z-0.99 
Z-1.29 F80 
X534.942 Y10.146 Z-2.777 F3000 
X531.22 Y9.889 Z-4.242 
X527.489 Y9.637 Z-5.684 
X523.749 Y9.388 Z-7.104 
X520.001 Y9.143 Z-8.5 
X516.244 Y8.902 Z-9.875 
X512.478 Y8.665 Z-11.226 
X508.704 Y8.432 Z-12.555 
X504.923 Y8.203 Z-13.861 
X501.133 Y7.978 Z-15.145 
X497.335 Y7.757 Z-16.405 
X493.529 Y7.54 Z-17.643 
X489.716 Y7.327 Z-18.858 
X485.896 Y7.118 Z-20.05 
X482.068 Y6.913 Z-21.219 
X478.233 Y6.712 Z-22.365 
X474.391 Y6.515 Z-23.489 
X470.542 Y6.322 Z-24.589 
X466.687 Y6.133 Z-25.666 
X462.824 Y5.949 Z-26.721 
X458.955 Y5.768 Z-27.752 
X455.08 Y5.591 Z-28.76 
X451.199 Y5.419 Z-29.745 
X447.311 Y5.25 Z-30.707 
X443.418 Y5.086 Z-31.646 
X439.519 Y4.925 Z-32.561 
X435.614 Y4.769 Z-33.453 
X431.704 Y4.617 Z-34.322 
X427.788 Y4.469 Z-35.168 
X423.867 Y4.324 Z-35.991 
X419.941 Y4.185 Z-36.79 
X416.01 Y4.049 Z-37.566 
X412.074 Y3.917 Z-38.318 
X408.133 Y3.789 Z-39.047 
X404.188 Y3.666 Z-39.753 
X400.238 Y3.546 Z-40.435 
X396.285 Y3.431 Z-41.094 
X392.327 Y3.32 Z-41.729 
X388.366 Y3.213 Z-42.34 
X384.4 Y3.11 Z-42.928 
X380.432 Y3.011 Z-43.493 
X376.459 Y2.916 Z-44.033 
X372.484 Y2.826 Z-44.55 
X368.505 Y2.74 Z-45.043 
X364.524 Y2.658 Z-45.513 
X360.54 Y2.58 Z-45.959 
X356.553 Y2.506 Z-46.381 
X352.563 Y2.437 Z-46.779 
X348.571 Y2.371 Z-47.153 
X344.577 Y2.31 Z-47.503 
X340.581 Y2.253 Z-47.829 
X336.583 Y2.2 Z-48.132 
X332.583 Y2.152 Z-48.41 
X328.581 Y2.107 Z-48.664 
X324.578 Y2.067 Z-48.895 
X320.573 Y2.031 Z-49.101 
X316.567 Y2.0 Z-49.283 
X312.56 Y1.972 Z-49.44 
X308.553 Y1.949 Z-49.574 
X304.544 Y1.93 Z-49.684 
X300.535 Y1.916 Z-49.769 
X296.526 Y1.905 Z-49.83 
X292.516 Y1.899 Z-49.866 
X288.494 Y1.898 Z-49.879 
Y1.897 
X284.484 Y1.899 Z-49.867 
X280.475 Y1.905 Z-49.83 
X276.465 Y1.916 Z-49.769 
X272.456 Y1.93 Z-49.684 
X268.447 Y1.949 Z-49.574 
X264.439 Y1.973 Z-49.44 
X260.432 Y2.0 Z-49.282 
X256.425 Y2.032 Z-49.1 
X252.42 Y2.067 Z-48.894 
X248.416 Y2.108 Z-48.664 
X244.413 Y2.152 Z-48.409 
X240.412 Y2.2 Z-48.131 
X236.412 Y2.253 Z-47.828 
X232.415 Y2.31 Z-47.501 
X228.419 Y2.371 Z-47.151 
X224.426 Y2.437 Z-46.777 
X220.435 Y2.506 Z-46.378 
X216.447 Y2.58 Z-45.956 
X212.461 Y2.658 Z-45.51 
X208.478 Y2.74 Z-45.041 
X204.498 Y2.827 Z-44.547 
X200.522 Y2.917 Z-44.03 
X196.549 Y3.012 Z-43.49 
X192.579 Y3.11 Z-42.925 
X188.613 Y3.213 Z-42.337 
X184.651 Y3.32 Z-41.726 
X180.693 Y3.431 Z-41.091 
X176.74 Y3.547 Z-40.432 
X172.79 Y3.666 Z-39.75 
X168.845 Y3.79 Z-39.044 
X164.905 Y3.917 Z-38.315 
X160.97 Y4.049 Z-37.563 
X157.039 Y4.185 Z-36.787 
X153.113 Y4.325 Z-35.988 
X149.192 Y4.469 Z-35.166 
X145.277 Y4.617 Z-34.32 
X141.366 Y4.769 Z-33.451 
X137.461 Y4.926 Z-32.559 
X133.562 Y5.086 Z-31.643 
X129.668 Y5.251 Z-30.705 
X125.78 Y5.419 Z-29.743 
X121.899 Y5.592 Z-28.758 
X118.024 Y5.768 Z-27.749 
X114.155 Y5.949 Z-26.718 
X110.293 Y6.134 Z-25.664 
X106.437 Y6.323 Z-24.587 
X102.589 Y6.516 Z-23.486 
X98.748 Y6.713 Z-22.363 
X94.913 Y6.914 Z-21.216 
X91.086 Y7.118 Z-20.047 
X87.267 Y7.327 Z-18.855 
X83.455 Y7.54 Z-17.64 
X79.65 Y7.757 Z-16.403 
X75.854 Y7.978 Z-15.142 
X72.065 Y8.203 Z-13.858 
X68.284 Y8.432 Z-12.552 
X64.512 Y8.665 Z-11.223 
X60.748 Y8.902 Z-9.872 
X56.992 Y9.143 Z-8.498 
X53.245 Y9.388 Z-7.101 
X49.507 Y9.637 Z-5.681 
X45.778 Y9.89 Z-4.239 
X42.057 Y10.147 Z-2.774 
X38.346 Y10.408 Z-1.287 
Z-1.587 F80 
X42.057 Y10.147 Z-3.074 F3000 
X45.778 Y9.89 Z-4.539 
X49.507 Y9.637 Z-5.981 
X53.245 Y9.388 Z-7.401 
X56.992 Y9.143 Z-8.798 
X60.748 Y8.902 Z-10.172 
X64.512 Y8.665 Z-11.523 
X68.284 Y8.432 Z-12.852 
X72.065 Y8.203 Z-14.158 
X75.854 Y7.978 Z-15.442 
X79.65 Y7.757 Z-16.702 
X83.455 Y7.54 Z-17.94 
X87.267 Y7.327 Z-19.155 
X91.086 Y7.118 Z-20.347 
X94.913 Y6.914 Z-21.517 
X98.748 Y6.713 Z-22.663 
X102.589 Y6.516 Z-23.786 
X106.437 Y6.323 Z-24.886 
X110.293 Y6.134 Z-25.964 
X114.155 Y5.949 Z-27.018 
X118.024 Y5.768 Z-28.049 
X121.899 Y5.592 Z-29.058 
X125.78 Y5.419 Z-30.043 
X129.668 Y5.251 Z-31.005 
X133.562 Y5.086 Z-31.944 
X137.461 Y4.926 Z-32.859 
X141.366 Y4.769 Z-33.751 
X145.277 Y4.617 Z-34.62 
X149.192 Y4.469 Z-35.466 
X153.113 Y4.325 Z-36.289 
X157.039 Y4.185 Z-37.088 
X160.97 Y4.049 Z-37.863 
X164.905 Y3.917 Z-38.616 
X168.845 Y3.79 Z-39.344 
X172.79 Y3.666 Z-40.05 
X176.74 Y3.547 Z-40.732 
X180.693 Y3.431 Z-41.391 
X184.651 Y3.32 Z-42.026 
X188.613 Y3.213 Z-42.637 
X192.579 Y3.11 Z-43.225 
X196.549 Y3.012 Z-43.79 
X200.522 Y2.917 Z-44.33 
X204.498 Y2.827 Z-44.847 
X208.478 Y2.74 Z-45.341 
X212.461 Y2.658 Z-45.81 
X216.447 Y2.58 Z-46.256 
X220.435 Y2.506 Z-46.678 
X224.426 Y2.437 Z-47.077 
X228.419 Y2.371 Z-47.451 
X232.415 Y2.31 Z-47.801 
X236.412 Y2.253 Z-48.128 
X240.412 Y2.2 Z-48.431 
X244.413 Y2.152 Z-48.709 
X248.416 Y2.108 Z-48.964 
X252.42 Y2.067 Z-49.194 
X256.425 Y2.032 Z-49.4 
X260.432 Y2.0 Z-49.582 
X264.439 Y1.973 Z-49.74 
X268.447 Y1.949 Z-49.874 
X272.456 Y1.93 Z-49.984 
X276.465 Y1.916 Z-50.069 
X280.475 Y1.905 Z-50.13 
X284.484 Y1.899 Z-50.167 
X288.494 Y1.897 Z-50.179 
Y1.898 
X292.516 Y1.899 Z-50.166 
X296.526 Y1.905 Z-50.13 
X300.535 Y1.916 Z-50.069 
X304.544 Y1.93 Z-49.984 
X308.553 Y1.949 Z-49.874 
X312.56 Y1.972 Z-49.741 
X316.567 Y2.0 Z-49.583 
X320.573 Y2.031 Z-49.401 
X324.578 Y2.067 Z-49.194 
X328.581 Y2.107 Z-48.964 
X332.583 Y2.152 Z-48.71 
X336.583 Y2.2 Z-48.432 
X340.581 Y2.253 Z-48.129 
X344.577 Y2.31 Z-47.803 
X348.571 Y2.371 Z-47.453 
X352.563 Y2.437 Z-47.079 
X356.553 Y2.506 Z-46.681 
X360.54 Y2.58 Z-46.259 
X364.524 Y2.658 Z-45.813 
X368.505 Y2.74 Z-45.343 
X372.484 Y2.826 Z-44.85 
X376.459 Y2.916 Z-44.333 
X380.432 Y3.011 Z-43.793 
X384.4 Y3.11 Z-43.228 
X388.366 Y3.213 Z-42.64 
X392.327 Y3.32 Z-42.029 
X396.285 Y3.431 Z-41.394 
X400.238 Y3.546 Z-40.735 
X404.188 Y3.666 Z-40.053 
X408.133 Y3.789 Z-39.347 
X412.074 Y3.917 Z-38.618 
X416.01 Y4.049 Z-37.866 
X419.941 Y4.185 Z-37.09 
X423.867 Y4.324 Z-36.291 
X427.788 Y4.469 Z-35.468 
X431.704 Y4.617 Z-34.623 
X435.614 Y4.769 Z-33.753 
X439.519 Y4.925 Z-32.861 
X443.418 Y5.086 Z-31.945 
X447.311 Y5.25 Z-31.007 
X451.199 Y5.419 Z-30.045 
X455.08 Y5.591 Z-29.06 
X458.955 Y5.768 Z-28.052 
X462.824 Y5.949 Z-27.021 
X466.687 Y6.133 Z-25.966 
X470.542 Y6.322 Z-24.889 
X474.391 Y6.515 Z-23.789 
X478.233 Y6.712 Z-22.666 
X482.068 Y6.913 Z-21.519 
X485.896 Y7.118 Z-20.35 
X489.716 Y7.327 Z-19.158 
X493.529 Y7.54 Z-17.943 
X497.335 Y7.757 Z-16.705 
X501.133 Y7.978 Z-15.445 
X504.923 Y8.203 Z-14.161 
X508.704 Y8.432 Z-12.855 
X512.478 Y8.665 Z-11.526 
X516.244 Y8.902 Z-10.175 
X520.001 Y9.143 Z-8.8 
X523.749 Y9.388 Z-7.404 
X527.489 Y9.637 Z-5.984 
X531.22 Y9.889 Z-4.542 
X534.942 Y10.146 Z-3.077 
X538.655 Y10.407 Z-1.59 
Z-1.89 F80 
X534.942 Y10.146 Z-3.377 F3000 
X531.22 Y9.889 Z-4.842 
X527.489 Y9.637 Z-6.284 
X523.749 Y9.388 Z-7.704 
X520.001 Y9.143 Z-9.101 
X516.244 Y8.902 Z-10.475 
X512.478 Y8.665 Z-11.826 
X508.704 Y8.432 Z-13.155 
X504.923 Y8.203 Z-14.461 
X501.133 Y7.978 Z-15.745 
X497.335 Y7.757 Z-17.005 
X493.529 Y7.54 Z-18.243 
X489.716 Y7.327 Z-19.458 
X485.896 Y7.118 Z-20.65 
X482.068 Y6.913 Z-21.819 
X478.233 Y6.712 Z-22.965 
X474.391 Y6.515 Z-24.089 
X470.542 Y6.322 Z-25.189 
X466.687 Y6.133 Z-26.266 
X462.824 Y5.949 Z-27.321 
X458.955 Y5.768 Z-28.352 
X455.08 Y5.591 Z-29.36 
X451.199 Y5.419 Z-30.345 
X447.311 Y5.25 Z-31.307 
X443.418 Y5.086 Z-32.245 
X439.519 Y4.925 Z-33.161 
X435.614 Y4.769 Z-34.053 
X431.704 Y4.617 Z-34.923 
X427.788 Y4.469 Z-35.768 
X423.867 Y4.324 Z-36.591 
X419.941 Y4.185 Z-37.39 
X416.01 Y4.049 Z-38.166 
X412.074 Y3.917 Z-38.918 
X408.133 Y3.789 Z-39.647 
X404.188 Y3.666 Z-40.353 
X400.238 Y3.546 Z-41.035 
X396.285 Y3.431 Z-41.694 
X392.327 Y3.32 Z-42.329 
X388.366 Y3.213 Z-42.94 
X384.4 Y3.11 Z-43.528 
X380.432 Y3.011 Z-44.093 
X376.459 Y2.916 Z-44.633 
X372.484 Y2.826 Z-45.15 
X368.505 Y2.74 Z-45.644 
X364.524 Y2.658 Z-46.113 
X360.54 Y2.58 Z-46.559 
X356.553 Y2.506 Z-46.981 
X352.563 Y2.437 Z-47.379 
X348.571 Y2.371 Z-47.753 
X344.577 Y2.31 Z-48.103 
X340.581 Y2.253 Z-48.429 
X336.583 Y2.2 Z-48.732 
X332.583 Y2.152 Z-49.01 
X328.581 Y2.107 Z-49.264 
X324.578 Y2.067 Z-49.494 
X320.573 Y2.031 Z-49.701 
X316.567 Y2.0 Z-49.883 
X312.56 Y1.972 Z-50.041 
X308.553 Y1.949 Z-50.174 
X304.544 Y1.93 Z-50.284 
X300.535 Y1.916 Z-50.369 
X296.526 Y1.905 Z-50.43 
X292.516 Y1.899 Z-50.466 
X288.494 Y1.898 Z-50.479 
Y1.897 
X284.484 Y1.899 Z-50.467 
X280.475 Y1.905 Z-50.43 
X276.465 Y1.916 Z-50.369 
X272.456 Y1.93 Z-50.284 
X268.447 Y1.949 Z-50.174 
X264.439 Y1.973 Z-50.04 
X260.432 Y2.0 Z-49.882 
X256.425 Y2.032 Z-49.7 
X252.42 Y2.067 Z-49.494 
X248.416 Y2.108 Z-49.264 
X244.413 Y2.152 Z-49.009 
X240.412 Y2.2 Z-48.73 
X236.412 Y2.253 Z-48.428 
X232.415 Y2.31 Z-48.101 
X228.419 Y2.371 Z-47.751 
X224.426 Y2.437 Z-47.377 
X220.435 Y2.506 Z-46.978 
X216.447 Y2.58 Z-46.556 
X212.461 Y2.658 Z-46.11 
X208.478 Y2.74 Z-45.641 
X204.498 Y2.827 Z-45.147 
X200.522 Y2.917 Z-44.63 
X196.549 Y3.012 Z-44.09 
X192.579 Y3.11 Z-43.525 
X188.613 Y3.213 Z-42.937 
X184.651 Y3.32 Z-42.326 
X180.693 Y3.431 Z-41.691 
X176.74 Y3.547 Z-41.032 
X172.79 Y3.666 Z-40.35 
X168.845 Y3.79 Z-39.644 
X164.905 Y3.917 Z-38.916 
X160.97 Y4.049 Z-38.163 
X157.039 Y4.185 Z-37.388 
X153.113 Y4.325 Z-36.589 
X149.192 Y4.469 Z-35.766 
X145.277 Y4.617 Z-34.92 
X141.366 Y4.769 Z-34.051 
X137.461 Y4.926 Z-33.159 
X133.562 Y5.086 Z-32.243 
X129.668 Y5.251 Z-31.305 
X125.78 Y5.419 Z-30.343 
X121.899 Y5.592 Z-29.358 
X118.024 Y5.768 Z-28.349 
X114.155 Y5.949 Z-27.318 
X110.293 Y6.134 Z-26.264 
X106.437 Y6.323 Z-25.187 
X102.589 Y6.516 Z-24.086 
X98.748 Y6.713 Z-22.963 
X94.913 Y6.914 Z-21.816 
X91.086 Y7.118 Z-20.647 
X87.267 Y7.327 Z-19.455 
X83.455 Y7.54 Z-18.24 
X79.65 Y7.757 Z-17.003 
X75.854 Y7.978 Z-15.742 
X72.065 Y8.203 Z-14.458 
X68.284 Y8.432 Z-13.152 
X64.512 Y8.665 Z-11.823 
X60.748 Y8.902 Z-10.472 
X56.992 Y9.143 Z-9.098 
X53.245 Y9.388 Z-7.701 
X49.507 Y9.637 Z-6.281 
X45.778 Y9.89 Z-4.839 
X42.057 Y10.147 Z-3.374 
X38.346 Y10.408 Z-1.887 
Z-2.187 F80 
X42.057 Y10.147 Z-3.674 F3000 
X45.778 Y9.89 Z-5.139 
X49.507 Y9.637 Z-6.581 
X53.245 Y9.388 Z-8.001 
X56.992 Y9.143 Z-9.398 
X60.748 Y8.902 Z-10.772 
X64.512 Y8.665 Z-12.123 
X68.284 Y8.432 Z-13.452 
X72.065 Y8.203 Z-14.759 
X75.854 Y7.978 Z-16.042 
X79.65 Y7.757 Z-17.302 
X83.455 Y7.54 Z-18.54 
X87.267 Y7.327 Z-19.755 
X91.086 Y7.118 Z-20.947 
X94.913 Y6.914 Z-22.117 
X98.748 Y6.713 Z-23.263 
X102.589 Y6.516 Z-24.386 
X106.437 Y6.323 Z-25.486 
X110.293 Y6.134 Z-26.564 
X114.155 Y5.949 Z-27.618 
X118.024 Y5.768 Z-28.649 
X121.899 Y5.592 Z-29.658 
X125.78 Y5.419 Z-30.643 
X129.668 Y5.251 Z-31.605 
X133.562 Y5.086 Z-32.543 
X137.461 Y4.926 Z-33.459 
X141.366 Y4.769 Z-34.351 
X145.277 Y4.617 Z-35.22 
X149.192 Y4.469 Z-36.066 
X153.113 Y4.325 Z-36.889 
X157.039 Y4.185 Z-37.688 
X160.97 Y4.049 Z-38.463 
X164.905 Y3.917 Z-39.215 
X168.845 Y3.79 Z-39.944 
X172.79 Y3.666 Z-40.65 
X176.74 Y3.547 Z-41.332 
X180.693 Y3.431 Z-41.991 
X184.651 Y3.32 Z-42.626 
X188.613 Y3.213 Z-43.237 
X192.579 Y3.11 Z-43.825 
X196.549 Y3.012 Z-44.39 
X200.522 Y2.917 Z-44.93 
X204.498 Y2.827 Z-45.447 
X208.478 Y2.74 Z-45.941 
X212.461 Y2.658 Z-46.41 
X216.447 Y2.58 Z-46.856 
X220.435 Y2.506 Z-47.278 
X224.426 Y2.437 Z-47.677 
X228.419 Y2.371 Z-48.051 
X232.415 Y2.31 Z-48.401 
X236.412 Y2.253 Z-48.728 
X240.412 Y2.2 Z-49.03 
X244.413 Y2.152 Z-49.309 
X248.416 Y2.108 Z-49.563 
X252.42 Y2.067 Z-49.794 
X256.425 Y2.032 Z-50 
X260.432 Y2.0 Z-50.182 
X264.439 Y1.973 Z-50.34 
X268.447 Y1.949 Z-50.474 
X272.456 Y1.93 Z-50.584 
X276.465 Y1.916 Z-50.669 
X280.475 Y1.905 Z-50.73 
X284.484 Y1.899 Z-50.767 
X288.494 Y1.897 Z-50.779 
Y1.898 
X292.516 Y1.899 Z-50.766 
