(ZF_1_dug_lic_part_3)
(T6 D=6.5 CR=3.25 TAPER=4deg - ZMIN=-54.946 - tapered mill)
(Parallel2)
S24000 M3
G17
G0 X272.732 Y0.002
Z15
Z0.495
G1 Z-0.872 F90
X272.701 Z-1.07 F1000
X272.611 Z-1.249
X272.471 Z-1.392
X272.295 Z-1.486
X272.098 Z-1.522
X269.037 Z-1.599 F4000
X267.539 Z-1.64
X267.334 Z-1.613 F1000
X267.148 Z-1.523
X267 Z-1.378
X266.904 Z-1.195
X266.872 Z-0.991
G0 Z5
X218.183 Y0.272
Z-2.759
G1 Z-4.066 F90
X218.219 Z-4.278 F1000
X218.322 Z-4.468
X218.482 Z-4.613
X218.68 Z-4.698
X218.895 Z-4.713
X222.081 Z-4.412 F4000
X227.087 Z-3.964
G18 G3 X317.966 Z-1.93 I61.546 K-718.816
G1 X338.468 Z-2.719
X338.496 Y0.273 Z-2.721
X338.524 Y0.277 Z-2.727
X338.551 Y0.282 Z-2.735
X338.576 Y0.29 Z-2.746
X338.599 Y0.3 Z-2.759
X338.62 Y0.312 Z-2.775
X338.638 Y0.325 Z-2.792
X338.653 Y0.34 Z-2.811
X338.665 Y0.355 Z-2.832
X338.673 Y0.372 Z-2.853
X338.678 Y0.39 Z-2.876
X338.679 Y0.407 Z-2.898
X338.676 Y0.425 Z-2.92
X338.67 Y0.442 Z-2.942
X338.66 Y0.459 Z-2.963
X338.646 Y0.475 Z-2.982
X338.63 Y0.489 Z-3
X338.61 Y0.503 Z-3.016
X338.589 Y0.514 Z-3.03
X338.564 Y0.524 Z-3.042
X338.538 Y0.532 Z-3.05
X338.511 Y0.538 Z-3.057
X338.483 Y0.541 Z-3.06
X338.455 Y0.542
G2 X198.598 Z-6.978 I-49.827 K-719.561
G1 X182.871 Z-8.946
X182.848 Y0.544 Z-8.95
X182.826 Y0.548 Z-8.955
X182.805 Y0.554 Z-8.963
X182.786 Y0.564 Z-8.971
X182.768 Y0.575 Z-8.981
X182.753 Y0.589 Z-8.993
X182.74 Y0.604 Z-9.005
X182.731 Y0.621 Z-9.018
X182.724 Y0.639 Z-9.031
X182.721 Y0.658 Z-9.044
Y0.677 Z-9.057
X182.724 Y0.696 Z-9.07
X182.73 Y0.715 Z-9.082
X182.74 Y0.733 Z-9.093
X182.753 Y0.75 Z-9.103
X182.768 Y0.766 Z-9.112
X182.785 Y0.779 Z-9.119
X182.805 Y0.791 Z-9.124
X182.826 Y0.8 Z-9.128
X182.848 Y0.807 Z-9.13
X182.871 Y0.811
X182.894 Y0.812 Z-9.128
G3 X354.137 Z-4.317 I105.755 K-714.26
G1 X367.459 Z-5.494
X367.483 Y0.814 Z-5.497
X367.507 Y0.819 Z-5.502
X367.53 Y0.827 Z-5.509
X367.55 Y0.838 Z-5.518
X367.568 Y0.852 Z-5.528
X367.583 Y0.868 Z-5.539
X367.595 Y0.886 Z-5.551
X367.604 Y0.905 Z-5.564
X367.608 Y0.926 Z-5.577
X367.609 Y0.947 Z-5.591
X367.606 Y0.968 Z-5.603
X367.599 Y0.989 Z-5.615
X367.589 Y1.008 Z-5.627
X367.575 Y1.026 Z-5.637
X367.558 Y1.043 Z-5.645
X367.538 Y1.056 Z-5.652
X367.516 Y1.067 Z-5.657
X367.493 Y1.076 Z-5.66
X367.469 Y1.08 Z-5.661
X367.444 Y1.082 Z-5.659
G2 X169.729 Z-11.204 I-78.811 K-717.619
G1 X158.08 Z-13.16
X158.059 Y1.084 Z-13.165
X158.038 Y1.089 Z-13.17
X158.018 Y1.097 Z-13.175
X158 Y1.108 Z-13.182
X157.984 Y1.122 Z-13.188
X157.971 Y1.138 Z-13.195
X157.96 Y1.156 Z-13.203
X157.953 Y1.175 Z-13.21
X157.949 Y1.196 Z-13.216
X157.948 Y1.217 Z-13.223
X157.951 Y1.238 Z-13.229
X157.957 Y1.259 Z-13.234
X157.966 Y1.278 Z-13.238
X157.979 Y1.296 Z-13.241
X157.993 Y1.313 Z-13.244
X158.011 Y1.326 Z-13.245
X158.03 Y1.337
X158.05 Y1.346 Z-13.244
X158.072 Y1.35 Z-13.242
X158.094 Y1.352 Z-13.238
G3 X379.035 Z-7.027 I130.539 K-710.76
G1 X389.58 Z-8.347
X389.602 Y1.354 Z-8.35
X389.624 Y1.359 Z-8.355
X389.644 Y1.367 Z-8.36
X389.663 Y1.378 Z-8.366
X389.679 Y1.392 Z-8.373
X389.693 Y1.408 Z-8.381
X389.704 Y1.426 Z-8.389
X389.711 Y1.445 Z-8.397
X389.716 Y1.466 Z-8.405
X389.717 Y1.487 Z-8.412
X389.714 Y1.508 Z-8.42
X389.708 Y1.529 Z-8.426
X389.698 Y1.548 Z-8.432
X389.686 Y1.566 Z-8.437
X389.671 Y1.583 Z-8.441
X389.653 Y1.596 Z-8.444
X389.634 Y1.607 Z-8.445
X389.613 Y1.616 Z-8.446
X389.591 Y1.62 Z-8.445
X389.568 Y1.622 Z-8.443
G2 X147.68 Z-15.239 I-100.945 K-715.124
G1 X138.077 Z-17.146
X138.056 Y1.624 Z-17.15
X138.035 Y1.629 Z-17.155
X138.016 Y1.637 Z-17.161
X137.998 Y1.648 Z-17.167
X137.983 Y1.662 Z-17.174
X137.97 Y1.678 Z-17.18
X137.959 Y1.696 Z-17.186
X137.952 Y1.715 Z-17.193
X137.948 Y1.736 Z-17.198
X137.947 Y1.757 Z-17.203
X137.95 Y1.778 Z-17.208
X137.956 Y1.799 Z-17.212
X137.965 Y1.818 Z-17.214
X137.977 Y1.836 Z-17.216
X137.991 Y1.853 Z-17.217
X138.008 Y1.866
X138.027 Y1.877 Z-17.216
X138.047 Y1.886 Z-17.214
X138.068 Y1.89 Z-17.211
X138.089 Y1.892 Z-17.207
G3 X349.548 Z-3.923 I150.595 K-707.553
X399.257 Z-9.879 I-62.358 K-730.904
G1 X399.355 Z-9.88
X399.45 Z-9.852
X399.593 Z-9.819
X408.597
X408.65 Z-9.821
X408.703 Y1.894 Z-9.826
X408.755 Y1.895 Z-9.835
X408.806 Y1.898 Z-9.848
X408.856 Y1.901 Z-9.865
X408.905 Y1.904 Z-9.884
X408.952 Y1.909 Z-9.908
X408.998 Y1.914 Z-9.934
X409.041 Y1.919 Z-9.964
X409.082 Y1.925 Z-9.997
X409.121 Y1.932 Z-10.032
X409.157 Y1.939 Z-10.07
X409.19 Y1.946 Z-10.11
X409.22 Y1.954 Z-10.153
X409.247 Y1.962 Z-10.198
X409.271 Y1.971 Z-10.244
X409.291 Y1.98 Z-10.292
X409.308 Y1.989 Z-10.342
X409.321 Y1.998 Z-10.392
X409.33 Y2.008 Z-10.443
X409.336 Y2.018 Z-10.495
X409.338 Y2.027 Z-10.547
X409.336 Y2.037 Z-10.599
X409.33 Y2.046 Z-10.65
X409.321 Y2.056 Z-10.701
X409.308 Y2.065 Z-10.752
X409.291 Y2.074 Z-10.801
X409.271 Y2.083 Z-10.849
X409.247 Y2.092 Z-10.896
X409.22 Y2.1 Z-10.94
X409.19 Y2.108 Z-10.983
X409.157 Y2.116 Z-11.023
X409.121 Y2.123 Z-11.062
X409.082 Y2.129 Z-11.097
X409.041 Y2.135 Z-11.13
X408.998 Y2.141 Z-11.159
X408.952 Y2.146 Z-11.186
X408.905 Y2.15 Z-11.209
X408.856 Y2.154 Z-11.229
X408.806 Y2.157 Z-11.245
X408.755 Y2.159 Z-11.258
X408.703 Y2.161 Z-11.267
X408.65 Y2.162 Z-11.273
X408.597 Z-11.275
X408.454 Z-11.308
X408.358 Z-11.338
X408.258 Z-11.337
G2 X144.984 Z-15.789 I-119.63 K-712.279
X129.174 Z-19.164 I124.55 K-622.128
G1 X129.065 Z-19.169
G0 Z15
M5
M30
