(ZF_1_dug_lic_part_3)
(T6 D=6.5 CR=3.25 TAPER=4deg - ZMIN=-54.946 - tapered mill)
(Parallel2)
S24000 M3
G17
G0 X272.732 Y0.002
Z15
Z0.495
G1 Z-0.872 F90
X272.701 Z-1.07 F1000
X272.611 Z-1.249
X272.471 Z-1.392
X272.295 Z-1.486
X272.098 Z-1.522
X269.037 Z-1.599 F4000
X267.539 Z-1.64
X267.334 Z-1.613 F1000
X267.148 Z-1.523
X267 Z-1.378
X266.904 Z-1.195
X266.872 Z-0.991
G0 Z5
X218.183 Y0.272
Z-2.759
G1 Z-4.066 F90
X218.219 Z-4.278 F1000
X218.322 Z-4.468
X218.482 Z-4.613
X218.68 Z-4.698
X218.895 Z-4.713
X222.081 Z-4.412 F4000
X227.087 Z-3.964
G18 G3 X317.966 Z-1.93 I61.546 K-718.816
G1 X338.468 Z-2.719
X338.496 Y0.273 Z-2.721
X338.524 Y0.277 Z-2.727
X338.551 Y0.282 Z-2.735
X338.576 Y0.29 Z-2.746
X338.599 Y0.3 Z-2.759
X338.62 Y0.312 Z-2.775
X338.638 Y0.325 Z-2.792
X338.653 Y0.34 Z-2.811
X338.665 Y0.355 Z-2.832
X338.673 Y0.372 Z-2.853
X338.678 Y0.39 Z-2.876
X338.679 Y0.407 Z-2.898
X338.676 Y0.425 Z-2.92
X338.67 Y0.442 Z-2.942
X338.66 Y0.459 Z-2.963
X338.646 Y0.475 Z-2.982
X338.63 Y0.489 Z-3
X338.61 Y0.503 Z-3.016
X338.589 Y0.514 Z-3.03
X338.564 Y0.524 Z-3.042
X338.538 Y0.532 Z-3.05
X338.511 Y0.538 Z-3.057
X338.483 Y0.541 Z-3.06
X338.455 Y0.542
G2 X198.598 Z-6.978 I-49.827 K-719.561
G1 X182.871 Z-8.946
X182.848 Y0.544 Z-8.95
X182.826 Y0.548 Z-8.955
X182.805 Y0.554 Z-8.963
X182.786 Y0.564 Z-8.971
X182.768 Y0.575 Z-8.981
X182.753 Y0.589 Z-8.993
X182.74 Y0.604 Z-9.005
X182.731 Y0.621 Z-9.018
X182.724 Y0.639 Z-9.031
X182.721 Y0.658 Z-9.044
Y0.677 Z-9.057
X182.724 Y0.696 Z-9.07
X182.73 Y0.715 Z-9.082
X182.74 Y0.733 Z-9.093
X182.753 Y0.75 Z-9.103
X182.768 Y0.766 Z-9.112
X182.785 Y0.779 Z-9.119
X182.805 Y0.791 Z-9.124
X182.826 Y0.8 Z-9.128
X182.848 Y0.807 Z-9.13
X182.871 Y0.811
X182.894 Y0.812 Z-9.128
G3 X354.137 Z-4.317 I105.755 K-714.26
G1 X367.459 Z-5.494
X367.483 Y0.814 Z-5.497
X367.507 Y0.819 Z-5.502
X367.53 Y0.827 Z-5.509
X367.55 Y0.838 Z-5.518
X367.568 Y0.852 Z-5.528
X367.583 Y0.868 Z-5.539
X367.595 Y0.886 Z-5.551
X367.604 Y0.905 Z-5.564
X367.608 Y0.926 Z-5.577
X367.609 Y0.947 Z-5.591
X367.606 Y0.968 Z-5.603
X367.599 Y0.989 Z-5.615
X367.589 Y1.008 Z-5.627
X367.575 Y1.026 Z-5.637
X367.558 Y1.043 Z-5.645
X367.538 Y1.056 Z-5.652
X367.516 Y1.067 Z-5.657
X367.493 Y1.076 Z-5.66
X367.469 Y1.08 Z-5.661
X367.444 Y1.082 Z-5.659
G2 X169.729 Z-11.204 I-78.811 K-717.619
G1 X158.08 Z-13.16
X158.059 Y1.084 Z-13.165
X158.038 Y1.089 Z-13.17
X158.018 Y1.097 Z-13.175
X158 Y1.108 Z-13.182
X157.984 Y1.122 Z-13.188
X157.971 Y1.138 Z-13.195
X157.96 Y1.156 Z-13.203
X157.953 Y1.175 Z-13.21
X157.949 Y1.196 Z-13.216
X157.948 Y1.217 Z-13.223
X157.951 Y1.238 Z-13.229
X157.957 Y1.259 Z-13.234
X157.966 Y1.278 Z-13.238
X157.979 Y1.296 Z-13.241
X157.993 Y1.313 Z-13.244
X158.011 Y1.326 Z-13.245
X158.03 Y1.337
X158.05 Y1.346 Z-13.244
X158.072 Y1.35 Z-13.242
X158.094 Y1.352 Z-13.238
G3 X379.035 Z-7.027 I130.539 K-710.76
G1 X389.58 Z-8.347
X389.602 Y1.354 Z-8.35
X389.624 Y1.359 Z-8.355
X389.644 Y1.367 Z-8.36
X389.663 Y1.378 Z-8.366
X389.679 Y1.392 Z-8.373
X389.693 Y1.408 Z-8.381
X389.704 Y1.426 Z-8.389
X389.711 Y1.445 Z-8.397
X389.716 Y1.466 Z-8.405
X389.717 Y1.487 Z-8.412
X389.714 Y1.508 Z-8.42
X389.708 Y1.529 Z-8.426
X389.698 Y1.548 Z-8.432
X389.686 Y1.566 Z-8.437
X389.671 Y1.583 Z-8.441
X389.653 Y1.596 Z-8.444
X389.634 Y1.607 Z-8.445
X389.613 Y1.616 Z-8.446
X389.591 Y1.62 Z-8.445
X389.568 Y1.622 Z-8.443
G2 X147.68 Z-15.239 I-100.945 K-715.124
G1 X138.077 Z-17.146
X138.056 Y1.624 Z-17.15
X138.035 Y1.629 Z-17.155
X138.016 Y1.637 Z-17.161
X137.998 Y1.648 Z-17.167
X137.983 Y1.662 Z-17.174
X137.97 Y1.678 Z-17.18
X137.959 Y1.696 Z-17.186
X137.952 Y1.715 Z-17.193
X137.948 Y1.736 Z-17.198
X137.947 Y1.757 Z-17.203
X137.95 Y1.778 Z-17.208
X137.956 Y1.799 Z-17.212
X137.965 Y1.818 Z-17.214
X137.977 Y1.836 Z-17.216
X137.991 Y1.853 Z-17.217
X138.008 Y1.866
X138.027 Y1.877 Z-17.216
X138.047 Y1.886 Z-17.214
X138.068 Y1.89 Z-17.211
X138.089 Y1.892 Z-17.207
G3 X349.548 Z-3.923 I150.595 K-707.553
X399.257 Z-9.879 I-62.358 K-730.904
G1 X399.355 Z-9.88
X399.45 Z-9.852
X399.593 Z-9.819
X408.597
X408.65 Z-9.821
X408.703 Y1.894 Z-9.826
X408.755 Y1.895 Z-9.835
X408.806 Y1.898 Z-9.848
X408.856 Y1.901 Z-9.865
X408.905 Y1.904 Z-9.884
X408.952 Y1.909 Z-9.908
X408.998 Y1.914 Z-9.934
X409.041 Y1.919 Z-9.964
X409.082 Y1.925 Z-9.997
X409.121 Y1.932 Z-10.032
X409.157 Y1.939 Z-10.07
X409.19 Y1.946 Z-10.11
X409.22 Y1.954 Z-10.153
X409.247 Y1.962 Z-10.198
X409.271 Y1.971 Z-10.244
X409.291 Y1.98 Z-10.292
X409.308 Y1.989 Z-10.342
X409.321 Y1.998 Z-10.392
X409.33 Y2.008 Z-10.443
X409.336 Y2.018 Z-10.495
X409.338 Y2.027 Z-10.547
X409.336 Y2.037 Z-10.599
X409.33 Y2.046 Z-10.65
X409.321 Y2.056 Z-10.701
X409.308 Y2.065 Z-10.752
X409.291 Y2.074 Z-10.801
X409.271 Y2.083 Z-10.849
X409.247 Y2.092 Z-10.896
X409.22 Y2.1 Z-10.94
X409.19 Y2.108 Z-10.983
X409.157 Y2.116 Z-11.023
X409.121 Y2.123 Z-11.062
X409.082 Y2.129 Z-11.097
X409.041 Y2.135 Z-11.13
X408.998 Y2.141 Z-11.159
X408.952 Y2.146 Z-11.186
X408.905 Y2.15 Z-11.209
X408.856 Y2.154 Z-11.229
X408.806 Y2.157 Z-11.245
X408.755 Y2.159 Z-11.258
X408.703 Y2.161 Z-11.267
X408.65 Y2.162 Z-11.273
X408.597 Z-11.275
X408.454 Z-11.308
X408.358 Z-11.338
X408.258 Z-11.337
G2 X144.984 Z-15.789 I-119.63 K-712.279
X129.174 Z-19.164 I124.55 K-622.128
G1 X129.065 Z-19.169
X128.96 Z-19.138
X128.817 Z-19.105
X120.456
X120.395 Z-19.107
X120.334 Y2.163 Z-19.113
X120.273 Y2.165 Z-19.122
X120.213 Y2.166 Z-19.135
X120.154 Y2.169 Z-19.152
X120.097 Y2.172 Z-19.173
X120.041 Y2.175 Z-19.197
X119.986 Y2.179 Z-19.224
X119.933 Y2.183 Z-19.255
X119.883 Y2.188 Z-19.289
X119.834 Y2.193 Z-19.327
X119.788 Y2.199 Z-19.367
X119.745 Y2.204 Z-19.41
X119.705 Y2.211 Z-19.455
X119.667 Y2.217 Z-19.503
X119.633 Y2.224 Z-19.553
X119.601 Y2.232 Z-19.605
X119.574 Y2.239 Z-19.659
X119.549 Y2.247 Z-19.715
X119.529 Y2.255 Z-19.772
X119.511 Y2.263 Z-19.83
X119.498 Y2.271 Z-19.89
X119.488 Y2.28 Z-19.95
X119.483 Y2.288 Z-20.01
X119.481 Y2.296 Z-20.071
Y2.298 Z-20.082
X119.483 Y2.306 Z-20.142
X119.488 Y2.315 Z-20.203
X119.498 Y2.323 Z-20.263
X119.511 Y2.331 Z-20.322
X119.529 Y2.339 Z-20.38
X119.549 Y2.347 Z-20.437
X119.574 Y2.355 Z-20.493
X119.601 Y2.363 Z-20.547
X119.633 Y2.37 Z-20.599
X119.667 Y2.377 Z-20.649
X119.705 Y2.383 Z-20.697
X119.745 Y2.39 Z-20.743
X119.788 Y2.396 Z-20.786
X119.834 Y2.401 Z-20.826
X119.883 Y2.407 Z-20.863
X119.933 Y2.411 Z-20.897
X119.986 Y2.416 Z-20.928
X120.041 Y2.419 Z-20.956
X120.097 Y2.423 Z-20.98
X120.154 Y2.426 Z-21
X120.213 Y2.428 Z-21.017
X120.273 Y2.43 Z-21.03
X120.334 Y2.431 Z-21.04
X120.395 Y2.432 Z-21.046
X120.456 Z-21.048
X120.599 Z-21.081
X120.706 Z-21.112
X120.817 Z-21.105
G3 X323.532 Z-2.197 I167.968 K-704.696
X416.692 Z-12.804 I-35.503 K-726.273
G1 X416.794 Z-12.807
X416.892 Z-12.778
X417.035 Z-12.745
X425
X425.054 Z-12.747
X425.107 Y2.434 Z-12.752
X425.16 Y2.435 Z-12.762
X425.212 Y2.438 Z-12.775
X425.263 Y2.441 Z-12.791
X425.313 Y2.444 Z-12.812
X425.361 Y2.449 Z-12.835
X425.407 Y2.454 Z-12.862
X425.451 Y2.459 Z-12.892
X425.493 Y2.465 Z-12.926
X425.532 Y2.472 Z-12.962
X425.569 Y2.479 Z-13
X425.603 Y2.486 Z-13.041
X425.633 Y2.494 Z-13.085
X425.661 Y2.502 Z-13.13
X425.685 Y2.511 Z-13.178
X425.705 Y2.52 Z-13.226
X425.722 Y2.529 Z-13.277
X425.736 Y2.538 Z-13.328
X425.745 Y2.548 Z-13.38
X425.751 Y2.558 Z-13.432
X425.753 Y2.567 Z-13.485
X425.751 Y2.577 Z-13.538
X425.745 Y2.586 Z-13.591
X425.736 Y2.596 Z-13.643
X425.722 Y2.605 Z-13.694
X425.705 Y2.614 Z-13.744
X425.685 Y2.623 Z-13.793
X425.661 Y2.632 Z-13.84
X425.633 Y2.64 Z-13.886
X425.603 Y2.648 Z-13.929
X425.569 Y2.656 Z-13.97
X425.532 Y2.663 Z-14.009
X425.493 Y2.669 Z-14.045
X425.451 Y2.675 Z-14.078
X425.407 Y2.681 Z-14.108
X425.361 Y2.686 Z-14.135
X425.313 Y2.69 Z-14.159
X425.263 Y2.694 Z-14.179
X425.212 Y2.697 Z-14.196
X425.16 Y2.699 Z-14.209
X425.107 Y2.701 Z-14.218
X425.054 Y2.702 Z-14.224
X425 Z-14.226
X424.857 Z-14.259
X424.757 Z-14.289
X424.653 Z-14.287
G2 X136.23 Z-17.625 I-136.016 K-709.627
X112.927 Z-23.035 I140.922 K-659.966
G1 X112.814 Z-23.042
X112.706 Z-23.011
X112.563 Z-22.978
X105.066
X105.005 Z-22.98
X104.945 Y2.703 Z-22.985
X104.885 Y2.705 Z-22.995
X104.825 Y2.706 Z-23.008
X104.767 Y2.709 Z-23.025
X104.71 Y2.712 Z-23.045
X104.654 Y2.715 Z-23.069
X104.599 Y2.719 Z-23.097
X104.547 Y2.723 Z-23.127
X104.497 Y2.728 Z-23.161
X104.449 Y2.733 Z-23.198
X104.403 Y2.739 Z-23.238
X104.36 Y2.745 Z-23.281
X104.32 Y2.751 Z-23.326
X104.282 Y2.758 Z-23.373
X104.248 Y2.765 Z-23.423
X104.217 Y2.772 Z-23.475
X104.189 Y2.78 Z-23.529
X104.165 Y2.787 Z-23.584
X104.145 Y2.795 Z-23.641
X104.128 Y2.804 Z-23.699
X104.114 Y2.812 Z-23.758
X104.105 Y2.82 Z-23.817
X104.099 Y2.829 Z-23.877
X104.097 Y2.837 Z-23.938
X104.099 Y2.846 Z-23.998
X104.105 Y2.854 Z-24.058
X104.114 Y2.862 Z-24.118
X104.128 Y2.871 Z-24.176
X104.145 Y2.879 Z-24.234
X104.165 Y2.887 Z-24.291
X104.189 Y2.895 Z-24.346
X104.217 Y2.902 Z-24.4
X104.248 Y2.909 Z-24.452
X104.282 Y2.916 Z-24.502
X104.32 Y2.923 Z-24.549
X104.36 Y2.93 Z-24.595
X104.403 Y2.936 Z-24.637
X104.449 Y2.941 Z-24.677
X104.497 Y2.946 Z-24.714
X104.547 Y2.951 Z-24.748
X104.599 Y2.955 Z-24.779
X104.654 Y2.959 Z-24.806
X104.71 Y2.963 Z-24.83
X104.767 Y2.966 Z-24.851
X104.825 Y2.968 Z-24.867
X104.885 Y2.97 Z-24.88
X104.945 Y2.971 Z-24.89
X105.005 Y2.972 Z-24.896
X105.066 Z-24.897
X105.209 Z-24.931
X105.32 Z-24.962
X105.435 Z-24.953
G3 X278.742 Z-1.43 I183.583 K-702.365
X305.397 Z-1.564 I9.554 K-752.846
G1 X310.426 Z-1.697
G3 X432.214 Z-15.78 I-22.011 K-724.001
G1 X432.32 Z-15.782
X432.421 Z-15.75
X432.564 Z-15.717
X439.789
X439.844 Z-15.719
X439.898 Y2.974 Z-15.724
X439.952 Y2.975 Z-15.734
X440.005 Y2.978 Z-15.747
X440.056 Y2.981 Z-15.764
X440.107 Y2.984 Z-15.785
X440.156 Y2.989 Z-15.809
X440.203 Y2.994 Z-15.836
X440.248 Y2.999 Z-15.867
X440.29 Y3.005 Z-15.901
X440.33 Y3.012 Z-15.937
X440.367 Y3.019 Z-15.977
X440.402 Y3.026 Z-16.019
X440.433 Y3.034 Z-16.063
X440.461 Y3.042 Z-16.109
X440.485 Y3.051 Z-16.157
X440.506 Y3.06 Z-16.207
X440.523 Y3.069 Z-16.258
X440.537 Y3.078 Z-16.31
X440.546 Y3.088 Z-16.363
X440.552 Y3.098 Z-16.416
X440.554 Y3.107 Z-16.47
X440.552 Y3.117 Z-16.524
X440.546 Y3.126 Z-16.577
X440.537 Y3.136 Z-16.63
X440.523 Y3.145 Z-16.682
X440.506 Y3.154 Z-16.733
X440.485 Y3.163 Z-16.783
X440.461 Y3.172 Z-16.831
X440.433 Y3.18 Z-16.877
X440.402 Y3.188 Z-16.921
X440.367 Y3.196 Z-16.963
X440.33 Y3.203 Z-17.003
X440.29 Y3.209 Z-17.039
X440.248 Y3.215 Z-17.073
X440.203 Y3.221 Z-17.104
X440.156 Y3.226 Z-17.131
X440.107 Y3.23 Z-17.155
X440.056 Y3.234 Z-17.176
X440.005 Y3.237 Z-17.193
X439.952 Y3.239 Z-17.206
X439.898 Y3.241 Z-17.215
X439.844 Y3.242 Z-17.221
X439.789 Z-17.223
X439.646 Z-17.256
X439.543 Z-17.287
X439.436 Z-17.283
G2 X222.882 Z-4.37 I-150.828 K-707.143
X98.28 Z-26.862 I66.688 K-725.81
G1 X98.165 Z-26.872
X98.053 Z-26.841
X97.91 Z-26.808
X91.063
X91.003 Z-26.81
X90.943 Y3.243 Z-26.815
X90.883 Y3.245 Z-26.825
X90.824 Y3.246 Z-26.838
X90.766 Y3.249 Z-26.854
X90.709 Y3.252 Z-26.875
X90.653 Y3.255 Z-26.898
X90.6 Y3.259 Z-26.926
X90.547 Y3.263 Z-26.956
X90.497 Y3.268 Z-26.99
X90.45 Y3.273 Z-27.027
X90.404 Y3.279 Z-27.066
X90.361 Y3.285 Z-27.109
X90.321 Y3.291 Z-27.153
X90.284 Y3.298 Z-27.201
X90.25 Y3.305 Z-27.25
X90.22 Y3.312 Z-27.302
X90.192 Y3.32 Z-27.355
X90.168 Y3.327 Z-27.41
X90.148 Y3.335 Z-27.467
X90.131 Y3.344 Z-27.524
X90.118 Y3.352 Z-27.583
X90.108 Y3.36 Z-27.642
X90.102 Y3.369 Z-27.701
X90.1 Y3.377 Z-27.761
X90.102 Y3.386 Z-27.821
X90.108 Y3.394 Z-27.881
X90.118 Y3.402 Z-27.94
X90.131 Y3.411 Z-27.998
X90.148 Y3.419 Z-28.056
X90.168 Y3.427 Z-28.112
X90.192 Y3.435 Z-28.167
X90.22 Y3.442 Z-28.221
X90.25 Y3.449 Z-28.272
X90.284 Y3.456 Z-28.322
X90.321 Y3.463 Z-28.369
X90.361 Y3.47 Z-28.414
X90.404 Y3.476 Z-28.456
X90.45 Y3.481 Z-28.496
X90.497 Y3.486 Z-28.533
X90.547 Y3.491 Z-28.566
X90.6 Y3.495 Z-28.597
X90.653 Y3.499 Z-28.624
X90.709 Y3.503 Z-28.648
X90.766 Y3.506 Z-28.668
X90.824 Y3.508 Z-28.685
X90.883 Y3.51 Z-28.698
X90.943 Y3.511 Z-28.707
X91.003 Y3.512 Z-28.713
X91.063 Z-28.715
X91.206 Z-28.748
X91.32 Z-28.78
X91.438 Z-28.769
G3 X274.396 Z-1.509 I197.637 K-698.875
X446.364 Z-18.801 I14.057 K-723.991
G1 X446.474 Z-18.805
X446.579 Z-18.772
X446.722 Z-18.739
X453.4
X453.455 Z-18.741
X453.51 Y3.514 Z-18.747
X453.564 Y3.515 Z-18.757
X453.618 Y3.518 Z-18.77
X453.67 Y3.521 Z-18.787
X453.721 Y3.524 Z-18.808
X453.771 Y3.529 Z-18.832
X453.818 Y3.534 Z-18.86
X453.864 Y3.539 Z-18.891
X453.907 Y3.545 Z-18.925
X453.947 Y3.552 Z-18.963
X453.985 Y3.559 Z-19.002
X454.02 Y3.566 Z-19.045
X454.051 Y3.574 Z-19.09
X454.079 Y3.582 Z-19.136
X454.104 Y3.591 Z-19.185
X454.125 Y3.6 Z-19.235
X454.143 Y3.609 Z-19.287
X454.156 Y3.618 Z-19.34
X454.166 Y3.628 Z-19.393
X454.172 Y3.637 Z-19.447
X454.174 Y3.647 Z-19.502
X454.172 Y3.657 Z-19.556
X454.166 Y3.666 Z-19.61
X454.156 Y3.676 Z-19.664
X454.143 Y3.685 Z-19.717
X454.125 Y3.694 Z-19.768
X454.104 Y3.703 Z-19.819
X454.079 Y3.712 Z-19.867
X454.051 Y3.72 Z-19.914
X454.02 Y3.728 Z-19.959
X453.985 Y3.736 Z-20.001
X453.947 Y3.743 Z-20.041
X453.907 Y3.749 Z-20.078
X453.864 Y3.755 Z-20.112
X453.818 Y3.761 Z-20.144
X453.771 Y3.766 Z-20.171
X453.721 Y3.77 Z-20.196
X453.67 Y3.774 Z-20.217
X453.618 Y3.777 Z-20.234
X453.564 Y3.779 Z-20.247
X453.51 Y3.781 Z-20.257
X453.455 Y3.782 Z-20.263
X453.4 Z-20.265
X453.257 Z-20.298
X453.151 Z-20.329
X453.041 Z-20.323
G2 X261.91 Z-1.867 I-164.576 K-705.451
X84.914 Z-30.65 I27.287 K-726.386
G1 X84.795 Z-30.662
X84.679 Z-30.63
X84.536 Z-30.597
X78.235
X78.175 Z-30.599
X78.116 Y3.783 Z-30.604
X78.057 Y3.785 Z-30.613
X77.998 Y3.786 Z-30.626
X77.941 Y3.789 Z-30.643
X77.885 Y3.792 Z-30.663
X77.83 Y3.795 Z-30.686
X77.777 Y3.799 Z-30.713
X77.725 Y3.803 Z-30.743
X77.676 Y3.808 Z-30.776
X77.629 Y3.813 Z-30.813
X77.584 Y3.819 Z-30.852
X77.542 Y3.825 Z-30.894
X77.502 Y3.831 Z-30.938
X77.466 Y3.838 Z-30.985
X77.432 Y3.845 Z-31.033
X77.402 Y3.852 Z-31.084
X77.375 Y3.86 Z-31.137
X77.351 Y3.867 Z-31.191
X77.331 Y3.875 Z-31.247
X77.314 Y3.884 Z-31.304
X77.301 Y3.892 Z-31.361
X77.292 Y3.9 Z-31.42
X77.286 Y3.909 Z-31.479
X77.284 Y3.917 Z-31.538
X77.286 Y3.926 Z-31.597
X77.292 Y3.934 Z-31.656
X77.301 Y3.942 Z-31.714
X77.314 Y3.951 Z-31.772
X77.331 Y3.959 Z-31.829
X77.351 Y3.967 Z-31.884
X77.375 Y3.975 Z-31.938
X77.402 Y3.982 Z-31.991
X77.432 Y3.989 Z-32.042
X77.466 Y3.996 Z-32.091
X77.502 Y4.003 Z-32.138
X77.542 Y4.01 Z-32.182
X77.584 Y4.016 Z-32.224
X77.629 Y4.021 Z-32.263
X77.676 Y4.026 Z-32.299
X77.725 Y4.031 Z-32.332
X77.777 Y4.035 Z-32.362
X77.83 Y4.039 Z-32.389
X77.885 Y4.043 Z-32.413
X77.941 Y4.046 Z-32.433
X77.998 Y4.048 Z-32.449
X78.057 Y4.05 Z-32.462
X78.116 Y4.051 Z-32.471
X78.175 Y4.052 Z-32.477
X78.235 Z-32.479
X78.378 Z-32.512
X78.494 Z-32.544
X78.615 Z-32.531
G3 X274.403 Z-1.515 I210.486 K-695.233
X345.282 Z-3.608 I14.022 K-726.358
X459.429 Z-21.847 I-57.35 K-725.232
G1 X459.541 Z-21.855
X459.649 Z-21.824
X459.792 Z-21.791
X465.958
X466.014 Z-21.793
X466.069 Y4.054 Z-21.799
X466.123 Y4.055 Z-21.809
X466.177 Y4.058 Z-21.822
X466.229 Y4.061 Z-21.839
X466.28 Y4.064 Z-21.86
X466.33 Y4.069 Z-21.885
X466.377 Y4.074 Z-21.913
X466.423 Y4.079 Z-21.944
X466.466 Y4.085 Z-21.978
X466.507 Y4.092 Z-22.015
X466.544 Y4.099 Z-22.055
X466.579 Y4.106 Z-22.097
X466.611 Y4.114 Z-22.142
X466.639 Y4.122 Z-22.189
X466.664 Y4.131 Z-22.238
X466.685 Y4.14 Z-22.288
X466.702 Y4.149 Z-22.34
X466.716 Y4.158 Z-22.393
X466.726 Y4.168 Z-22.446
X466.732 Y4.177 Z-22.5
X466.734 Y4.187 Z-22.555
X466.732 Y4.197 Z-22.609
X466.726 Y4.206 Z-22.664
X466.716 Y4.216 Z-22.717
X466.702 Y4.225 Z-22.77
X466.685 Y4.234 Z-22.822
X466.664 Y4.243 Z-22.872
X466.639 Y4.252 Z-22.921
X466.611 Y4.26 Z-22.968
X466.579 Y4.268 Z-23.013
X466.544 Y4.276 Z-23.055
X466.507 Y4.283 Z-23.095
X466.466 Y4.289 Z-23.132
X466.423 Y4.295 Z-23.166
X466.377 Y4.301 Z-23.197
X466.33 Y4.306 Z-23.225
X466.28 Y4.31 Z-23.25
X466.229 Y4.314 Z-23.27
X466.177 Y4.317 Z-23.288
X466.123 Y4.319 Z-23.301
X466.069 Y4.321 Z-23.311
X466.014 Y4.322 Z-23.317
X465.958 Z-23.319
X465.815 Z-23.352
X465.707 Z-23.383
X465.594 Z-23.375
G2 X310.458 Z-1.716 I-177.334 K-703.743
G1 X305.43 Z-1.582
G2 X98.163 Z-26.926 I-16.662 K-723.946
X72.51 Z-34.413 I179.593 K-662.992
G1 X72.388 Z-34.427
X72.27 Z-34.395
X72.127 Z-34.361
X66.215
X66.155 Z-34.363
X66.096 Y4.323 Z-34.369
X66.037 Y4.325 Z-34.378
X65.979 Y4.326 Z-34.391
X65.921 Y4.329 Z-34.407
X65.865 Y4.332 Z-34.427
X65.811 Y4.335 Z-34.451
X65.757 Y4.339 Z-34.478
X65.706 Y4.343 Z-34.508
X65.657 Y4.348 Z-34.541
X65.609 Y4.353 Z-34.577
X65.565 Y4.359 Z-34.616
X65.522 Y4.365 Z-34.658
X65.483 Y4.371 Z-34.702
X65.446 Y4.378 Z-34.749
X65.413 Y4.385 Z-34.798
X65.382 Y4.392 Z-34.849
X65.355 Y4.4 Z-34.901
X65.332 Y4.407 Z-34.956
X65.311 Y4.415 Z-35.011
X65.295 Y4.424 Z-35.068
X65.282 Y4.432 Z-35.126
X65.272 Y4.44 Z-35.184
X65.267 Y4.449 Z-35.243
X65.265 Y4.457 Z-35.302
X65.267 Y4.466 Z-35.361
X65.272 Y4.474 Z-35.42
X65.282 Y4.482 Z-35.478
X65.295 Y4.491 Z-35.536
X65.311 Y4.499 Z-35.593
X65.332 Y4.507 Z-35.648
X65.355 Y4.515 Z-35.702
X65.382 Y4.522 Z-35.755
X65.413 Y4.529 Z-35.806
X65.446 Y4.536 Z-35.855
X65.483 Y4.543 Z-35.902
X65.522 Y4.55 Z-35.946
X65.565 Y4.556 Z-35.988
X65.609 Y4.561 Z-36.027
X65.657 Y4.566 Z-36.063
X65.706 Y4.571 Z-36.096
X65.757 Y4.575 Z-36.126
X65.811 Y4.579 Z-36.153
X65.865 Y4.583 Z-36.177
X65.921 Y4.586 Z-36.197
X65.979 Y4.588 Z-36.213
X66.037 Y4.59 Z-36.226
X66.096 Y4.591 Z-36.235
X66.155 Y4.592 Z-36.241
X66.215 Z-36.243
X66.358 Z-36.276
X66.478 Z-36.308
X66.601 Z-36.293
G3 X274.355 Z-1.523 I222.505 K-691.424
X340.869 Z-3.281 I14.052 K-727.422
X471.588 Z-24.918 I-52.922 K-725.443
G1 X471.702 Z-24.927
X471.813 Z-24.895
X471.956 Z-24.862
X477.789
X477.842 Z-24.864
X477.896 Y4.593 Z-24.869
X477.949 Y4.595 Z-24.878
X478.001 Y4.597 Z-24.891
X478.053 Y4.6 Z-24.907
X478.103 Y4.603 Z-24.926
X478.151 Y4.607 Z-24.949
X478.198 Y4.612 Z-24.975
X478.243 Y4.617 Z-25.004
X478.286 Y4.622 Z-25.036
X478.327 Y4.628 Z-25.071
X478.365 Y4.635 Z-25.109
X478.4 Y4.642 Z-25.149
X478.433 Y4.649 Z-25.191
X478.462 Y4.657 Z-25.235
X478.488 Y4.665 Z-25.281
X478.512 Y4.673 Z-25.329
X478.531 Y4.682 Z-25.379
X478.548 Y4.691 Z-25.429
X478.56 Y4.7 Z-25.481
X478.569 Y4.709 Z-25.533
X478.575 Y4.718 Z-25.586
X478.577 Y4.727 Z-25.639
X478.575 Y4.736 Z-25.692
X478.569 Y4.746 Z-25.744
X478.56 Y4.755 Z-25.797
X478.548 Y4.764 Z-25.848
X478.531 Y4.772 Z-25.899
X478.512 Y4.781 Z-25.948
X478.488 Y4.789 Z-25.996
X478.462 Y4.797 Z-26.042
X478.433 Y4.805 Z-26.086
X478.4 Y4.812 Z-26.129
X478.365 Y4.819 Z-26.169
X478.327 Y4.826 Z-26.206
X478.286 Y4.832 Z-26.241
X478.243 Y4.837 Z-26.273
X478.198 Y4.842 Z-26.302
X478.151 Y4.847 Z-26.328
X478.103 Y4.851 Z-26.351
X478.053 Y4.854 Z-26.37
X478.001 Y4.857 Z-26.386
X477.949 Y4.859 Z-26.399
X477.896 Y4.861 Z-26.408
X477.842 Y4.862 Z-26.413
X477.789 Z-26.415
X477.646 Z-26.448
X477.534 Z-26.48
X477.419 Z-26.47
G2 X310.363 Z-1.714 I-189.288 K-701.293
X77.134 Z-33.005 I-21.512 K-724.494
X60.93 Z-38.148 I186.395 K-615.397
G1 X60.806 Z-38.163
X60.685 Z-38.13
X60.542 Z-38.097
X54.999
X54.94 Z-38.099
X54.881 Y4.863 Z-38.104
X54.822 Y4.865 Z-38.113
X54.764 Y4.866 Z-38.126
X54.708 Y4.869 Z-38.143
X54.652 Y4.872 Z-38.163
X54.597 Y4.875 Z-38.186
X54.545 Y4.879 Z-38.212
X54.494 Y4.883 Z-38.242
X54.445 Y4.888 Z-38.275
X54.398 Y4.893 Z-38.311
X54.353 Y4.899 Z-38.35
X54.311 Y4.905 Z-38.391
X54.272 Y4.911 Z-38.435
X54.236 Y4.918 Z-38.482
X54.203 Y4.925 Z-38.53
X54.172 Y4.932 Z-38.581
X54.146 Y4.94 Z-38.633
X54.122 Y4.947 Z-38.687
X54.102 Y4.955 Z-38.742
X54.085 Y4.964 Z-38.798
X54.072 Y4.972 Z-38.856
X54.063 Y4.98 Z-38.914
X54.058 Y4.989 Z-38.972
X54.056 Y4.997 Z-39.031
X54.058 Y5.006 Z-39.089
X54.063 Y5.014 Z-39.148
X54.072 Y5.022 Z-39.205
X54.085 Y5.031 Z-39.263
X54.102 Y5.039 Z-39.319
X54.122 Y5.047 Z-39.374
X54.146 Y5.055 Z-39.428
X54.172 Y5.062 Z-39.48
X54.203 Y5.069 Z-39.531
X54.236 Y5.076 Z-39.579
X54.272 Y5.083 Z-39.626
X54.311 Y5.09 Z-39.67
X54.353 Y5.096 Z-39.711
X54.398 Y5.101 Z-39.75
X54.445 Y5.106 Z-39.786
X54.494 Y5.111 Z-39.819
X54.545 Y5.115 Z-39.849
X54.597 Y5.119 Z-39.875
X54.652 Y5.123 Z-39.899
X54.708 Y5.126 Z-39.918
X54.764 Y5.128 Z-39.935
X54.822 Y5.13 Z-39.948
X54.881 Y5.131 Z-39.957
X54.94 Y5.132 Z-39.962
X54.999 Z-39.964
X55.142 Z-39.997
X55.265 Z-40.03
X55.39 Z-40.013
G3 X274.141 Z-1.535 I233.72 K-687.663
X340.939 Z-3.294 I14.268 K-727.228
X483.016 Z-28.008 I-53.024 K-725.566
G1 X483.133 Z-28.018
X483.245 Z-27.985
X483.388 Z-27.952
X488.874
X488.928 Z-27.954
X488.982 Y5.133 Z-27.959
X489.035 Y5.135 Z-27.968
X489.087 Y5.137 Z-27.981
X489.139 Y5.14 Z-27.997
X489.189 Y5.143 Z-28.017
X489.238 Y5.147 Z-28.039
X489.285 Y5.152 Z-28.065
X489.33 Y5.157 Z-28.095
X489.373 Y5.162 Z-28.127
X489.414 Y5.168 Z-28.162
X489.452 Y5.175 Z-28.199
X489.487 Y5.182 Z-28.239
X489.52 Y5.189 Z-28.282
X489.55 Y5.197 Z-28.326
X489.576 Y5.205 Z-28.373
X489.599 Y5.213 Z-28.421
X489.619 Y5.222 Z-28.47
X489.635 Y5.231 Z-28.521
X489.648 Y5.24 Z-28.573
X489.657 Y5.249 Z-28.625
X489.663 Y5.258 Z-28.678
X489.665 Y5.267 Z-28.731
X489.663 Y5.276 Z-28.784
X489.657 Y5.286 Z-28.837
X489.648 Y5.295 Z-28.89
X489.635 Y5.304 Z-28.941
X489.619 Y5.312 Z-28.992
X489.599 Y5.321 Z-29.042
X489.576 Y5.329 Z-29.09
X489.55 Y5.337 Z-29.136
X489.52 Y5.345 Z-29.181
X489.487 Y5.352 Z-29.223
X489.452 Y5.359 Z-29.263
X489.414 Y5.366 Z-29.301
X489.373 Y5.372 Z-29.336
X489.33 Y5.377 Z-29.368
X489.285 Y5.382 Z-29.397
X489.238 Y5.387 Z-29.423
X489.189 Y5.391 Z-29.446
X489.139 Y5.394 Z-29.466
X489.087 Y5.397 Z-29.482
X489.035 Y5.399 Z-29.494
X488.982 Y5.401 Z-29.503
X488.928 Y5.402 Z-29.509
X488.874 Z-29.511
X488.731 Z-29.544
X488.617 Z-29.576
X488.498 Z-29.564
G2 X310.373 Z-1.721 I-200.403 K-698.361
X64.555 Z-36.979 I-21.501 K-724.641
X49.984 Z-41.882 I190.04 K-588.921
G1 X49.857 Z-41.899
X49.734 Z-41.866
X49.591 Z-41.833
X44.391
X44.33 Z-41.835
X44.269 Y5.403 Z-41.841
X44.209 Y5.405 Z-41.851
X44.15 Y5.407 Z-41.864
X44.092 Y5.409 Z-41.882
X44.035 Y5.412 Z-41.903
X43.979 Y5.416 Z-41.928
X43.926 Y5.42 Z-41.956
X43.874 Y5.425 Z-41.988
X43.824 Y5.43 Z-42.023
X43.777 Y5.436 Z-42.061
X43.733 Y5.442 Z-42.103
X43.691 Y5.448 Z-42.147
X43.653 Y5.455 Z-42.193
X43.617 Y5.462 Z-42.242
X43.585 Y5.47 Z-42.293
X43.556 Y5.477 Z-42.346
X43.531 Y5.485 Z-42.401
X43.51 Y5.494 Z-42.458
X43.492 Y5.502 Z-42.515
X43.478 Y5.511 Z-42.574
X43.468 Y5.519 Z-42.633
X43.463 Y5.528 Z-42.693
X43.461 Y5.537 Z-42.753
X43.463 Y5.546 Z-42.814
X43.468 Y5.555 Z-42.874
X43.478 Y5.563 Z-42.933
X43.492 Y5.572 Z-42.992
X43.51 Y5.581 Z-43.049
X43.531 Y5.589 Z-43.106
X43.556 Y5.597 Z-43.16
X43.585 Y5.605 Z-43.214
X43.617 Y5.612 Z-43.265
X43.653 Y5.619 Z-43.314
X43.691 Y5.626 Z-43.36
X43.733 Y5.633 Z-43.404
X43.777 Y5.639 Z-43.445
X43.824 Y5.644 Z-43.484
X43.874 Y5.649 Z-43.519
X43.926 Y5.654 Z-43.55
X43.979 Y5.658 Z-43.579
X44.035 Y5.662 Z-43.604
X44.092 Y5.665 Z-43.625
X44.15 Y5.668 Z-43.642
X44.209 Y5.67 Z-43.656
X44.269 Y5.671 Z-43.666
X44.33 Y5.672 Z-43.672
X44.391 Z-43.674
X44.534 Z-43.707
X44.658 Z-43.74
X44.785 Z-43.721
G3 X274.233 Z-1.54 I244.323 K-683.866
X336.659 Z-3.003 I14.159 K-728.426
X493.856 Z-31.128 I-48.711 K-725.612
G1 X493.975 Z-31.141
X494.09 Z-31.109
X494.233 Z-31.076
X499.403
X499.457 Z-31.078
X499.51 Y5.673 Z-31.083
X499.563 Y5.675 Z-31.092
X499.616 Y5.677 Z-31.105
X499.667 Y5.68 Z-31.121
X499.717 Y5.683 Z-31.14
X499.766 Y5.687 Z-31.163
X499.812 Y5.692 Z-31.189
X499.857 Y5.697 Z-31.218
X499.9 Y5.702 Z-31.25
X499.941 Y5.708 Z-31.285
X499.979 Y5.715 Z-31.322
X500.014 Y5.722 Z-31.362
X500.046 Y5.729 Z-31.404
X500.076 Y5.737 Z-31.449
X500.102 Y5.745 Z-31.495
X500.125 Y5.753 Z-31.543
X500.145 Y5.762 Z-31.592
X500.161 Y5.771 Z-31.643
X500.174 Y5.78 Z-31.694
X500.183 Y5.789 Z-31.746
X500.189 Y5.798 Z-31.799
X500.191 Y5.807 Z-31.852
X500.189 Y5.816 Z-31.905
X500.183 Y5.825 Z-31.957
X500.174 Y5.835 Z-32.01
X500.161 Y5.844 Z-32.061
X500.145 Y5.852 Z-32.112
X500.125 Y5.861 Z-32.161
X500.102 Y5.869 Z-32.209
X500.076 Y5.877 Z-32.255
X500.046 Y5.885 Z-32.299
X500.014 Y5.892 Z-32.341
X499.979 Y5.899 Z-32.381
X499.941 Y5.906 Z-32.419
X499.9 Y5.912 Z-32.453
X499.857 Y5.917 Z-32.485
X499.812 Y5.922 Z-32.515
X499.766 Y5.927 Z-32.54
X499.717 Y5.931 Z-32.563
X499.667 Y5.934 Z-32.583
X499.616 Y5.937 Z-32.599
X499.563 Y5.939 Z-32.611
X499.51 Y5.941 Z-32.62
X499.457 Y5.942 Z-32.626
X499.403 Z-32.627
X499.26 Z-32.661
X499.144 Z-32.693
X499.024 Z-32.68
G2 X310.431 Z-1.729 I-210.962 K-695.397
X224.785 Z-4.239 I-21.634 K-724.152
X39.657 Z-45.578 I64.505 K-724.073
G1 X39.529 Z-45.599
X39.403 Z-45.569
X39.26 Z-45.535
X34.287
X34.229 Z-45.537
X34.17 Y5.943 Z-45.543
X34.112 Y5.945 Z-45.552
X34.055 Y5.946 Z-45.565
X33.999 Y5.949 Z-45.581
X33.943 Y5.952 Z-45.6
X33.89 Y5.955 Z-45.623
X33.837 Y5.959 Z-45.65
X33.787 Y5.963 Z-45.679
X33.738 Y5.968 Z-45.712
X33.692 Y5.973 Z-45.748
X33.648 Y5.979 Z-45.786
X33.606 Y5.985 Z-45.827
X33.567 Y5.991 Z-45.871
X33.531 Y5.998 Z-45.917
X33.499 Y6.005 Z-45.965
X33.469 Y6.012 Z-46.015
X33.442 Y6.02 Z-46.066
X33.419 Y6.027 Z-46.12
X33.399 Y6.035 Z-46.174
X33.382 Y6.044 Z-46.23
X33.37 Y6.052 Z-46.287
X33.36 Y6.06 Z-46.344
X33.355 Y6.069 Z-46.402
X33.353 Y6.077 Z-46.46
X33.355 Y6.086 Z-46.518
X33.36 Y6.094 Z-46.576
X33.37 Y6.102 Z-46.633
X33.382 Y6.111 Z-46.69
X33.399 Y6.119 Z-46.746
X33.419 Y6.127 Z-46.8
X33.442 Y6.135 Z-46.854
X33.469 Y6.142 Z-46.905
X33.499 Y6.149 Z-46.955
X33.531 Y6.156 Z-47.003
X33.567 Y6.163 Z-47.049
X33.606 Y6.17 Z-47.093
X33.648 Y6.176 Z-47.134
X33.692 Y6.181 Z-47.172
X33.738 Y6.186 Z-47.208
X33.787 Y6.191 Z-47.241
X33.837 Y6.195 Z-47.27
X33.89 Y6.199 Z-47.296
X33.943 Y6.203 Z-47.32
X33.999 Y6.206 Z-47.339
X34.055 Y6.208 Z-47.355
X34.112 Y6.21 Z-47.368
X34.17 Y6.211 Z-47.377
X34.229 Y6.212 Z-47.383
X34.287 Z-47.384
X34.43 Z-47.418
X34.558 Z-47.45
X34.688 Z-47.43
G3 X273.994 Z-1.553 I254.393 K-679.892
X358.523 Z-4.807 I14.469 K-723.686
X504.114 Z-34.249 I-70.719 K-724.397
G1 X504.235 Z-34.262
X504.352 Z-34.23
X504.496 Z-34.197
X509.447
X509.501 Z-34.199
X509.555 Y6.213 Z-34.204
X509.608 Y6.215 Z-34.213
X509.661 Y6.217 Z-34.226
X509.713 Y6.22 Z-34.242
X509.764 Y6.223 Z-34.262
X509.813 Y6.227 Z-34.285
X509.86 Y6.232 Z-34.311
X509.906 Y6.237 Z-34.34
X509.949 Y6.242 Z-34.373
X509.99 Y6.248 Z-34.408
X510.028 Y6.255 Z-34.446
X510.064 Y6.262 Z-34.486
X510.097 Y6.269 Z-34.529
X510.127 Y6.277 Z-34.574
X510.153 Y6.285 Z-34.62
X510.177 Y6.293 Z-34.669
X510.197 Y6.302 Z-34.719
X510.213 Y6.311 Z-34.77
X510.226 Y6.32 Z-34.822
X510.235 Y6.329 Z-34.875
X510.241 Y6.338 Z-34.928
X510.242 Y6.347 Z-34.981
X510.241 Y6.356 Z-35.035
X510.235 Y6.365 Z-35.088
X510.226 Y6.375 Z-35.141
X510.213 Y6.384 Z-35.193
X510.197 Y6.392 Z-35.244
X510.177 Y6.401 Z-35.294
X510.153 Y6.409 Z-35.342
X510.127 Y6.417 Z-35.389
X510.097 Y6.425 Z-35.434
X510.064 Y6.432 Z-35.476
X510.028 Y6.439 Z-35.517
X509.99 Y6.446 Z-35.555
X509.949 Y6.452 Z-35.59
X509.906 Y6.457 Z-35.622
X509.86 Y6.462 Z-35.652
X509.813 Y6.467 Z-35.678
X509.764 Y6.471 Z-35.701
X509.713 Y6.474 Z-35.72
X509.661 Y6.477 Z-35.737
X509.608 Y6.479 Z-35.749
X509.555 Y6.481 Z-35.758
X509.501 Y6.482 Z-35.764
X509.447 Z-35.766
X509.303 Z-35.799
X509.184 Z-35.831
X509.062 Z-35.817
G2 X314.857 Z-1.884 I-221.034 K-692.327
X77.33 Z-32.979 I-26.021 K-723.996
X29.833 Z-49.275 I206.218 K-678.416
G1 X29.702 Z-49.296
X29.574 Z-49.263
X29.431 Z-49.23
X24.685
X24.624 Z-49.232
X24.564 Y6.483 Z-49.238
X24.503 Y6.485 Z-49.248
X24.444 Y6.487 Z-49.261
X24.386 Y6.489 Z-49.279
X24.329 Y6.492 Z-49.3
X24.273 Y6.496 Z-49.325
X24.22 Y6.5 Z-49.353
X24.168 Y6.505 Z-49.385
X24.118 Y6.51 Z-49.42
X24.071 Y6.516 Z-49.458
X24.027 Y6.522 Z-49.5
X23.985 Y6.528 Z-49.544
X23.947 Y6.535 Z-49.59
X23.911 Y6.542 Z-49.639
X23.879 Y6.55 Z-49.69
X23.85 Y6.557 Z-49.744
X23.825 Y6.565 Z-49.798
X23.804 Y6.574 Z-49.855
X23.786 Y6.582 Z-49.912
X23.772 Y6.591 Z-49.971
X23.762 Y6.599 Z-50.031
X23.756 Y6.608 Z-50.091
X23.754 Y6.617 Z-50.151
X23.756 Y6.626 Z-50.211
X23.762 Y6.635 Z-50.271
X23.772 Y6.643 Z-50.33
X23.786 Y6.652 Z-50.389
X23.804 Y6.661 Z-50.447
X23.825 Y6.669 Z-50.503
X23.85 Y6.677 Z-50.558
X23.879 Y6.685 Z-50.611
X23.911 Y6.692 Z-50.662
X23.947 Y6.699 Z-50.711
X23.985 Y6.706 Z-50.758
X24.027 Y6.713 Z-50.802
X24.071 Y6.719 Z-50.843
X24.118 Y6.724 Z-50.881
X24.168 Y6.729 Z-50.916
X24.22 Y6.734 Z-50.948
X24.273 Y6.738 Z-50.977
X24.329 Y6.742 Z-51.002
X24.386 Y6.745 Z-51.023
X24.444 Y6.748 Z-51.04
X24.503 Y6.75 Z-51.054
X24.564 Y6.751 Z-51.064
X24.624 Y6.752 Z-51.07
X24.685 Z-51.072
X24.828 Z-51.105
X24.957 Z-51.138
X25.089 Z-51.116
G3 X278.177 Z-1.487 I263.951 K-675.908
X367.108 Z-5.703 I10.278 K-723.207
X513.899 Z-37.383 I-79.311 K-723.409
G1 X514.022 Z-37.4
X514.142 Z-37.369
X514.285 Z-37.336
X519.051
X519.106 Z-37.338
X519.16 Y6.753 Z-37.343
X519.214 Y6.755 Z-37.353
X519.268 Y6.757 Z-37.365
X519.32 Y6.76 Z-37.382
X519.371 Y6.763 Z-37.402
X519.42 Y6.767 Z-37.425
X519.468 Y6.772 Z-37.451
X519.514 Y6.777 Z-37.481
X519.558 Y6.782 Z-37.514
X519.599 Y6.788 Z-37.549
X519.638 Y6.795 Z-37.587
X519.674 Y6.802 Z-37.628
X519.707 Y6.809 Z-37.671
X519.737 Y6.817 Z-37.716
X519.764 Y6.825 Z-37.763
X519.787 Y6.833 Z-37.812
X519.808 Y6.842 Z-37.863
X519.824 Y6.851 Z-37.914
X519.837 Y6.86 Z-37.967
X519.846 Y6.869 Z-38.02
X519.852 Y6.878 Z-38.074
X519.854 Y6.887 Z-38.128
X519.852 Y6.896 Z-38.182
X519.846 Y6.905 Z-38.235
X519.837 Y6.915 Z-38.289
X519.824 Y6.924 Z-38.341
X519.808 Y6.932 Z-38.393
X519.787 Y6.941 Z-38.443
X519.764 Y6.949 Z-38.492
X519.737 Y6.957 Z-38.539
X519.707 Y6.965 Z-38.584
X519.674 Y6.972 Z-38.627
X519.638 Y6.979 Z-38.668
X519.599 Y6.986 Z-38.706
X519.558 Y6.992 Z-38.742
X519.514 Y6.997 Z-38.774
X519.468 Y7.002 Z-38.804
X519.42 Y7.007 Z-38.831
X519.371 Y7.011 Z-38.854
X519.32 Y7.014 Z-38.874
X519.268 Y7.017 Z-38.89
X519.214 Y7.019 Z-38.903
X519.16 Y7.021 Z-38.912
X519.106 Y7.022 Z-38.917
X519.051 Z-38.919
X518.908 Z-38.952
X518.787 Z-38.985
X518.662 Z-38.969
G2 X314.836 Z-1.891 I-230.627 K-689.032
X89.543 Z-29.383 I-26.02 K-723.65
X20.46 Z-52.951 I196.316 K-688.479
G1 X20.327 Z-52.973
X20.197 Z-52.939
X20.054 Z-52.906
X16.695
X16.643 Z-52.908
X16.591 Y7.024 Z-52.914
X16.541 Y7.025 Z-52.923
X16.491 Y7.028 Z-52.936
X16.442 Y7.031 Z-52.953
X16.394 Y7.035 Z-52.974
X16.349 Y7.04 Z-52.997
X16.305 Y7.046 Z-53.024
X16.263 Y7.052 Z-53.054
X16.224 Y7.058 Z-53.088
X16.187 Y7.065 Z-53.123
X16.153 Y7.073 Z-53.162
X16.123 Y7.081 Z-53.203
X16.095 Y7.09 Z-53.246
X16.071 Y7.099 Z-53.291
X16.05 Y7.108 Z-53.337
X16.033 Y7.117 Z-53.385
X16.02 Y7.127 Z-53.434
X16.01 Y7.137 Z-53.484
X16.004 Y7.147 Z-53.535
X16.002 Y7.157 Z-53.585
X16.004 Y7.167 Z-53.636
X16.01 Y7.177 Z-53.686
X16.02 Y7.187 Z-53.736
X16.033 Y7.197 Z-53.785
X16.05 Y7.206 Z-53.833
X16.071 Y7.216 Z-53.88
X16.095 Y7.225 Z-53.925
X16.123 Y7.233 Z-53.968
X16.153 Y7.241 Z-54.009
X16.187 Y7.249 Z-54.047
X16.224 Y7.256 Z-54.083
X16.263 Y7.263 Z-54.116
X16.305 Y7.269 Z-54.146
X16.349 Y7.274 Z-54.173
X16.394 Y7.279 Z-54.197
X16.442 Y7.283 Z-54.217
X16.491 Y7.286 Z-54.234
X16.541 Y7.289 Z-54.247
X16.591 Y7.291 Z-54.257
X16.643 Y7.292 Z-54.262
X16.695 Z-54.264
X16.838 Z-54.297
X16.969 Z-54.33
X17.102 Z-54.307
G3 X278.363 Z-1.493 I271.907 K-672.459
X507.68 Z-35.404 I9.979 K-724.819
X523.274 Z-40.537 I-187.999 K-597.455
G1 X523.4 Z-40.553
X523.522 Z-40.52
X523.665 Z-40.487
X528.247
X528.302 Z-40.489
X528.357 Y7.293 Z-40.494
X528.411 Y7.295 Z-40.504
X528.464 Y7.297 Z-40.517
X528.517 Y7.3 Z-40.533
X528.568 Y7.303 Z-40.553
X528.618 Y7.307 Z-40.576
X528.666 Y7.312 Z-40.603
X528.712 Y7.317 Z-40.633
X528.756 Y7.322 Z-40.665
X528.797 Y7.328 Z-40.701
X528.836 Y7.335 Z-40.74
X528.873 Y7.342 Z-40.781
X528.906 Y7.349 Z-40.824
X528.936 Y7.357 Z-40.869
X528.963 Y7.365 Z-40.917
X528.987 Y7.373 Z-40.966
X529.007 Y7.382 Z-41.016
X529.024 Y7.391 Z-41.068
X529.037 Y7.4 Z-41.121
X529.046 Y7.409 Z-41.174
X529.052 Y7.418 Z-41.228
X529.054 Y7.427 Z-41.283
X529.052 Y7.436 Z-41.337
X529.046 Y7.445 Z-41.391
X529.037 Y7.455 Z-41.444
X529.024 Y7.464 Z-41.497
X529.007 Y7.472 Z-41.549
X528.987 Y7.481 Z-41.6
X528.963 Y7.489 Z-41.649
X528.936 Y7.497 Z-41.696
X528.906 Y7.505 Z-41.741
X528.873 Y7.512 Z-41.785
X528.836 Y7.519 Z-41.826
X528.797 Y7.526 Z-41.864
X528.756 Y7.532 Z-41.9
X528.712 Y7.537 Z-41.933
X528.666 Y7.542 Z-41.962
X528.618 Y7.547 Z-41.989
X528.568 Y7.551 Z-42.012
X528.517 Y7.554 Z-42.032
X528.464 Y7.557 Z-42.049
X528.411 Y7.559 Z-42.062
X528.357 Y7.561 Z-42.071
X528.302 Y7.562 Z-42.076
X528.247 Z-42.078
X528.104 Z-42.111
X527.98 Z-42.144
X527.854 Z-42.126
G2 X314.697 Z-1.893 I-239.825 K-685.825
X81.621 Z-31.707 I-25.872 K-723.718
X17.121 Z-54.307 I203.53 K-684.214
G1 X16.987 Z-54.33
X16.856 Z-54.297
X16.713 Z-54.264
X16.634 Y7.588
X16.584 Y7.655
Y7.739
X16.634 Y7.806
X16.713 Y7.832
X16.73
X16.873 Z-54.297
X17.004 Z-54.33
X17.138 Z-54.306
X17.139
G3 X278.791 Z-1.493 I271.87 K-672.376
X511.843 Z-36.75 I9.536 K-724.844
X532.308 Z-43.708 I-204.462 K-634.966
G1 X532.435 Z-43.725
X532.559 Z-43.692
X532.702 Z-43.659
X537.076
X537.131 Z-43.661
X537.185 Y7.833 Z-43.666
X537.239 Y7.835 Z-43.676
X537.292 Y7.837 Z-43.688
X537.345 Y7.84 Z-43.705
X537.396 Y7.843 Z-43.725
X537.445 Y7.847 Z-43.748
X537.493 Y7.852 Z-43.774
X537.539 Y7.857 Z-43.804
X537.583 Y7.862 Z-43.837
X537.624 Y7.868 Z-43.872
X537.663 Y7.875 Z-43.91
X537.699 Y7.882 Z-43.951
X537.732 Y7.889 Z-43.994
X537.762 Y7.897 Z-44.04
X537.789 Y7.905 Z-44.087
X537.813 Y7.913 Z-44.135
X537.833 Y7.922 Z-44.186
X537.849 Y7.931 Z-44.237
X537.862 Y7.94 Z-44.29
X537.872 Y7.949 Z-44.343
X537.877 Y7.958 Z-44.397
X537.879 Y7.967 Z-44.451
X537.877 Y7.976 Z-44.505
X537.872 Y7.985 Z-44.559
X537.862 Y7.995 Z-44.612
X537.849 Y8.004 Z-44.665
X537.833 Y8.012 Z-44.716
X537.813 Y8.021 Z-44.767
X537.789 Y8.029 Z-44.815
X537.762 Y8.037 Z-44.863
X537.732 Y8.045 Z-44.908
X537.699 Y8.052 Z-44.951
X537.663 Y8.059 Z-44.992
X537.624 Y8.066 Z-45.03
X537.583 Y8.072 Z-45.065
X537.539 Y8.077 Z-45.098
X537.493 Y8.082 Z-45.128
X537.445 Y8.087 Z-45.154
X537.396 Y8.091 Z-45.177
X537.345 Y8.094 Z-45.197
X537.292 Y8.097 Z-45.214
X537.239 Y8.099 Z-45.226
X537.185 Y8.101 Z-45.236
X537.131 Y8.102 Z-45.241
X537.076 Z-45.243
X536.933 Z-45.276
X536.807 Z-45.309
X536.679 Z-45.29
G2 X314.77 Z-1.903 I-248.655 K-682.597
X279.075 Z-1.5 I-26.189 K-738.203
G1 X274.044 Z-1.584
G2 X17.155 Z-54.3 I14.948 K-725.108
G1 X17.024 Z-54.326
X16.892 Z-54.296
X16.891
X16.748 Z-54.262
X16.669 Y8.128
X16.62 Y8.195
Y8.279
X16.669 Y8.346
X16.748 Y8.372
X16.768
X16.911 Z-54.296
X17.042 Z-54.329
X17.175 Z-54.305
G3 X274.23 Z-1.583 I271.791 K-672.143
G1 X279.273 Z-1.501
G3 X473.994 Z-25.634 I9.199 K-723.421
X540.969 Z-46.878 I-183.388 K-694.356
G1 X541.099 Z-46.896
X541.225 Z-46.862
X541.368 Z-46.829
X545.584
X545.639 Z-46.831
X545.694 Y8.373 Z-46.837
X545.748 Y8.375 Z-46.846
X545.802 Y8.377 Z-46.859
X545.854 Y8.38 Z-46.875
X545.906 Y8.383 Z-46.895
X545.955 Y8.387 Z-46.918
X546.003 Y8.392 Z-46.945
X546.049 Y8.397 Z-46.975
X546.093 Y8.402 Z-47.007
X546.135 Y8.408 Z-47.043
X546.173 Y8.415 Z-47.082
X546.21 Y8.422 Z-47.122
X546.243 Y8.429 Z-47.166
X546.273 Y8.437 Z-47.211
X546.3 Y8.445 Z-47.258
X546.324 Y8.453 Z-47.307
X546.344 Y8.462 Z-47.358
X546.361 Y8.471 Z-47.409
X546.374 Y8.48 Z-47.462
X546.383 Y8.489 Z-47.516
X546.389 Y8.498 Z-47.57
X546.39 Y8.507 Z-47.624
X546.389 Y8.516 Z-47.678
X546.383 Y8.525 Z-47.732
X546.374 Y8.535 Z-47.786
X546.361 Y8.544 Z-47.838
X546.344 Y8.552 Z-47.89
X546.324 Y8.561 Z-47.94
X546.3 Y8.569 Z-47.989
X546.273 Y8.577 Z-48.037
X546.243 Y8.585 Z-48.082
X546.21 Y8.592 Z-48.125
X546.173 Y8.599 Z-48.166
X546.135 Y8.606 Z-48.205
X546.093 Y8.612 Z-48.24
X546.049 Y8.617 Z-48.273
X546.003 Y8.622 Z-48.303
X545.955 Y8.627 Z-48.329
X545.906 Y8.631 Z-48.353
X545.854 Y8.634 Z-48.373
X545.802 Y8.637 Z-48.389
X545.748 Y8.639 Z-48.402
X545.694 Y8.641 Z-48.411
X545.639 Y8.642 Z-48.417
X545.584 Z-48.418
X545.441 Z-48.452
X545.314 Z-48.484
X545.184 Z-48.464
G2 X310.511 Z-1.767 I-257.137 K-679.216
X208.751 Z-5.884 I-21.732 K-722.631
X23.558 Z-51.753 I80.503 K-721.8
G1 X19.543 Z-53.356
X17.194 Z-54.305
X17.06 Z-54.328
X16.929 Z-54.295
X16.786 Z-54.262
X16.707 Y8.668
X16.657 Y8.735
Y8.819
X16.707 Y8.886
X16.786 Y8.912
X16.803
X16.946 Z-54.295
X17.077 Z-54.328
X17.211 Z-54.305
X17.212 Z-54.304
G3 X279.612 Z-1.497 I271.787 K-672.178
X511.934 Z-36.805 I8.71 K-724.674
X549.325 Z-50.057 I-216.11 K-669.121
G1 X549.456 Z-50.077
X549.584 Z-50.043
X549.727 Z-50.01
X553.8
X553.855 Z-50.012
X553.91 Y8.913 Z-50.017
X553.964 Y8.915 Z-50.027
X554.018 Y8.917 Z-50.04
X554.07 Y8.92 Z-50.056
X554.121 Y8.923 Z-50.076
X554.171 Y8.927 Z-50.099
X554.219 Y8.932 Z-50.126
X554.266 Y8.937 Z-50.156
X554.31 Y8.942 Z-50.189
X554.351 Y8.948 Z-50.225
X554.39 Y8.955 Z-50.263
X554.426 Y8.962 Z-50.304
X554.46 Y8.969 Z-50.347
X554.49 Y8.977 Z-50.393
X554.517 Y8.985 Z-50.44
X554.541 Y8.993 Z-50.489
X554.561 Y9.002 Z-50.54
X554.578 Y9.011 Z-50.592
X554.591 Y9.02 Z-50.645
X554.6 Y9.029 Z-50.698
X554.606 Y9.038 Z-50.752
X554.608 Y9.047 Z-50.807
X554.606 Y9.056 Z-50.861
X554.6 Y9.065 Z-50.915
X554.591 Y9.075 Z-50.969
X554.578 Y9.084 Z-51.022
X554.561 Y9.092 Z-51.074
X554.541 Y9.101 Z-51.124
X554.517 Y9.109 Z-51.173
X554.49 Y9.117 Z-51.221
X554.46 Y9.125 Z-51.266
X554.426 Y9.132 Z-51.309
X554.39 Y9.139 Z-51.35
X554.351 Y9.146 Z-51.389
X554.31 Y9.152 Z-51.425
X554.266 Y9.157 Z-51.458
X554.219 Y9.162 Z-51.487
X554.171 Y9.167 Z-51.514
X554.121 Y9.171 Z-51.537
X554.07 Y9.174 Z-51.557
X554.018 Y9.177 Z-51.574
X553.964 Y9.179 Z-51.587
X553.91 Y9.181 Z-51.596
X553.855 Y9.182 Z-51.602
X553.8 Z-51.603
X553.657 Z-51.637
X553.527 Z-51.669
X553.396 Z-51.648
G2 X310.559 Z-1.777 I-265.326 K-675.798
X60.649 Z-38.342 I-21.696 K-724.013
X17.23 Z-54.304 I221.496 K-669.541
G1 X17.097 Z-54.327
X16.965 Z-54.294
X16.822 Z-54.261
X16.743 Y9.208
X16.694 Y9.275
Y9.359
X16.743 Y9.426
X16.822 Y9.452
X16.84
X16.983 Z-54.294
X17.114 Z-54.327
X17.247 Z-54.304
X17.248 Z-54.303
G3 X280.254 Z-1.496 I271.747 K-672.088
X524.315 Z-40.953 I8.044 K-724.805
X557.398 Z-53.244 I-226.736 K-660.967
G1 X557.531 Z-53.266
X557.662 Z-53.232
X557.805 Z-53.199
X560.303
X560.349 Y9.453 Z-53.2
X560.394 Y9.454 Z-53.206
X560.439 Y9.457 Z-53.216
X560.483 Y9.46 Z-53.229
X560.525 Y9.465 Z-53.246
X560.566 Y9.47 Z-53.267
X560.604 Y9.477 Z-53.29
X560.641 Y9.484 Z-53.317
X560.674 Y9.492 Z-53.347
X560.705 Y9.5 Z-53.38
X560.733 Y9.51 Z-53.415
X560.758 Y9.52 Z-53.452
X560.779 Y9.53 Z-53.492
X560.796 Y9.541 Z-53.533
X560.81 Y9.552 Z-53.575
X560.82 Y9.564 Z-53.618
X560.826 Y9.575 Z-53.662
X560.828 Y9.587 Z-53.706
X560.826 Y9.599 Z-53.75
X560.82 Y9.611 Z-53.794
X560.81 Y9.622 Z-53.837
X560.796 Y9.633 Z-53.88
X560.779 Y9.644 Z-53.921
X560.758 Y9.655 Z-53.96
X560.733 Y9.665 Z-53.997
X560.705 Y9.674 Z-54.032
X560.674 Y9.683 Z-54.065
X560.641 Y9.691 Z-54.095
X560.604 Y9.698 Z-54.122
X560.566 Y9.704 Z-54.146
X560.525 Y9.709 Z-54.166
X560.483 Y9.714 Z-54.183
X560.439 Y9.717 Z-54.196
X560.394 Y9.72 Z-54.206
X560.349 Y9.722 Z-54.212
X560.303 Z-54.214
X560.16 Z-54.247
X560.029 Z-54.28
X559.895 Z-54.256
G2 X310.444 Z-1.782 I-271.784 K-672.845
X176.027 Z-10.305 I-21.708 K-721.826
G1 X170.977 Z-11.122
G2 X17.264 Z-54.296 I118.042 K-715.49
G1 X17.133 Z-54.322
X17.002 Z-54.293
X16.859 Z-54.26
X16.78 Y9.748
X16.73 Y9.815
Y9.899
X16.78 Y9.966
X16.859 Y9.992
X16.876
X17.019 Z-54.293
X17.15 Z-54.326
X17.284 Z-54.303
X17.285 Z-54.302
G3 X280.618 Z-1.499 I271.709 K-671.999
X536.635 Z-45.33 I7.66 K-724.877
X559.877 Z-54.257 I-231.958 K-638.641
G1 X559.878
X560.012 Z-54.281
X560.143 Z-54.248
Z-54.247
X560.286 Z-54.214
X560.365 Y10.018
X560.414 Y10.085
Y10.169
X560.365 Y10.236
X560.286 Y10.262
X560.267
X560.124 Z-54.247
X559.993 Z-54.28
X559.86 Z-54.257
G2 X310.539 Z-1.792 I-271.757 K-672.786
X89.407 Z-29.484 I-21.73 K-723.24
X17.303 Z-54.302 I196.568 K-688.238
G1 X17.17 Z-54.325
X17.038 Z-54.292
X17.037
X16.894 Z-54.259
X16.815 Y10.288
X16.766 Y10.355
Y10.439
X16.815 Y10.506
X16.894 Y10.532
X16.914
X17.057 Z-54.292
X17.188 Z-54.325
X17.321 Z-54.301
G3 X280.864 Z-1.504 I271.666 K-671.889
X552.978 Z-51.525 I7.399 K-724.896
G1 X557.05 Z-53.133
X559.842 Z-54.258
X559.843
X559.976 Z-54.281
X560.107 Z-54.248
X560.25 Z-54.215
X560.329 Y10.558
X560.379 Y10.625
Y10.709
X560.329 Y10.776
X560.25 Y10.802
X560.231
X560.088 Z-54.248
X559.957 Z-54.281
X559.824 Z-54.258
G2 X310.503 Z-1.798 I-271.725 K-672.709
X186.064 Z-8.809 I-21.774 K-721.388
G1 X180.976 Z-9.558
X176.163 Z-10.3
X171.113 Z-11.115
G2 X17.337 Z-54.294 I117.913 K-715.352
G1 X17.206 Z-54.321
X17.075 Z-54.292
X16.932 Z-54.258
X16.853 Y10.828
X16.803 Y10.895
Y10.979
X16.853 Y11.046
X16.932 Y11.072
X16.949
X17.092 Z-54.292
X17.223 Z-54.324
X17.357 Z-54.301
X17.358
G3 X175.904 Z-10.345 I271.521 K-671.455
G1 X180.987 Z-9.56
X186.076 Z-8.811
G3 X431.863 Z-15.857 I102.545 K-713.341
X559.807 Z-54.256 I-142.996 K-708.809
G1 Z-54.259
X559.94 Z-54.282
X560.071 Z-54.249
X560.214 Z-54.216
X560.294 Y11.098
X560.343 Y11.165
Y11.249
X560.294 Y11.316
X560.214 Y11.342
X560.195
X560.052 Z-54.249
X559.921 Z-54.282
X559.788 Z-54.259
G2 X310.466 Z-1.804 I-271.698 K-672.653
X186.031 Z-8.821 I-21.735 K-721.363
G1 X180.942 Z-9.57
X176.129 Z-10.313
X171.079 Z-11.129
G2 X103.453 Z-25.624 I118.445 K-717.578
G1 X98.513 Z-26.951
G2 X17.375 Z-54.298 I189.571 K-696.512
G1 X17.243 Z-54.322
X17.111 Z-54.291
X16.968 Z-54.257
X16.889 Y11.368
X16.84 Y11.435
Y11.519
X16.889 Y11.586
X16.968 Y11.612
X16.986
X17.129 Z-54.291
X17.26 Z-54.324
X17.393 Z-54.3
X17.394
G3 X98.471 Z-26.968 I270.367 K-668.097
G1 X103.411 Z-25.64
G3 X137.038 Z-17.588 I186.592 K-704.982
G1 X142.071 Z-16.527
X147.111 Z-15.503
G3 X171.064 Z-11.136 I142.169 K-711.915
G1 X176.114 Z-10.32
X180.926 Z-9.577
X185.744 Z-8.866
X190.837 Z-8.151
G3 X431.827 Z-15.859 I97.784 K-713.896
X559.771 Z-54.257 I-142.975 K-708.767
G1 Z-54.259
X559.904 Z-54.283
X560.035 Z-54.25
X560.178 Z-54.216
X560.258 Y11.638
X560.307 Y11.705
Y11.789
X560.258 Y11.856
X560.178 Y11.882
X560.16
X560.017 Z-54.25
X559.886 Z-54.283
X559.752 Z-54.259
G2 X310.572 Z-1.814 I-271.667 K-672.576
X190.874 Z-8.15 I-21.842 K-721.244
G1 X185.781 Z-8.865
X180.963 Z-9.575
X176.151 Z-10.318
X171.1 Z-11.133
G2 X151.953 Z-14.557 I117.996 K-715.213
G1 X146.906 Z-15.547
X141.867 Z-16.574
G2 X103.475 Z-25.628 I147.915 K-713.079
G1 X98.534 Z-26.956
G2 X17.411 Z-54.296 I189.555 K-696.446
G1 X17.279 Z-54.321
X17.148 Z-54.29
X17.005 Z-54.257
X16.926 Y11.908
X16.876 Y11.975
Y12.059
X16.926 Y12.126
X17.005 Y12.152
X17.022
X17.165 Z-54.29
X17.296 Z-54.323
X17.43 Z-54.299
X17.431
G3 X137.005 Z-17.604 I271.042 K-670.053
G1 X142.011 Z-16.548
X146.783 Z-15.576
X151.83 Z-14.585
G3 X171.031 Z-11.149 I137.34 K-712.198
G1 X176.081 Z-10.333
X180.894 Z-9.59
X185.711 Z-8.879
X190.805 Z-8.163
G3 X426.96 Z-14.9 I97.812 K-713.715
X559.736 Z-54.257 I-138.295 K-710.213
G1 X559.735 Z-54.26
X559.868 Z-54.283
X560 Z-54.25
X560.143 Z-54.217
X560.222 Y12.178
X560.271 Y12.245
Y12.329
X560.222 Y12.396
X560.143 Y12.422
X560.124
X559.981 Z-54.25
X559.85 Z-54.283
X559.717 Z-54.26
G2 X310.537 Z-1.82 I-271.637 K-672.505
X190.845 Z-8.161 I-21.805 K-721.221
G1 X185.751 Z-8.877
X180.934 Z-9.587
X176.121 Z-10.33
X171.071 Z-11.146
X166.242 Z-11.96
X161.445 Z-12.802
X156.654 Z-13.675
X151.601 Z-14.633
X146.823 Z-15.573
X142.051 Z-16.544
X137.018 Z-17.606
G2 X65.524 Z-36.803 I152.214 K-709.609
G1 X60.663 Z-38.398
G2 X17.449 Z-54.297 I226.303 K-681.793
G1 X17.316 Z-54.321
X17.184 Z-54.289
X17.041 Z-54.256
X16.962 Y12.448
X16.913 Y12.515
Y12.599
X16.962 Y12.666
X17.041 Y12.692
X17.059
X17.202 Z-54.289
X17.333 Z-54.322
X17.466 Z-54.298
X17.467
G3 X98.592 Z-26.955 I270.35 K-668.092
G1 X103.532 Z-25.628
X108.244 Z-24.398
X113.23 Z-23.133
G3 X132.188 Z-18.664 I175.956 K-703.904
G1 X137.186 Z-17.574
X141.952 Z-16.569
X146.723 Z-15.597
X151.77 Z-14.605
X156.555 Z-13.698
X161.345 Z-12.824
X166.384 Z-11.94
X171.214 Z-11.127
X176.021 Z-10.351
X180.834 Z-9.607
X185.922 Z-8.856
G3 X432.024 Z-15.917 I102.692 K-713.072
X559.7 Z-54.258 I-143.229 K-708.712
G1 Z-54.261
X559.833 Z-54.284
X559.964 Z-54.251
X560.107 Z-54.218
X560.186 Y12.718
X560.235 Y12.785
Y12.869
X560.186 Y12.936
X560.107 Y12.962
X560.088
X559.945 Z-54.251
X559.814 Z-54.284
X559.681 Z-54.261
G2 X310.644 Z-1.831 I-271.604 K-672.422
X181.081 Z-9.573 I-21.91 K-721.287
G1 X175.998 Z-10.358
X171.191 Z-11.135
X166.361 Z-11.948
X161.322 Z-12.832
X156.532 Z-13.707
X151.747 Z-14.613
X146.968 Z-15.552
X141.928 Z-16.579
X137.163 Z-17.583
X132.405 Z-18.62
X127.654 Z-19.688
X122.671 Z-20.845
X117.962 Z-21.972
X113.234 Z-23.137
X108.248 Z-24.402
X103.536 Z-25.632
X98.596 Z-26.959
G2 X70.277 Z-35.292 I190.75 K-700.534
G1 X65.379 Z-36.862
G2 X17.485 Z-54.296 I221.934 K-684.178
G1 X17.352 Z-54.32
X17.221 Z-54.288
X17.078 Z-54.255
X16.999 Y12.988
X16.949 Y13.055
Y13.139
X16.999 Y13.206
X17.078 Y13.232
X17.095
X17.238 Z-54.288
X17.369 Z-54.321
X17.503 Z-54.297
X17.504
G3 X103.345 Z-25.688 I270.366 K-668.143
G1 X108.321 Z-24.388
X113.042 Z-23.19
X118.036 Z-21.959
X122.772 Z-20.826
X127.515 Z-19.725
X132.266 Z-18.655
X137.264 Z-17.566
X142.029 Z-16.562
X146.801 Z-15.59
X151.579 Z-14.65
X156.633 Z-13.692
X161.423 Z-12.818
X166.22 Z-11.976
X171.292 Z-11.122
X176.099 Z-10.346
X180.912 Z-9.603
X185.729 Z-8.892
X190.823 Z-8.176
G3 X431.988 Z-15.919 I97.792 K-713.632
X559.664 Z-54.259 I-143.182 K-708.579
G1 Z-54.261
X559.797 Z-54.285
X559.928 Z-54.252
X560.071 Z-54.218
X560.151 Y13.258
X560.2 Y13.325
Y13.409
X560.151 Y13.476
X560.071 Y13.502
X560.052
X559.909 Z-54.252
X559.778 Z-54.285
X559.645 Z-54.261
G2 X310.599 Z-1.836 I-271.569 K-672.331
X190.831 Z-8.178 I-21.87 K-721.037
G1 X185.737 Z-8.895
X180.892 Z-9.61
X176.079 Z-10.353
X171.272 Z-11.129
X166.2 Z-11.984
X161.404 Z-12.826
X156.613 Z-13.7
X151.828 Z-14.606
X146.782 Z-15.598
X142.01 Z-16.57
X137.245 Z-17.574
X132.247 Z-18.664
X127.496 Z-19.734
X122.752 Z-20.835
X118.016 Z-21.968
X113.022 Z-23.199
X108.302 Z-24.398
X103.59 Z-25.628
X98.649 Z-26.954
G2 X17.521 Z-54.294 I189.405 K-696.081
G1 X17.389 Z-54.319
X17.257 Z-54.287
X17.114 Z-54.254
X17.035 Y13.528
X16.986 Y13.595
Y13.679
X17.035 Y13.746
X17.114 Y13.772
X17.132
X17.275 Z-54.287
X17.406 Z-54.32
X17.539 Z-54.297
X17.54 Z-54.296
G3 X65.389 Z-36.876 I269.268 K-665.172
G1 X70.287 Z-35.305
X75.196 Z-33.771
G3 X98.605 Z-26.972 I213.439 K-691.171
G1 X103.545 Z-25.644
X108.257 Z-24.414
X112.977 Z-23.215
X117.971 Z-21.984
X122.707 Z-20.85
X127.45 Z-19.749
X132.441 Z-18.625
X137.199 Z-17.589
X141.964 Z-16.584
X146.736 Z-15.612
X151.783 Z-14.619
X156.567 Z-13.713
X161.358 Z-12.838
X166.396 Z-11.954
X171.226 Z-11.141
X176.033 Z-10.365
X180.874 Z-9.617
X185.962 Z-8.866
G3 X432.219 Z-15.976 I102.649 K-712.887
X559.628 Z-54.26 I-143.438 K-708.514
G1 Z-54.262
X559.761 Z-54.285
X559.892 Z-54.252
X560.035 Z-54.219
X560.115 Y13.798
X560.164 Y13.865
Y13.949
X560.115 Y14.016
X560.035 Y14.042
X560.017
X559.874 Z-54.252
X559.742 Z-54.285
X559.609 Z-54.262
G2 X310.561 Z-1.842 I-271.536 K-672.249
X185.974 Z-8.868 I-21.833 K-721.007
G1 X180.886 Z-9.619
G2 X161.557 Z-12.806 I108.471 K-718.025
G1 X156.497 Z-13.73
X151.712 Z-14.637
X146.934 Z-15.576
X141.922 Z-16.598
X137.129 Z-17.609
X132.371 Z-18.645
X127.62 Z-19.714
X122.637 Z-20.871
X117.901 Z-22.005
X113.173 Z-23.171
X108.187 Z-24.437
G2 X84.714 Z-30.908 I180.662 K-701.165
G1 X79.785 Z-32.376
X75.127 Z-33.797
X70.218 Z-35.333
X65.58 Z-36.819
X60.72 Z-38.414
G2 X17.558 Z-54.295 I226.314 K-681.704
G1 X17.425 Z-54.319
X17.294 Z-54.286
X17.151 Z-54.253
X17.072 Y14.068
X17.022 Y14.135
Y14.219
X17.072 Y14.286
X17.151 Y14.312
X17.168
X17.311 Z-54.286
X17.442 Z-54.319
X17.576 Z-54.296
X17.577 Z-54.295
G3 X60.746 Z-38.411 I268.886 K-664.173
G1 X65.607 Z-36.816
X70.245 Z-35.33
X75.154 Z-33.795
X79.812 Z-32.373
X84.479 Z-30.983
X89.391 Z-29.556
G3 X108.214 Z-24.435 I199.436 K-695.94
G1 X113.2 Z-23.169
X117.928 Z-22.003
X122.664 Z-20.87
X127.647 Z-19.712
X132.398 Z-18.644
X137.156 Z-17.607
X141.949 Z-16.597
X146.988 Z-15.57
G3 X166.249 Z-11.988 I142.376 K-712.053
G1 X171.32 Z-11.133
G3 X435.131 Z-16.582 I117.282 K-710.709
X559.592 Z-54.261 I-146.281 K-707.598
G1 Z-54.263
X559.725 Z-54.286
X559.857 Z-54.253
X560 Z-54.22
X560.079 Y14.338
X560.128 Y14.405
Y14.489
X560.079 Y14.556
X560 Y14.582
X559.981
X559.838 Z-54.253
X559.707 Z-54.286
X559.573 Z-54.263
G2 X310.613 Z-1.851 I-271.501 K-672.159
X195.771 Z-7.535 I-21.887 K-720.856
G1 X190.673 Z-8.216
G2 X166.445 Z-11.958 I98.6 K-718.817
G1 X161.379 Z-12.847
G2 X137.324 Z-17.575 I128.046 K-715.019
G1 X132.299 Z-18.671
X127.548 Z-19.74
X122.777 Z-20.847
X117.802 Z-22.039
X113.074 Z-23.206
X108.354 Z-24.404
X103.642 Z-25.634
X98.702 Z-26.96
X93.98 Z-28.262
X89.295 Z-29.589
X84.618 Z-30.947
X79.689 Z-32.415
X75.031 Z-33.838
X70.383 Z-35.292
X65.485 Z-36.862
G2 X17.595 Z-54.294 I221.606 K-683.304
G1 X17.462 Z-54.318
X17.33 Z-54.285
X17.187 Z-54.252
X17.108 Y14.608
X17.059 Y14.675
Y14.759
X17.108 Y14.826
X17.187 Y14.852
X17.205
X17.348 Z-54.285
X17.479 Z-54.318
X17.612 Z-54.295
X17.613 Z-54.294
G3 X65.442 Z-36.881 I269.047 K-664.605
G1 X70.314 Z-35.319
X74.905 Z-33.882
X79.854 Z-32.371
X84.521 Z-30.981
X89.198 Z-29.622
X93.883 Z-28.295
X98.841 Z-26.927
X103.545 Z-25.665
X108.257 Z-24.434
X113.242 Z-23.168
X117.97 Z-22.003
X122.706 Z-20.869
X127.449 Z-19.767
X132.467 Z-18.637
G3 X151.65 Z-14.662 I156.976 K-709.281
G1 X156.703 Z-13.704
G3 X180.878 Z-9.632 I132.644 K-713.723
G1 X185.966 Z-8.881
G3 X432.415 Z-16.034 I102.641 K-712.698
X559.556 Z-54.261 I-143.617 K-708.207
G1 Z-54.263
X559.69 Z-54.287
X559.821 Z-54.254
X559.964 Z-54.221
X560.043 Y14.878
X560.092 Y14.945
Y15.029
X560.043 Y15.096
X559.964 Y15.122
X559.945
X559.802 Z-54.254
X559.671 Z-54.287
X559.538 Z-54.263
G2 X310.499 Z-1.855 I-271.469 K-672.08
X185.981 Z-8.883 I-21.774 K-720.812
G1 X180.893 Z-9.634
G2 X156.718 Z-13.705 I108.453 K-717.749
G1 X151.665 Z-14.664
G2 X127.676 Z-19.719 I137.806 K-713.325
G1 X122.666 Z-20.883
X117.93 Z-22.017
X113.202 Z-23.183
X108.244 Z-24.442
X103.532 Z-25.673
X98.829 Z-26.935
X93.871 Z-28.304
X89.185 Z-29.631
X84.509 Z-30.99
X79.841 Z-32.38
X74.922 Z-33.882
X70.275 Z-35.337
X65.637 Z-36.823
X60.777 Z-38.419
G2 X17.631 Z-54.293 I226.081 K-681.052
G1 X17.498 Z-54.317
X17.367 Z-54.285
X17.224 Z-54.251
X17.145 Y15.148
X17.095 Y15.215
Y15.299
X17.145 Y15.366
X17.224 Y15.392
X17.241
X17.384 Z-54.285
X17.515 Z-54.317
X17.649 Z-54.294
X17.65
G3 X70.204 Z-35.366 I269.213 K-665.052
G1 X75.113 Z-33.829
X79.771 Z-32.407
X84.438 Z-31.016
X89.35 Z-29.588
X94.036 Z-28.262
X98.758 Z-26.96
X103.488 Z-25.69
X108.464 Z-24.39
G3 X127.501 Z-19.765 I180.868 K-702.945
G1 X132.519 Z-18.635
G3 X156.514 Z-13.748 I156.893 K-709.043
G1 X161.573 Z-12.824
G3 X185.775 Z-8.917 I127.742 K-714.344
G1 X190.868 Z-8.2
G3 X432.379 Z-16.037 I97.739 K-713.274
X559.52 Z-54.262 I-143.577 K-708.1
G1 X559.521 Z-54.264
X559.654 Z-54.287
X559.785 Z-54.254
X559.928 Z-54.221
X560.007 Y15.418
X560.056 Y15.485
Y15.569
X560.007 Y15.636
X559.928 Y15.662
X559.909
X559.766 Z-54.254
X559.635 Z-54.287
X559.502 Z-54.264
G2 X310.575 Z-1.864 I-271.436 K-671.997
X185.974 Z-8.892 I-21.852 K-720.71
G1 X180.886 Z-9.643
G2 X156.738 Z-13.71 I108.421 K-717.439
G1 X151.685 Z-14.668
G2 X127.697 Z-19.724 I137.761 K-713.117
G1 X122.687 Z-20.888
G2 X103.655 Z-25.65 I166.637 K-706.341
G1 X98.715 Z-26.977
X93.993 Z-28.279
X89.308 Z-29.606
X84.396 Z-31.034
X79.729 Z-32.425
X74.954 Z-33.884
X70.45 Z-35.293
X65.552 Z-36.863
G2 X17.668 Z-54.292 I221.457 K-682.906
G1 X17.535 Z-54.316
X17.403 Z-54.284
X17.26 Z-54.25
X17.181 Y15.688
X17.132 Y15.755
Y15.839
X17.181 Y15.906
X17.26 Y15.932
X17.278
X17.421 Z-54.284
X17.552 Z-54.317
X17.685 Z-54.293
X17.686
G3 X60.859 Z-38.409 I268.658 K-663.598
G1 X65.719 Z-36.814
X70.357 Z-35.328
X75.005 Z-33.874
X79.924 Z-32.371
X84.591 Z-30.981
X89.267 Z-29.623
X93.953 Z-28.296
X98.911 Z-26.928
G3 X122.673 Z-20.896 I190.375 K-700.098
G1 X127.683 Z-19.732
G3 X151.671 Z-14.675 I161.76 K-707.997
G1 X156.725 Z-13.717
G3 X180.899 Z-9.645 I132.619 K-713.531
G1 X185.988 Z-8.893
G3 X432.343 Z-16.039 I102.616 K-712.511
X559.485 Z-54.263 I-143.547 K-708.022
G1 Z-54.265
X559.618 Z-54.288
X559.749 Z-54.255
X559.892 Z-54.222
X559.972 Y15.958
X560.021 Y16.025
Y16.109
X559.972 Y16.176
X559.892 Y16.202
X559.874
X559.73 Z-54.255
X559.599 Z-54.288
X559.466 Z-54.265
G2 X310.515 Z-1.87 I-271.401 K-671.907
X185.98 Z-8.898 I-21.794 K-720.618
G1 X180.892 Z-9.65
G2 X156.745 Z-13.717 I108.413 K-717.342
G1 X151.692 Z-14.676
G2 X127.703 Z-19.732 I137.751 K-713.009
G1 X122.693 Z-20.896
G2 X98.931 Z-26.928 I166.602 K-706.124
G1 X93.973 Z-28.296
X89.288 Z-29.622
X84.584 Z-30.988
X79.89 Z-32.387
X74.997 Z-33.881
X70.376 Z-35.327
X65.739 Z-36.813
X60.879 Z-38.408
G2 X17.704 Z-54.291 I225.923 K-680.734
G1 X17.571 Z-54.315
X17.44 Z-54.283
X17.297 Z-54.25
X17.218 Y16.228
X17.168 Y16.295
Y16.379
X17.218 Y16.446
X17.297 Y16.472
X17.314
X17.457 Z-54.283
X17.588 Z-54.316
X17.722 Z-54.292
X17.723
G3 X56.158 Z-39.999 I268.29 K-662.645
G1 X61.007 Z-38.371
X65.635 Z-36.853
X70.272 Z-35.366
X75.181 Z-33.83
G3 X93.975 Z-28.3 I213.589 K-691.256
G1 X98.933 Z-26.932
G3 X122.695 Z-20.9 I190.366 K-700.06
G1 X127.705 Z-19.736
G3 X151.693 Z-14.679 I161.737 K-707.906
G1 X156.747 Z-13.721
G3 X180.894 Z-9.653 I132.556 K-713.216
G1 X185.982 Z-8.902
G3 X432.307 Z-16.041 I102.62 K-712.414
X559.449 Z-54.264 I-143.508 K-707.921
G1 Z-54.266
X559.582 Z-54.289
X559.714 Z-54.256
X559.857 Z-54.223
X559.936 Y16.498
X559.985 Y16.565
Y16.649
X559.936 Y16.716
X559.857 Y16.742
X559.838
X559.695 Z-54.256
X559.563 Z-54.289
X559.43 Z-54.266
G2 X310.567 Z-1.878 I-271.368 K-671.822
X185.994 Z-8.904 I-21.848 K-720.525
G1 X180.906 Z-9.656
G2 X156.731 Z-13.728 I108.436 K-717.463
G1 X151.678 Z-14.687
G2 X127.717 Z-19.738 I137.714 K-712.69
G1 X122.707 Z-20.902
G2 X98.945 Z-26.934 I166.59 K-706.041
G1 X93.987 Z-28.302
G2 X70.492 Z-35.302 I194.821 K-696.847
G1 X65.594 Z-36.872
X60.966 Z-38.39
X56.349 Z-39.94
X51.511 Z-41.601
G2 X17.741 Z-54.291 I234.822 K-676.21
G1 X17.608 Z-54.314
X17.476 Z-54.282
X17.333 Z-54.249
X17.254 Y16.768
X17.205 Y16.835
Y16.919
X17.254 Y16.986
X17.333 Y17.012
X17.351
X17.494 Z-54.282
X17.625 Z-54.315
X17.758 Z-54.291
X17.759
G3 X51.516 Z-41.606 I268.005 K-661.911
G1 X56.354 Z-39.944
X60.971 Z-38.395
X65.598 Z-36.877
X70.496 Z-35.306
G3 X93.991 Z-28.306 I218.342 K-689.894
G1 X98.949 Z-26.938
G3 X122.711 Z-20.905 I190.345 K-699.95
G1 X127.721 Z-19.741
G3 X151.682 Z-14.69 I161.672 K-707.6
G1 X156.735 Z-13.732
G3 X180.91 Z-9.659 I132.604 K-713.328
G1 X185.998 Z-8.908
G3 X432.297 Z-16.048 I102.602 K-712.321
X559.413 Z-54.265 I-143.497 K-707.817
G1 Z-54.266
X559.547 Z-54.29
X559.678 Z-54.257
X559.821 Z-54.224
X559.9 Y17.038
X559.949 Y17.105
Y17.189
X559.9 Y17.256
X559.821 Y17.282
X559.802
X559.659 Z-54.257
X559.528 Z-54.29
X559.395 Z-54.266
G2 X310.558 Z-1.885 I-271.334 K-671.735
X185.985 Z-8.913 I-21.841 K-720.423
G1 X180.897 Z-9.665
G2 X156.75 Z-13.733 I108.401 K-717.128
G1 X151.697 Z-14.692
G2 X127.709 Z-19.749 I137.743 K-712.815
G1 X122.699 Z-20.913
G2 X98.964 Z-26.939 I166.538 K-705.719
G1 X94.006 Z-28.307
G2 X70.511 Z-35.307 I194.81 K-696.774
G1 X65.613 Z-36.877
X60.959 Z-38.404
X56.316 Z-39.963
X51.71 Z-41.544
X46.883 Z-43.238
G2 X17.777 Z-54.29 I239.188 K-673.8
G1 X17.644 Z-54.314
X17.513 Z-54.281
X17.37 Z-54.248
X17.29 Y17.308
X17.241 Y17.375
Y17.459
X17.29 Y17.526
X17.37 Y17.552
X17.387
X17.53 Z-54.281
X17.661 Z-54.314
X17.795 Z-54.291
X17.796 Z-54.29
G3 X51.567 Z-41.6 I267.811 K-661.416
G1 X56.405 Z-39.938
G3 X75.041 Z-33.896 I232.058 K-683.939
G1 X79.96 Z-32.393
G3 X103.548 Z-25.714 I209.046 K-693.31
G1 X108.525 Z-24.413
G3 X132.339 Z-18.711 I180.806 K-702.561
G1 X137.364 Z-17.615
G3 X161.419 Z-12.885 I152.064 K-709.81
G1 X166.485 Z-11.996
G3 X190.685 Z-8.257 I122.739 K-714.304
G1 X195.783 Z-7.575
G3 X432.398 Z-16.078 I92.819 K-713.533
X559.377 Z-54.265 I-143.593 K-707.678
G1 X559.378 Z-54.267
X559.511 Z-54.29
X559.642 Z-54.258
X559.785 Z-54.224
X559.864 Y17.578
X559.913 Y17.645
Y17.729
X559.864 Y17.796
X559.785 Y17.822
X559.766
X559.623 Z-54.258
X559.492 Z-54.29
X559.359 Z-54.267
G2 X310.463 Z-1.89 I-271.299 K-671.644
X195.792 Z-7.578 I-21.745 K-720.325
G1 X190.694 Z-8.26
G2 X161.642 Z-12.849 I98.575 K-718.275
G1 X156.582 Z-13.773
G2 X137.373 Z-17.618 I132.816 K-713.472
G1 X132.348 Z-18.714
G2 X108.533 Z-24.416 I156.98 K-708.208
G1 X103.557 Z-25.716
G2 X79.969 Z-32.395 I185.439 K-699.91
G1 X75.05 Z-33.899
G2 X56.388 Z-39.95 I213.323 K-689.642
G1 X51.523 Z-41.621
G2 X17.814 Z-54.289 I234.541 K-675.322
G1 X17.681 Z-54.313
X17.549 Z-54.28
X17.406 Z-54.247
X17.327 Y17.848
X17.278 Y17.915
Y17.999
X17.327 Y18.066
X17.406 Y18.092
X17.424
X17.567 Z-54.28
X17.698 Z-54.313
X17.831 Z-54.29
X17.832 Z-54.289
G3 X46.91 Z-43.247 I267.142 K-659.696
G1 X51.764 Z-41.543
G3 X75.058 Z-33.902 I236.509 K-681.639
G1 X79.977 Z-32.398
G3 X103.565 Z-25.719 I209.027 K-693.212
G1 X108.542 Z-24.419
G3 X132.356 Z-18.717 I180.789 K-702.473
G1 X137.381 Z-17.621
G3 X161.409 Z-12.896 I152.001 K-709.503
G1 X166.474 Z-12.006
G3 X190.674 Z-8.266 I122.746 K-714.189
G1 X195.772 Z-7.584
G3 X432.39 Z-16.086 I92.828 K-713.436
X559.341 Z-54.266 I-143.584 K-707.574
G1 X559.342 Z-54.268
X559.475 Z-54.291
X559.606 Z-54.258
X559.749 Z-54.225
X559.829 Y18.118
X559.878 Y18.185
Y18.269
X559.829 Y18.336
X559.749 Y18.362
X559.73
X559.587 Z-54.258
X559.456 Z-54.291
X559.323 Z-54.268
G2 X310.486 Z-1.898 I-271.265 K-671.554
X195.783 Z-7.587 I-21.771 K-720.211
G1 X190.685 Z-8.269
G2 X166.485 Z-12.008 I98.533 K-717.876
G1 X161.419 Z-12.898
G2 X137.392 Z-17.623 I127.965 K-714.196
G1 X132.367 Z-18.719
G2 X108.552 Z-24.421 I156.961 K-708.121
G1 X103.576 Z-25.721
G2 X79.988 Z-32.4 I185.424 K-699.834
G1 X75.069 Z-33.904
G2 X51.774 Z-41.546 I213.153 K-689.077
G1 X46.922 Z-43.25
G2 X17.85 Z-54.288 I238.985 K-673.208
G1 X17.717 Z-54.312
X17.586 Z-54.279
X17.443 Z-54.246
X17.363 Y18.388
X17.314 Y18.455
Y18.539
X17.363 Y18.606
X17.443 Y18.632
X17.46
X17.603 Z-54.279
X17.734 Z-54.312
X17.868 Z-54.289
X17.869 Z-54.288
G3 X60.96 Z-38.434 I268.427 K-663.064
G1 X65.846 Z-36.83
G3 X89.293 Z-29.668 I222.815 K-687.513
G1 X94.242 Z-28.266
G3 X117.935 Z-22.078 I194.93 K-697.901
G1 X122.936 Z-20.879
G3 X146.862 Z-15.665 I166.444 K-706.153
G1 X151.908 Z-14.671
G3 X176.055 Z-10.433 I137.443 K-712.206
G1 X181.138 Z-9.647
G3 X432.25 Z-16.066 I107.454 K-711.361
X559.306 Z-54.267 I-143.468 K-707.577
G1 Z-54.269
X559.439 Z-54.292
X559.57 Z-54.259
X559.713 Z-54.226
X559.793 Y18.658
X559.842 Y18.725
Y18.809
X559.793 Y18.876
X559.713 Y18.902
X559.695
X559.552 Z-54.259
X559.42 Z-54.292
X559.287 Z-54.269
G2 X310.509 Z-1.906 I-271.231 K-671.465
X185.992 Z-8.936 I-21.798 K-720.135
G1 X180.904 Z-9.687
G2 X151.917 Z-14.674 I108.409 K-716.938
G1 X146.871 Z-15.667
G2 X122.945 Z-20.882 I142.507 K-711.314
G1 X117.943 Z-22.081
G2 X94.223 Z-28.276 I171.284 K-704.247
G1 X89.275 Z-29.679
G2 X65.855 Z-36.833 I199.316 K-694.4
G1 X60.968 Z-38.437
G2 X17.887 Z-54.287 I225.761 K-680.099
G1 X17.754 Z-54.311
X17.622 Z-54.278
X17.479 Z-54.245
X17.4 Y18.928
X17.351 Y18.995
Y19.079
X17.4 Y19.146
X17.479 Y19.172
X17.497
X17.64 Z-54.278
X17.771 Z-54.311
X17.904 Z-54.288
X17.905 Z-54.287
G3 X65.659 Z-36.903 I268.649 K-663.665
G1 X70.556 Z-35.332
G3 X94.051 Z-28.33 I218.226 K-689.331
G1 X99.009 Z-26.962
G3 X122.744 Z-20.935 I190.22 K-699.346
G1 X127.753 Z-19.77
G3 X151.714 Z-14.718 I161.629 K-707.19
G1 X156.767 Z-13.759
G3 X180.914 Z-9.69 I132.524 K-712.712
G1 X186.002 Z-8.938
G3 X432.295 Z-16.085 I102.591 K-711.945
X559.27 Z-54.268 I-143.503 K-707.436
G1 Z-54.27
X559.404 Z-54.293
X559.535 Z-54.26
X559.678 Z-54.227
X559.757 Y19.198
X559.806 Y19.265
Y19.349
X559.757 Y19.416
X559.678 Y19.442
X559.659
X559.516 Z-54.26
X559.385 Z-54.293
X559.251 Z-54.27
G2 X310.529 Z-1.913 I-271.198 K-671.379
X181.139 Z-9.659 I-21.817 K-720.139
G1 X176.057 Z-10.445
G2 X147.105 Z-15.628 I113.3 K-716.342
G1 X142.065 Z-16.656
G2 X118.148 Z-22.04 I147.352 K-710.399
G1 X113.154 Z-23.272
G2 X89.504 Z-29.622 I175.946 K-702.498
G1 X84.565 Z-31.058
G2 X61.169 Z-38.381 I203.962 K-692.717
G1 X56.293 Z-40.019
G2 X17.923 Z-54.286 I230.155 K-677.69
G1 X17.79 Z-54.31
X17.659 Z-54.278
X17.516 Z-54.244
X17.436 Y19.468
X17.387 Y19.535
Y19.619
X17.436 Y19.686
X17.516 Y19.712
X17.533
X17.676 Z-54.278
X17.807 Z-54.311
X17.941 Z-54.287
X17.942
G3 X56.302 Z-40.021 I268.034 K-662.065
G1 X61.178 Z-38.384
G3 X84.575 Z-31.061 I227.349 K-685.348
G1 X89.514 Z-29.625
G3 X113.164 Z-23.275 I199.59 K-696.116
G1 X118.157 Z-22.042
G3 X146.873 Z-15.68 I171.224 K-704.818
G1 X151.92 Z-14.686
G3 X176.066 Z-10.448 I137.431 K-712.028
G1 X181.149 Z-9.661
G3 X434.967 Z-16.644 I107.441 K-711.219
X559.234 Z-54.269 I-146.101 K-706.56
G1 X559.235 Z-54.27
X559.368 Z-54.294
X559.499 Z-54.261
X559.642 Z-54.228
X559.721 Y19.738
X559.77 Y19.805
Y19.889
X559.721 Y19.956
X559.642 Y19.982
X559.623
X559.48 Z-54.261
X559.349 Z-54.294
X559.216 Z-54.27
G2 X310.406 Z-1.917 I-271.163 K-671.29
X186.004 Z-8.95 I-21.697 K-719.972
G1 X180.916 Z-9.701
G2 X151.93 Z-14.688 I108.394 K-716.745
G1 X146.884 Z-15.682
G2 X122.958 Z-20.898 I142.489 K-711.106
G1 X117.956 Z-22.096
G2 X94.264 Z-28.286 I171.211 K-703.843
G1 X89.315 Z-29.688
G2 X65.896 Z-36.842 I199.27 K-694.201
G1 X61.009 Z-38.446
G2 X17.96 Z-54.285 I225.777 K-680.079
G1 X17.827 Z-54.309
X17.695 Z-54.277
X17.552 Z-54.244
X17.473 Y20.008
X17.424 Y20.075
Y20.159
X17.473 Y20.226
X17.552 Y20.252
X17.57
X17.713 Z-54.277
X17.844 Z-54.31
X17.977 Z-54.286
X17.978
G3 X61.018 Z-38.449 I268.367 K-662.949
G1 X65.904 Z-36.845
G3 X89.324 Z-29.691 I222.683 K-687.009
G1 X94.272 Z-28.288
G3 X117.965 Z-22.099 I194.892 K-697.599
G1 X122.967 Z-20.9
G3 X146.92 Z-15.679 I166.453 K-706.052
G1 X151.966 Z-14.686
G3 X180.925 Z-9.704 I137.33 K-711.657
G1 X186.013 Z-8.952
G3 X432.201 Z-16.085 I102.576 K-711.752
X559.198 Z-54.269 I-143.419 K-707.281
G1 X559.199 Z-54.271
X559.332 Z-54.295
X559.463 Z-54.262
X559.606 Z-54.228
X559.686 Y20.278
X559.735 Y20.345
Y20.429
X559.686 Y20.496
X559.606 Y20.522
X559.587
X559.444 Z-54.262
X559.313 Z-54.295
X559.18 Z-54.271
G2 X310.405 Z-1.924 I-271.129 K-671.2
X181.157 Z-9.672 I-21.699 K-719.92
G1 X176.075 Z-10.458
G2 X147.123 Z-15.642 I113.279 K-716.151
G1 X142.083 Z-16.669
G2 X118.166 Z-22.054 I147.33 K-710.203
G1 X113.173 Z-23.287
G2 X89.523 Z-29.638 I175.924 K-702.301
G1 X84.584 Z-31.074
G2 X61.214 Z-38.389 I203.87 K-692.305
G1 X56.339 Z-40.027
G2 X17.996 Z-54.284 I230.146 K-677.611
G1 X17.863 Z-54.308
X17.732 Z-54.276
X17.589 Z-54.243
X17.509 Y20.548
X17.46 Y20.615
Y20.699
X17.509 Y20.766
X17.589 Y20.792
X17.606
X17.749 Z-54.276
X17.88 Z-54.309
X18.014 Z-54.285
X18.015
G3 X51.684 Z-41.632 I267.719 K-661.279
G1 X56.548 Z-39.961
G3 X79.868 Z-32.486 I231.761 K-682.918
G1 X84.797 Z-31.016
G3 X108.43 Z-24.497 I204.28 K-694.441
G1 X113.415 Z-23.23
G3 X142.087 Z-16.673 I175.98 K-703.515
G1 X147.127 Z-15.645
G3 X176.078 Z-10.462 I142.225 K-710.912
G1 X181.161 Z-9.675
G3 X432.193 Z-16.092 I107.423 K-710.98
X559.163 Z-54.27 I-143.423 K-707.22
G1 Z-54.272
X559.296 Z-54.295
X559.427 Z-54.262
X559.57 Z-54.229
X559.65 Y20.818
X559.699 Y20.885
Y20.969
X559.65 Y21.036
X559.57 Y21.062
X559.552
X559.409 Z-54.262
X559.277 Z-54.295
X559.144 Z-54.272
G2 X310.425 Z-1.932 I-271.095 K-671.113
X186.019 Z-8.963 I-21.722 K-719.74
G1 X180.931 Z-9.715
G2 X151.973 Z-14.697 I108.362 K-716.488
G1 X146.926 Z-15.69
G2 X118.21 Z-22.053 I142.479 K-711.069
G1 X113.217 Z-23.285
G2 X89.54 Z-29.644 I175.936 K-702.417
G1 X84.601 Z-31.08
G2 X61.231 Z-38.395 I203.847 K-692.194
G1 X56.356 Z-40.033
G2 X18.033 Z-54.284 I230.138 K-677.544
G1 X17.9 Z-54.307
X17.768 Z-54.275
X17.625 Z-54.242
X17.546 Y21.088
X17.497 Y21.155
Y21.239
X17.546 Y21.306
X17.625 Y21.332
X17.643
X17.786 Z-54.275
X17.917 Z-54.308
X18.05 Z-54.284
X18.051
G3 X56.365 Z-40.036 I267.992 K-661.999
G1 X61.241 Z-38.398
G3 X84.61 Z-31.082 I227.21 K-684.845
G1 X89.549 Z-29.646
G3 X113.226 Z-23.288 I199.605 K-696.019
G1 X118.22 Z-22.055
G3 X146.908 Z-15.698 I171.141 K-704.472
G1 X151.955 Z-14.705
G3 X176.073 Z-10.47 I137.348 K-711.51
G1 X181.156 Z-9.684
G3 X432.266 Z-16.117 I107.427 K-710.885
X559.127 Z-54.271 I-143.496 K-707.098
G1 Z-54.273
X559.26 Z-54.296
X559.392 Z-54.263
X559.535 Z-54.23
X559.614 Y21.358
X559.663 Y21.425
Y21.509
X559.614 Y21.576
X559.535 Y21.602
X559.516
X559.373 Z-54.263
X559.242 Z-54.296
X559.108 Z-54.273
G2 X310.385 Z-1.938 I-271.062 K-671.026
X181.167 Z-9.686 I-21.68 K-719.768
G1 X176.084 Z-10.473
G2 X147.132 Z-15.657 I113.266 K-715.955
G1 X142.093 Z-16.685
G2 X118.203 Z-22.064 I147.269 K-709.802
G1 X113.21 Z-23.297
G2 X89.56 Z-29.648 I175.882 K-702.106
G1 X84.621 Z-31.085
G2 X61.252 Z-38.4 I203.83 K-692.117
G1 X56.376 Z-40.038
G2 X18.069 Z-54.283 I230.123 K-677.471
G1 X17.936 Z-54.307
X17.805 Z-54.274
X17.662 Z-54.241
X17.582 Y21.628
X17.533 Y21.695
Y21.779
X17.582 Y21.846
X17.662 Y21.872
X17.679
X17.822 Z-54.274
X17.953 Z-54.307
X18.087 Z-54.284
X18.088 Z-54.283
G3 X51.705 Z-41.649 I267.479 K-660.673
G1 X56.569 Z-39.978
G3 X79.888 Z-32.502 I231.729 K-682.694
G1 X84.817 Z-31.032
G3 X108.45 Z-24.511 I204.256 K-694.243
G1 X113.435 Z-23.244
G3 X142.107 Z-16.686 I175.957 K-703.323
G1 X147.146 Z-15.659
G3 X176.07 Z-10.479 I142.169 K-710.546
G1 X181.153 Z-9.692
G3 X432.044 Z-16.081 I107.428 K-710.787
X559.091 Z-54.272 I-143.281 K-707.064
G1 Z-54.274
X559.225 Z-54.297
X559.356 Z-54.264
X559.499 Z-54.231
X559.578 Y21.898
X559.627 Y21.965
Y22.049
X559.578 Y22.116
X559.499 Y22.142
X559.48
X559.337 Z-54.264
X559.206 Z-54.297
X559.073 Z-54.274
G2 X310.408 Z-1.946 I-271.028 K-670.94
X186.038 Z-8.976 I-21.705 K-719.619
G1 X180.95 Z-9.728
G2 X151.991 Z-14.71 I108.34 K-716.291
G1 X146.945 Z-15.704
G2 X123.019 Z-20.92 I142.422 K-710.728
G1 X118.017 Z-22.119
G2 X94.325 Z-28.309 I171.141 K-703.45
G1 X89.376 Z-29.712
G2 X65.958 Z-36.868 I199.202 K-693.816
G1 X61.071 Z-38.472
G2 X18.106 Z-54.282 I225.694 K-679.659
G1 X17.973 Z-54.306
X17.841 Z-54.273
X17.698 Z-54.24
X17.619 Y22.168
X17.57 Y22.235
Y22.319
X17.619 Y22.386
X17.698 Y22.412
X17.715
X17.859 Z-54.273
X17.99 Z-54.306
X18.123 Z-54.283
X18.124 Z-54.282
G3 X61.074 Z-38.477 I268.237 K-662.666
G1 X65.961 Z-36.873
G3 X89.38 Z-29.716 I222.618 K-686.616
G1 X94.328 Z-28.314
G3 X118.02 Z-22.123 I194.831 K-697.221
G1 X123.022 Z-20.924
G3 X146.948 Z-15.708 I166.345 K-705.469
G1 X151.994 Z-14.714
G3 X180.952 Z-9.731 I137.294 K-711.26
G1 X186.041 Z-8.979
G3 X432.09 Z-16.1 I102.541 K-711.376
X559.055 Z-54.272 I-143.317 K-706.921
G1 X559.056 Z-54.274
X559.189 Z-54.298
X559.32 Z-54.265
X559.463 Z-54.232
X559.543 Y22.438
X559.592 Y22.505
Y22.589
X559.543 Y22.656
X559.463 Y22.682
X559.444
X559.301 Z-54.265
X559.17 Z-54.298
X559.037 Z-54.274
G2 X310.319 Z-1.95 I-270.995 K-670.853
X186.056 Z-8.981 I-21.617 K-719.544
G1 X180.968 Z-9.733
G2 X156.821 Z-13.803 I108.311 K-716.148
G1 X151.768 Z-14.763
G2 X118.247 Z-22.072 I137.611 K-711.636
G1 X113.254 Z-23.305
G2 X84.873 Z-31.031 I175.844 K-701.937
G1 X79.945 Z-32.501
G2 X56.599 Z-39.985 I208.417 K-690.235
G1 X51.735 Z-41.657
G2 X18.142 Z-54.281 I234.391 K-674.706
G1 X18.009 Z-54.305
X17.878 Z-54.272
X17.735 Z-54.239
X17.655 Y22.708
X17.606 Y22.775
Y22.859
X17.655 Y22.926
X17.735 Y22.952
X17.752
X17.895 Z-54.272
X18.026 Z-54.305
X18.16 Z-54.282
X18.161 Z-54.281
G3 X51.75 Z-41.658 I267.441 K-660.601
G1 X56.614 Z-39.986
G3 X79.96 Z-32.502 I231.751 K-682.717
G1 X84.888 Z-31.032
G3 X113.241 Z-23.313 I204.157 K-693.986
G1 X118.234 Z-22.08
G3 X142.124 Z-16.7 I171.12 K-704.172
G1 X147.163 Z-15.672
G3 X176.087 Z-10.492 I142.146 K-710.343
G1 X181.17 Z-9.706
G3 X432.109 Z-16.113 I107.407 K-710.592
X559.02 Z-54.273 I-143.341 K-706.829
G1 Z-54.275
X559.153 Z-54.299
X559.284 Z-54.266
X559.427 Z-54.233
X559.507 Y22.978
X559.556 Y23.045
Y23.129
X559.507 Y23.196
X559.427 Y23.222
X559.409
X559.266 Z-54.266
X559.134 Z-54.299
X559.001 Z-54.275
G2 X310.34 Z-1.958 I-270.96 K-670.761
X181.178 Z-9.708 I-21.643 K-719.44
G1 X176.096 Z-10.495
G2 X151.977 Z-14.73 I113.202 K-715.409
G1 X146.931 Z-15.724
G2 X113.46 Z-23.262 I142.432 K-710.514
G1 X108.475 Z-24.529
G2 X84.87 Z-31.042 I180.529 K-700.298
G1 X79.941 Z-32.513
G2 X56.622 Z-39.989 I208.358 K-689.948
G1 X51.758 Z-41.661
G2 X18.179 Z-54.28 I234.376 K-674.64
G1 X18.046 Z-54.304
X17.914 Z-54.271
X17.771 Z-54.238
X17.692 Y23.248
X17.643 Y23.315
Y23.399
X17.692 Y23.466
X17.771 Y23.492
X17.788
X17.932 Z-54.271
X18.063 Z-54.304
X18.196 Z-54.281
X18.197
G3 X70.541 Z-35.427 I268.593 K-663.624
G1 X75.45 Z-33.89
G3 X108.46 Z-24.538 I213.482 K-690.617
G1 X113.445 Z-23.271
G3 X137.297 Z-17.728 I175.88 K-702.768
G1 X142.329 Z-16.666
G3 X176.08 Z-10.501 I147.009 K-709.417
G1 X181.162 Z-9.715
G3 X432.1 Z-16.121 I107.413 K-710.496
X558.984 Z-54.274 I-143.333 K-706.731
G1 Z-54.276
X559.117 Z-54.299
X559.249 Z-54.266
X559.392 Z-54.233
X559.471 Y23.518
X559.52 Y23.585
Y23.669
X559.471 Y23.736
X559.392 Y23.762
X559.373
X559.23 Z-54.266
X559.099 Z-54.299
X558.965 Z-54.276
G2 X310.331 Z-1.965 I-270.926 K-670.673
X181.17 Z-9.717 I-21.636 K-719.338
G1 X176.088 Z-10.504
G2 X142.337 Z-16.668 I113.25 K-715.534
G1 X137.305 Z-17.731
G2 X113.453 Z-23.274 I152.021 K-708.267
G1 X108.468 Z-24.541
G2 X75.458 Z-33.893 I180.462 K-699.916
G1 X70.55 Z-35.43
G2 X18.215 Z-54.279 I216.524 K-683.259
G1 X18.082 Z-54.303
X17.951 Z-54.271
X17.808 Z-54.237
X17.728 Y23.788
X17.679 Y23.855
Y23.939
X17.728 Y24.006
X17.808 Y24.032
X17.825
X17.968 Z-54.271
X18.099 Z-54.304
X18.233 Z-54.28
X18.234
G3 X51.787 Z-41.669 I267.386 K-660.484
G1 X56.651 Z-39.997
G3 X79.97 Z-32.52 I231.636 K-682.302
G1 X84.898 Z-31.05
G3 X108.504 Z-24.536 I204.103 K-693.638
G1 X113.489 Z-23.269
G3 X142.133 Z-16.716 I175.85 K-702.747
G1 X147.173 Z-15.688
G3 X176.096 Z-10.507 I142.134 K-710.145
G1 X181.179 Z-9.72
G3 X432.118 Z-16.134 I107.394 K-710.407
X558.948 Z-54.275 I-143.354 K-706.633
G1 Z-54.277
X559.082 Z-54.3
X559.213 Z-54.267
X559.356 Z-54.234
X559.435 Y24.058
X559.484 Y24.125
Y24.209
X559.435 Y24.276
X559.356 Y24.302
X559.337
X559.194 Z-54.267
X559.063 Z-54.3
X558.929 Z-54.277
G2 X306.198 Z-1.857 I-270.883 K-670.551
X224.809 Z-4.484 I-17.437 K-721.804
X181.19 Z-9.722 I64.74 K-723.383
G1 X176.107 Z-10.509
G2 X147.183 Z-15.69 I113.197 K-715.273
G1 X142.144 Z-16.718
G2 X113.5 Z-23.271 I147.195 K-709.254
G1 X108.515 Z-24.538
G2 X80.188 Z-32.459 I180.492 K-700.116
G1 X75.27 Z-33.963
G2 X52.003 Z-41.599 I212.846 K-687.763
G1 X47.15 Z-43.304
G2 X18.252 Z-54.279 I238.893 K-672.593
G1 X18.119 Z-54.302
X17.987 Z-54.27
X17.844 Z-54.237
X17.765 Y24.328
X17.716 Y24.395
Y24.479
X17.765 Y24.546
X17.844 Y24.572
X17.861
X18.005 Z-54.27
X18.136 Z-54.303
X18.269 Z-54.279
X18.27
G3 X51.804 Z-41.675 I267.375 K-660.472
G1 X56.668 Z-40.003
G3 X79.986 Z-32.526 I231.619 K-682.21
G1 X84.915 Z-31.056
G3 X108.521 Z-24.542 I204.082 K-693.535
G1 X113.506 Z-23.275
G3 X142.15 Z-16.721 I175.831 K-702.647
G1 X147.189 Z-15.693
G3 X180.953 Z-9.763 I142.104 K-709.99
G1 X186.041 Z-9.011
G3 X432.082 Z-16.136 I102.533 K-710.994
X558.912 Z-54.276 I-143.313 K-706.522
G1 X558.913 Z-54.278
X559.046 Z-54.301
X559.177 Z-54.268
X559.32 Z-54.235
X559.399 Y24.598
X559.449 Y24.665
Y24.749
X559.399 Y24.816
X559.32 Y24.842
X559.301
X559.158 Z-54.268
X559.027 Z-54.301
X558.894 Z-54.278
G2 X306.161 Z-1.863 I-270.85 K-670.467
X228.725 Z-4.153 I-17.392 K-722.282
X181.178 Z-9.732 I60.671 K-722.503
G1 X176.095 Z-10.519
G2 X142.345 Z-16.684 I113.238 K-715.335
G1 X137.312 Z-17.747
G2 X103.948 Z-25.741 I151.997 K-708.001
G1 X98.98 Z-27.076
G2 X75.466 Z-33.912 I189.82 K-696.775
G1 X70.558 Z-35.45
G2 X18.288 Z-54.277 I216.551 K-683.176
G1 X18.155 Z-54.301
X18.024 Z-54.269
X17.881 Z-54.236
X17.801 Y24.868
X17.752 Y24.935
Y25.019
X17.801 Y25.086
X17.881 Y25.112
X17.898
X18.041 Z-54.269
X18.172 Z-54.302
X18.306 Z-54.278
X18.307
G3 X70.564 Z-35.454 I268.501 K-663.429
G1 X75.473 Z-33.916
G3 X98.987 Z-27.079 I213.324 K-689.88
G1 X103.954 Z-25.744
G3 X137.319 Z-17.75 I185.354 K-699.96
G1 X142.351 Z-16.687
G3 X176.101 Z-10.522 I146.982 K-709.124
G1 X181.184 Z-9.735
G3 X431.778 Z-16.083 I107.386 K-710.216
X558.876 Z-54.276 I-143.034 K-706.562
G1 X558.877 Z-54.279
X559.01 Z-54.302
X559.141 Z-54.269
X559.284 Z-54.236
X559.364 Y25.138
X559.413 Y25.205
Y25.289
X559.364 Y25.356
X559.284 Y25.382
X559.265
X559.122 Z-54.269
X558.991 Z-54.302
X558.858 Z-54.279
G2 X306.259 Z-1.873 I-270.817 K-670.381
X224.653 Z-4.513 I-17.498 K-721.601
X181.195 Z-9.737 I64.822 K-722.629
G1 X176.112 Z-10.524
G2 X147.189 Z-15.706 I113.19 K-715.086
G1 X142.149 Z-16.734
G2 X108.731 Z-24.502 I147.19 K-709.061
G1 X103.755 Z-25.803
G2 X75.51 Z-33.91 I185.097 K-698.141
G1 X70.602 Z-35.447
G2 X18.325 Z-54.276 I216.507 K-683.095
G1 X18.192 Z-54.3
X18.06 Z-54.268
X17.917 Z-54.235
X17.838 Y25.408
X17.789 Y25.475
Y25.559
X17.838 Y25.626
X17.917 Y25.652
X17.935
X18.078 Z-54.268
X18.209 Z-54.301
X18.342 Z-54.277
X18.343
G3 X70.613 Z-35.449 I268.453 K-663.311
G1 X75.521 Z-33.912
G3 X103.765 Z-25.805 I213.329 K-689.982
G1 X108.741 Z-24.504
G3 X137.34 Z-17.754 I180.561 K-701.104
G1 X142.372 Z-16.692
G3 X176.095 Z-10.531 I146.942 K-708.949
G1 X181.178 Z-9.744
G3 X432.01 Z-16.14 I107.39 K-710.112
X558.841 Z-54.277 I-143.251 K-706.364
G1 Z-54.279
X558.974 Z-54.303
X559.106 Z-54.27
X559.249 Z-54.237
X559.328 Y25.678
X559.377 Y25.745
Y25.829
X559.328 Y25.896
X559.249 Y25.922
X559.23
X559.087 Z-54.27
X558.955 Z-54.303
X558.822 Z-54.279
G2 X306.223 Z-1.879 I-270.783 K-670.293
X224.835 Z-4.504 I-17.461 K-721.694
X181.188 Z-9.746 I64.715 K-723.13
G1 X176.105 Z-10.533
G2 X142.382 Z-16.694 I113.209 K-715.066
G1 X137.35 Z-17.756
G2 X108.751 Z-24.506 I151.951 K-707.806
G1 X103.775 Z-25.807
G2 X75.531 Z-33.914 I185.073 K-698.038
G1 X70.623 Z-35.452
G2 X18.361 Z-54.276 I216.487 K-683.008
G1 X18.228 Z-54.3
X18.097 Z-54.267
X17.954 Z-54.234
X17.874 Y25.948
X17.825 Y26.015
Y26.099
X17.874 Y26.166
X17.954 Y26.192
X17.971
X18.114 Z-54.267
X18.245 Z-54.3
X18.379 Z-54.277
X18.38 Z-54.276
G3 X61.24 Z-38.503 I268.029 K-662.211
G1 X66.127 Z-36.899
G3 X99.006 Z-27.094 I222.578 K-686.399
G1 X103.973 Z-25.759
G3 X137.337 Z-17.764 I185.331 K-699.758
G1 X142.37 Z-16.701
G3 X171.257 Z-11.322 I146.962 K-708.944
G1 X176.334 Z-10.5
G3 X434.627 Z-16.687 I112.23 K-709.357
X558.805 Z-54.278 I-145.794 K-705.502
G1 Z-54.28
X558.939 Z-54.303
X559.07 Z-54.271
X559.213 Z-54.237
X559.292 Y26.218
X559.341 Y26.285
Y26.369
X559.292 Y26.436
X559.213 Y26.462
X559.194
X559.051 Z-54.271
X558.92 Z-54.303
X558.786 Z-54.28
G2 X310.337 Z-2.001 I-270.757 K-670.234
X181.19 Z-9.754 I-21.651 K-718.872
G1 X176.108 Z-10.541
G2 X142.385 Z-16.702 I113.204 K-714.964
G1 X137.353 Z-17.765
G2 X108.754 Z-24.515 I151.945 K-707.699
G1 X103.778 Z-25.816
G2 X70.833 Z-35.396 I185.04 K-697.827
G1 X65.936 Z-36.967
G2 X18.398 Z-54.275 I220.958 K-680.818
G1 X18.265 Z-54.299
X18.133 Z-54.266
X17.99 Z-54.233
X17.911 Y26.488
X17.862 Y26.555
Y26.639
X17.911 Y26.706
X17.99 Y26.732
X18.008
X18.151 Z-54.266
X18.282 Z-54.299
X18.415 Z-54.276
X18.416 Z-54.275
G3 X65.945 Z-36.97 I268.191 K-662.648
G1 X70.843 Z-35.398
G3 X103.788 Z-25.819 I217.972 K-688.191
G1 X108.764 Z-24.517
G3 X137.362 Z-17.767 I180.534 K-700.906
G1 X142.395 Z-16.704
G3 X176.117 Z-10.543 I146.917 K-708.76
G1 X181.2 Z-9.756
G3 X431.938 Z-16.144 I107.364 K-709.933
X558.769 Z-54.279 I-143.186 K-706.198
G1 Z-54.281
X558.903 Z-54.304
X559.034 Z-54.271
X559.177 Z-54.238
X559.256 Y26.758
X559.305 Y26.825
Y26.909
X559.256 Y26.976
X559.177 Y27.002
X559.158
X559.015 Z-54.271
X558.884 Z-54.304
X558.751 Z-54.281
G2 X310.266 Z-2.006 I-270.722 K-670.144
X190.9 Z-8.362 I-21.582 K-718.682
G1 X185.863 Z-9.072
G2 X152.06 Z-14.774 I103.393 K-716.035
G1 X147.013 Z-15.768
G2 X113.543 Z-23.308 I142.334 K-709.823
G1 X108.558 Z-24.576
G2 X80.26 Z-32.491 I180.385 K-699.438
G1 X75.341 Z-33.996
G2 X18.434 Z-54.274 I211.909 K-684.678
G1 X18.301 Z-54.298
X18.17 Z-54.265
X18.027 Z-54.232
X17.947 Y27.028
X17.898 Y27.095
Y27.179
X17.947 Y27.246
X18.027 Y27.272
X18.044
X18.187 Z-54.265
X18.318 Z-54.298
X18.452 Z-54.275
X18.453
G3 X70.643 Z-35.474 I268.359 K-663.106
G1 X75.551 Z-33.936
G3 X103.795 Z-25.827 I213.292 K-689.681
G1 X108.771 Z-24.525
G3 X142.189 Z-16.757 I180.559 K-700.941
G1 X147.228 Z-15.728
G3 X176.124 Z-10.55 I142.019 K-709.307
G1 X181.207 Z-9.763
G3 X431.902 Z-16.146 I107.355 K-709.838
X558.733 Z-54.28 I-143.151 K-706.105
G1 X558.734 Z-54.282
X558.867 Z-54.305
X558.998 Z-54.272
X559.141 Z-54.239
X559.221 Y27.298
X559.27 Y27.365
Y27.449
X559.221 Y27.516
X559.141 Y27.542
X559.122
X558.979 Z-54.272
X558.848 Z-54.305
X558.715 Z-54.282
G2 X310.364 Z-2.016 I-270.69 K-670.059
X176.359 Z-10.516 I-21.678 K-718.783
G1 X171.282 Z-11.338
G2 X147.221 Z-15.734 I118.019 K-713.959
G1 X142.181 Z-16.763
G2 X108.791 Z-24.525 I147.127 K-708.58
G1 X103.815 Z-25.826
G2 X75.571 Z-33.935 I185.028 K-697.747
G1 X70.663 Z-35.473
G2 X18.471 Z-54.273 I216.422 K-682.665
G1 X18.338 Z-54.297
X18.206 Z-54.265
X18.063 Z-54.231
X17.984 Y27.568
X17.935 Y27.635
Y27.719
X17.984 Y27.786
X18.063 Y27.812
X18.081
X18.224 Z-54.265
X18.355 Z-54.298
X18.488 Z-54.274
X18.489
G3 X65.979 Z-36.982 I268.117 K-662.478
G1 X70.877 Z-35.41
G3 X103.821 Z-25.83 I217.932 K-687.991
G1 X108.797 Z-24.528
G3 X142.188 Z-16.766 I180.511 K-700.769
G1 X147.2 Z-15.743
G3 X176.123 Z-10.558 I142.094 K-709.464
G1 X181.206 Z-9.771
G3 X431.866 Z-16.148 I107.355 K-709.74
X558.698 Z-54.281 I-143.118 K-706.019
G1 Z-54.283
X558.831 Z-54.306
X558.962 Z-54.273
X559.105 Z-54.24
X559.185 Y27.838
X559.234 Y27.905
Y27.989
X559.185 Y28.056
X559.105 Y28.082
X559.087
X558.944 Z-54.273
X558.812 Z-54.306
X558.679 Z-54.283
G2 X310.327 Z-2.022 I-270.656 K-669.972
X176.357 Z-10.525 I-21.642 K-718.707
G1 X171.28 Z-11.346
G2 X137.573 Z-17.744 I118.066 K-714.088
G1 X132.575 Z-18.835
G2 X104.023 Z-25.781 I156.684 K-706.216
G1 X99.056 Z-27.116
G2 X70.868 Z-35.418 I189.676 K-695.992
G1 X65.971 Z-36.99
G2 X18.507 Z-54.272 I220.98 K-680.707
G1 X18.374 Z-54.296
X18.243 Z-54.264
X18.1 Z-54.231
X18.02 Y28.108
X17.971 Y28.175
Y28.259
X18.02 Y28.326
X18.1 Y28.352
X18.117
X18.26 Z-54.264
X18.391 Z-54.297
X18.525 Z-54.273
X18.526
G3 X65.979 Z-36.993 I268.077 K-662.388
G1 X70.877 Z-35.421
G3 X99.064 Z-27.119 I217.854 K-687.637
G1 X104.031 Z-25.783
G3 X132.583 Z-18.837 I185.214 K-699.172
G1 X137.608 Z-17.74
G3 X171.288 Z-11.349 I151.718 K-707.561
G1 X176.365 Z-10.527
G3 X431.83 Z-16.15 I112.19 K-708.95
X558.662 Z-54.281 I-143.108 K-706.006
G1 Z-54.283
X558.795 Z-54.307
X558.927 Z-54.274
X559.07 Z-54.241
X559.149 Y28.378
X559.198 Y28.445
Y28.529
X559.149 Y28.596
X559.07 Y28.622
X559.051
X558.908 Z-54.274
X558.777 Z-54.307
X558.643 Z-54.283
G2 X310.319 Z-2.029 I-270.622 K-669.883
X176.348 Z-10.534 I-21.635 K-718.6
G1 X171.271 Z-11.356
G2 X137.592 Z-17.748 I118.055 K-713.905
G1 X132.567 Z-18.845
G2 X104.043 Z-25.785 I156.689 K-706.122
G1 X99.076 Z-27.121
G2 X66.197 Z-36.927 I189.616 K-695.752
G1 X61.311 Z-38.532
G2 X18.544 Z-54.272 I225.423 K-678.499
G1 X18.411 Z-54.295
X18.279 Z-54.263
X18.136 Z-54.23
X18.057 Y28.648
X18.008 Y28.715
Y28.799
X18.057 Y28.866
X18.136 Y28.892
X18.153
X18.297 Z-54.263
X18.428 Z-54.296
X18.561 Z-54.272
X18.562
G3 X61.32 Z-38.535 I267.799 K-661.669
G1 X66.206 Z-36.93
G3 X99.084 Z-27.123 I222.488 K-685.908
G1 X104.051 Z-25.788
G3 X132.576 Z-18.848 I185.26 K-699.372
G1 X137.601 Z-17.751
G3 X171.28 Z-11.358 I151.724 K-707.46
G1 X176.357 Z-10.537
G3 X431.794 Z-16.152 I112.196 K-708.849
X558.626 Z-54.282 I-143.072 K-705.91
G1 Z-54.284
X558.76 Z-54.308
X558.891 Z-54.275
X559.034 Z-54.241
X559.113 Y28.918
X559.162 Y28.985
Y29.069
X559.113 Y29.136
X559.034 Y29.162
X559.015
X558.872 Z-54.275
X558.741 Z-54.308
X558.607 Z-54.284
G2 X310.282 Z-2.035 I-270.588 K-669.795
X176.368 Z-10.539 I-21.601 K-718.508
G1 X171.29 Z-11.361
G2 X132.798 Z-18.802 I118.054 K-713.903
G1 X127.781 Z-19.934
G2 X99.304 Z-27.068 I161.494 K-705.029
G1 X94.346 Z-28.437
G2 X61.536 Z-38.469 I194.229 K-693.964
G1 X56.661 Z-40.107
G2 X18.58 Z-54.271 I229.914 K-676.427
G1 X18.447 Z-54.295
X18.316 Z-54.262
X18.173 Z-54.229
X18.093 Y29.188
X18.044 Y29.255
Y29.339
X18.093 Y29.406
X18.173 Y29.432
X18.19
X18.333 Z-54.262
X18.464 Z-54.295
X18.598 Z-54.272
X18.599 Z-54.271
G3 X56.67 Z-40.11 I267.435 K-660.725
G1 X61.545 Z-38.471
G3 X89.616 Z-29.784 I226.939 K-683.6
G1 X94.538 Z-28.388
G3 X127.79 Z-19.936 I194.676 K-696.263
G1 X132.807 Z-18.805
G3 X171.299 Z-11.363 I156.537 K-706.417
G1 X176.377 Z-10.541
G3 X434.596 Z-16.737 I112.177 K-708.796
X558.59 Z-54.283 I-145.772 K-704.924
G1 X558.591 Z-54.285
X558.724 Z-54.308
X558.855 Z-54.275
X558.998 Z-54.242
X559.078 Y29.458
X559.127 Y29.525
Y29.609
X559.078 Y29.676
X558.998 Y29.702
X558.979
X558.836 Z-54.275
X558.705 Z-54.308
X558.572 Z-54.285
G2 X310.272 Z-2.042 I-270.554 K-669.708
X171.523 Z-11.33 I-21.591 K-718.499
G1 X166.452 Z-12.186
G2 X132.816 Z-18.807 I122.881 K-712.944
G1 X127.799 Z-19.939
G2 X89.835 Z-29.726 I161.377 K-704.517
G1 X84.896 Z-31.163
G2 X61.554 Z-38.474 I203.409 K-690.308
G1 X56.679 Z-40.113
G2 X18.617 Z-54.27 I229.778 K-676.023
G1 X18.484 Z-54.294
X18.352 Z-54.261
X18.209 Z-54.228
X18.13 Y29.728
X18.081 Y29.795
Y29.879
X18.13 Y29.946
X18.209 Y29.972
X18.226
X18.37 Z-54.261
X18.501 Z-54.294
X18.634 Z-54.271
X18.635 Z-54.27
G3 X47.384 Z-43.35 I266.648 K-658.697
G1 X52.237 Z-41.645
G3 X80.16 Z-32.582 I235.857 K-679.122
G1 X85.088 Z-31.111
G3 X113.44 Z-23.388 I203.931 K-692.722
G1 X118.433 Z-22.154
G3 X156.738 Z-13.933 I170.904 K-702.953
G1 X161.797 Z-13.007
G3 X381.155 Z-7.73 I126.733 K-706.213
X558.557 Z-54.278 I-93.34 K-717.065
G1 X558.555 Z-54.286
X558.688 Z-54.309
X558.819 Z-54.276
X558.962 Z-54.243
X559.042 Y29.998
X559.091 Y30.065
Y30.149
X559.042 Y30.216
X558.962 Y30.242
X558.943
X558.8 Z-54.276
X558.669 Z-54.309
X558.536 Z-54.286
G2 X310.263 Z-2.049 I-270.52 K-669.618
X176.377 Z-10.553 I-21.587 K-718.312
G1 X171.3 Z-11.375
G2 X132.835 Z-18.812 I118.024 K-713.628
G1 X127.818 Z-19.943
G2 X94.593 Z-28.388 I161.363 K-704.461
G1 X89.645 Z-29.791
G2 X66.254 Z-36.943 I198.94 K-692.505
G1 X61.368 Z-38.548
G2 X18.653 Z-54.269 I225.348 K-678.182
G1 X18.52 Z-54.293
X18.389 Z-54.26
X18.246 Z-54.227
X18.166 Y30.268
X18.117 Y30.335
Y30.419
X18.166 Y30.486
X18.246 Y30.512
X18.263
X18.406 Z-54.26
X18.537 Z-54.293
X18.671 Z-54.27
X18.672 Z-54.269
G3 X56.718 Z-40.118 I267.452 K-660.801
G1 X61.593 Z-38.479
G3 X84.935 Z-31.167 I226.922 K-683.543
G1 X89.873 Z-29.73
G3 X127.81 Z-19.95 I199.274 K-694.498
G1 X132.827 Z-18.818
G3 X171.292 Z-11.381 I156.495 K-706.137
G1 X176.369 Z-10.559
G3 X431.652 Z-16.152 I112.179 K-708.559
X558.519 Z-54.284 I-142.934 K-705.643
G1 Z-54.287
X558.652 Z-54.31
X558.784 Z-54.277
X558.927 Z-54.244
X559.006 Y30.538
X559.055 Y30.605
Y30.689
X559.006 Y30.756
X558.927 Y30.782
X558.908
X558.765 Z-54.277
X558.633 Z-54.31
X558.5 Z-54.287
G2 X310.255 Z-2.056 I-270.487 K-669.533
X152.141 Z-14.817 I-21.561 K-718.749
G1 X147.095 Z-15.812
G2 X113.653 Z-23.348 I142.219 K-709.063
G1 X108.668 Z-24.616
G2 X75.686 Z-33.965 I180.208 K-698.567
G1 X70.778 Z-35.504
G2 X18.69 Z-54.268 I216.302 K-682.116
G1 X18.557 Z-54.292
X18.425 Z-54.259
X18.282 Z-54.226
X18.203 Y30.808
X18.154 Y30.875
Y30.959
X18.203 Y31.026
X18.282 Y31.052
X18.299
X18.443 Z-54.259
X18.574 Z-54.292
X18.707 Z-54.269
X18.708
G3 X52.105 Z-41.715 I266.984 K-659.586
G1 X56.943 Z-40.052
G3 X89.656 Z-29.804 I231.465 K-681.519
G1 X94.605 Z-28.4
G3 X127.829 Z-19.955 I194.573 K-695.865
G1 X132.846 Z-18.823
G3 X171.311 Z-11.386 I156.474 K-706.043
G1 X176.388 Z-10.564
G3 X431.698 Z-16.17 I112.158 K-708.471
X558.483 Z-54.285 I-142.98 K-705.529
G1 Z-54.287
X558.617 Z-54.311
X558.748 Z-54.278
X558.891 Z-54.245
X558.97 Y31.078
X559.019 Y31.145
Y31.229
X558.97 Y31.296
X558.891 Y31.322
X558.872
X558.729 Z-54.278
X558.598 Z-54.311
X558.464 Z-54.287
G2 X310.218 Z-2.062 I-270.452 K-669.442
X161.82 Z-13.024 I-21.535 K-718.423
G1 X156.761 Z-13.95
G2 X118.456 Z-22.172 I132.572 K-710.932
G1 X113.463 Z-23.406
G2 X80.418 Z-32.53 I175.506 K-700.028
G1 X75.5 Z-34.035
G2 X18.726 Z-54.267 I211.701 K-683.823
G1 X18.593 Z-54.291
X18.462 Z-54.259
X18.319 Z-54.225
X18.239 Y31.348
X18.19 Y31.415
Y31.499
X18.239 Y31.566
X18.319 Y31.592
X18.336
X18.479 Z-54.259
X18.61 Z-54.292
X18.744 Z-54.268
X18.745
G3 X75.521 Z-34.034 I268.215 K-662.831
G1 X80.439 Z-32.529
G3 X113.484 Z-23.405 I208.53 K-690.861
G1 X118.477 Z-22.172
G3 X161.599 Z-13.068 I170.852 K-702.649
G1 X166.665 Z-12.177
G3 X437.179 Z-17.316 I121.877 K-706.943
X558.447 Z-54.287 I-148.292 K-703.786
G1 X558.448 Z-54.288
X558.581 Z-54.312
X558.712 Z-54.279
X558.855 Z-54.245
X558.934 Y31.618
X558.983 Y31.685
Y31.769
X558.934 Y31.836
X558.855 Y31.862
X558.836
X558.693 Z-54.279
X558.562 Z-54.312
X558.429 Z-54.288
G2 X310.178 Z-2.068 I-270.418 K-669.354
X181.264 Z-9.821 I-21.507 K-717.978
G1 X176.182 Z-10.609
G2 X137.668 Z-17.785 I113.115 K-714.015
G1 X132.643 Z-18.883
G2 X94.641 Z-28.406 I156.555 K-705.337
G1 X89.693 Z-29.809
G2 X52.32 Z-41.658 I198.657 K-691.434
G1 X47.468 Z-43.364
G2 X18.763 Z-54.267 I238.551 K-671.29
G1 X18.63 Z-54.29
X18.498 Z-54.258
X18.355 Z-54.225
X18.276 Y31.888
X18.227 Y31.955
Y32.039
X18.276 Y32.106
X18.355 Y32.132
X18.372
X18.516 Z-54.258
X18.647 Z-54.291
X18.78 Z-54.267
X18.781
G3 X61.458 Z-38.559 I267.614 K-661.262
G1 X66.344 Z-36.954
G3 X103.952 Z-25.874 I222.393 K-685.524
G1 X108.928 Z-24.572
G3 X151.95 Z-14.876 I180.396 K-700.131
G1 X157.003 Z-13.916
G3 X361.448 Z-5.469 I131.536 K-705.257
X558.414 Z-54.28 I-73.679 K-719.133
G1 X558.412 Z-54.289
X558.545 Z-54.312
X558.676 Z-54.279
X558.819 Z-54.246
X558.899 Y32.158
X558.948 Y32.225
Y32.309
X558.899 Y32.376
X558.819 Y32.402
X558.8
X558.657 Z-54.279
X558.526 Z-54.312
X558.393 Z-54.289
G2 X310.201 Z-2.076 I-270.385 K-669.268
X176.401 Z-10.581 I-21.531 K-717.944
G1 X171.324 Z-11.404
G2 X128.082 Z-19.919 I117.994 K-713.244
G1 X123.072 Z-21.085
G2 X89.906 Z-29.757 I166.044 K-702.732
G1 X84.968 Z-31.195
G2 X52.325 Z-41.668 I203.277 K-689.649
G1 X47.473 Z-43.374
G2 X18.799 Z-54.266 I238.397 K-670.804
G1 X18.666 Z-54.29
X18.535 Z-54.257
X18.392 Z-54.224
X18.312 Y32.428
X18.263 Y32.495
Y32.579
X18.312 Y32.646
X18.392 Y32.672
X18.409
X18.552 Z-54.257
X18.683 Z-54.29
X18.817 Z-54.266
X18.818
G3 X75.565 Z-34.042 I268.144 K-662.67
G1 X80.483 Z-32.537
G3 X118.283 Z-22.238 I208.52 K-690.806
G1 X123.284 Z-21.038
G3 X166.467 Z-12.228 I166.041 K-703.606
G1 X171.539 Z-11.371
G3 X434.456 Z-16.765 I117 K-707.483
X558.376 Z-54.288 I-145.656 K-704.414
G1 Z-54.29
X558.509 Z-54.313
X558.641 Z-54.28
X558.784 Z-54.247
X558.863 Y32.698
X558.912 Y32.765
Y32.849
X558.863 Y32.916
X558.784 Y32.942
X558.765
X558.622 Z-54.28
X558.49 Z-54.313
X558.357 Z-54.29
G2 X310.131 Z-2.081 I-270.35 K-669.177
X161.846 Z-13.044 I-21.454 K-718.139
G1 X156.786 Z-13.97
G2 X113.727 Z-23.368 I132.532 K-710.593
G1 X108.743 Z-24.636
G2 X75.761 Z-33.986 I180.126 K-698.187
G1 X70.853 Z-35.525
G2 X18.836 Z-54.265 I216.26 K-681.85
G1 X18.703 Z-54.288
X18.571 Z-54.256
X18.428 Z-54.223
X18.349 Y32.968
X18.3 Y33.035
Y33.119
X18.349 Y33.186
X18.428 Y33.212
X18.445
X18.588 Z-54.256
X18.72 Z-54.289
X18.853 Z-54.266
X18.854 Z-54.265
G3 X61.494 Z-38.57 I267.535 K-661.078
G1 X66.38 Z-36.965
G3 X99.231 Z-27.164 I222.272 K-685.069
G1 X104.198 Z-25.828
G3 X147.125 Z-15.844 I185.083 K-698.524
G1 X152.171 Z-14.85
G3 X347.1 Z-4.161 I136.388 K-704.501
X558.343 Z-54.282 I-59.305 K-720.169
G1 X558.34 Z-54.291
X558.473 Z-54.314
X558.605 Z-54.281
X558.748 Z-54.248
X558.827 Y33.238
X558.876 Y33.305
Y33.389
X558.827 Y33.456
X558.748 Y33.482
X558.729
X558.586 Z-54.281
X558.455 Z-54.314
X558.321 Z-54.291
G2 X310.153 Z-2.089 I-270.318 K-669.095
X152.171 Z-14.854 I-21.469 K-718.275
G1 X147.125 Z-15.849
G2 X104.198 Z-25.833 I142.155 K-708.457
G1 X99.231 Z-27.169
G2 X61.727 Z-38.498 I189.361 K-694.616
G1 X56.852 Z-40.137
G2 X18.872 Z-54.264 I229.718 K-675.71
G1 X18.739 Z-54.288
X18.608 Z-54.255
X18.465 Z-54.222
X18.385 Y33.508
X18.336 Y33.575
Y33.659
X18.385 Y33.726
X18.465 Y33.752
X18.482
X18.625 Z-54.255
X18.756 Z-54.288
X18.89 Z-54.265
X18.891 Z-54.264
G3 X47.514 Z-43.391 I266.409 K-658.167
G1 X52.366 Z-41.685
G3 X80.315 Z-32.611 I235.799 K-678.702
G1 X85.243 Z-31.139
G3 X127.882 Z-19.988 I203.86 K-692.407
G1 X132.899 Z-18.856
G3 X176.198 Z-10.634 I156.397 K-705.482
G1 X181.281 Z-9.847
G3 X431.545 Z-16.187 I107.259 K-708.708
X558.304 Z-54.289 I-142.829 K-705.057
G1 Z-54.291
X558.438 Z-54.315
X558.569 Z-54.282
X558.712 Z-54.249
X558.791 Y33.778
X558.84 Y33.845
Y33.929
X558.791 Y33.996
X558.712 Y34.022
X558.693
X558.55 Z-54.282
X558.419 Z-54.315
X558.286 Z-54.291
G2 X310.113 Z-2.095 I-270.283 K-669.004
X171.558 Z-11.388 I-21.446 K-717.756
G1 X166.487 Z-12.245
G2 X123.304 Z-21.057 I122.832 K-712.162
G1 X118.303 Z-22.257
G2 X75.82 Z-33.99 I170.651 K-700.69
G1 X70.912 Z-35.528
G2 X18.909 Z-54.263 I216.195 K-681.657
G1 X18.776 Z-54.287
X18.644 Z-54.254
X18.501 Z-54.221
X18.422 Y34.048
X18.373 Y34.115
Y34.199
X18.422 Y34.266
X18.501 Y34.292
X18.518
X18.661 Z-54.254
X18.793 Z-54.287
X18.926 Z-54.264
X18.927 Z-54.263
G3 X47.559 Z-43.387 I266.451 K-658.286
G1 X52.411 Z-41.681
G3 X89.756 Z-29.838 I235.901 K-679.069
G1 X94.704 Z-28.434
G3 X132.706 Z-18.909 I194.484 K-695.369
G1 X137.73 Z-17.812
G3 X185.929 Z-9.168 I151.531 K-706.263
G1 X191.022 Z-8.45
G3 X431.509 Z-16.189 I97.52 K-709.952
X558.268 Z-54.29 I-142.775 K-704.906
G1 X558.269 Z-54.292
X558.402 Z-54.316
X558.533 Z-54.283
X558.676 Z-54.25
X558.756 Y34.318
X558.805 Y34.385
Y34.469
X558.756 Y34.536
X558.676 Y34.562
X558.657
X558.514 Z-54.283
X558.383 Z-54.316
X558.25 Z-54.292
G2 X310.138 Z-2.103 I-270.248 K-668.912
X181.277 Z-9.859 I-21.479 K-717.476
G1 X176.194 Z-10.647
G2 X128.118 Z-19.947 I113.104 K-713.576
G1 X123.108 Z-21.113
G2 X80.547 Z-32.556 I165.925 K-702.045
G1 X75.628 Z-34.061
G2 X18.945 Z-54.262 I211.641 K-683.482
G1 X18.812 Z-54.286
X18.681 Z-54.253
X18.538 Z-54.22
X18.458 Y34.588
X18.409 Y34.655
Y34.739
X18.458 Y34.806
X18.538 Y34.832
X18.555
X18.698 Z-54.253
X18.829 Z-54.286
X18.963 Z-54.263
X18.964
G3 X47.58 Z-43.392 I266.43 K-658.242
G1 X52.432 Z-41.686
G3 X89.777 Z-29.842 I235.878 K-678.974
G1 X94.725 Z-28.438
G3 X137.511 Z-17.868 I194.482 K-695.352
G1 X142.544 Z-16.805
G3 X190.8 Z-8.489 I146.687 K-707.017
G1 X195.897 Z-7.805
G3 X431.528 Z-16.202 I92.645 K-710.495
X558.232 Z-54.291 I-142.79 K-704.787
G1 X558.233 Z-54.293
X558.366 Z-54.316
X558.497 Z-54.283
X558.64 Z-54.25
X558.72 Y34.858
X558.769 Y34.925
Y35.009
X558.72 Y35.076
X558.64 Y35.102
X558.622
X558.479 Z-54.283
X558.347 Z-54.316
X558.214 Z-54.293
G2 X310.129 Z-2.11 I-270.214 K-668.822
X191.02 Z-8.461 I-21.474 K-717.27
G1 X185.927 Z-9.18
G2 X137.729 Z-17.825 I103.331 K-714.755
G1 X132.704 Z-18.923
G2 X89.991 Z-29.785 I156.453 K-704.628
G1 X85.052 Z-31.223
G2 X18.982 Z-54.261 I202.445 K-686.861
G1 X18.849 Z-54.285
X18.717 Z-54.253
X18.574 Z-54.219
X18.495 Y35.128
X18.446 Y35.195
Y35.279
X18.495 Y35.346
X18.574 Y35.372
X18.591
X18.734 Z-54.253
X18.866 Z-54.286
X18.999 Z-54.262
X19
G3 X66.246 Z-37.055 I267.605 K-661.311
G1 X71.144 Z-35.482
G3 X108.798 Z-24.665 I217.666 K-686.746
G1 X113.783 Z-23.397
G3 X161.659 Z-13.116 I175.526 K-700.754
G1 X166.724 Z-12.224
G3 X434.089 Z-16.736 I121.802 K-706.246
X558.197 Z-54.292 I-145.339 K-704.132
G1 Z-54.294
X558.33 Z-54.317
X558.462 Z-54.284
X558.605 Z-54.251
X558.684 Y35.398
X558.733 Y35.465
Y35.549
X558.684 Y35.616
X558.605 Y35.642
X558.586
X558.443 Z-54.284
X558.311 Z-54.317
X558.178 Z-54.294
G2 X310.205 Z-2.119 I-270.181 K-668.738
X142.569 Z-16.812 I-21.518 K-718.125
G1 X137.537 Z-17.876
G2 X94.751 Z-28.447 I151.666 K-705.776
G1 X89.802 Z-29.851
G2 X52.458 Z-41.695 I198.506 K-690.675
G1 X47.606 Z-43.401
G2 X19.018 Z-54.261 I238.476 K-670.835
G1 X18.885 Z-54.284
X18.754 Z-54.252
X18.611 Z-54.219
X18.531 Y35.668
X18.482 Y35.735
Y35.819
X18.531 Y35.886
X18.611 Y35.912
X18.628
X18.771 Z-54.252
X18.902 Z-54.285
X19.036 Z-54.261
X19.037
G3 X66.267 Z-37.059 I267.556 K-661.193
G1 X71.164 Z-35.487
G3 X113.565 Z-23.462 I217.691 K-686.813
G1 X118.558 Z-22.227
G3 X166.503 Z-12.271 I170.751 K-701.844
G1 X171.575 Z-11.414
G3 X434.35 Z-16.8 I116.953 K-706.914
X558.161 Z-54.293 I-145.564 K-703.865
G1 Z-54.295
X558.295 Z-54.318
X558.426 Z-54.285
X558.569 Z-54.252
X558.648 Y35.938
X558.697 Y36.005
Y36.089
X558.648 Y36.156
X558.569 Y36.182
X558.55
X558.407 Z-54.285
X558.276 Z-54.318
X558.142 Z-54.295
G2 X310.08 Z-2.123 I-270.146 K-668.643
X166.725 Z-12.236 I-21.419 K-717.45
G1 X161.66 Z-13.128
G2 X109.037 Z-24.617 I127.639 K-710.85
G1 X104.061 Z-25.92
G2 X61.828 Z-38.523 I184.579 K-695.597
G1 X56.953 Z-40.162
G2 X19.055 Z-54.26 I229.542 K-675.057
G1 X18.922 Z-54.284
X18.79 Z-54.251
X18.647 Z-54.218
X18.568 Y36.208
X18.519 Y36.275
Y36.359
X18.568 Y36.426
X18.647 Y36.452
X18.664
X18.807 Z-54.251
X18.939 Z-54.284
X19.072 Z-54.26
X19.073
G3 X70.977 Z-35.558 I267.764 K-661.763
G1 X75.885 Z-34.019
G3 X118.367 Z-22.284 I213.06 K-688.518
G1 X123.368 Z-21.084
G3 X176.215 Z-10.672 I165.926 K-702.841
G1 X181.297 Z-9.884
G3 X431.447 Z-16.214 I107.233 K-708.229
X558.125 Z-54.293 I-142.736 K-704.579
G1 X558.126 Z-54.296
X558.259 Z-54.319
X558.39 Z-54.286
X558.533 Z-54.253
X558.612 Y36.478
X558.661 Y36.545
Y36.629
X558.612 Y36.696
X558.533 Y36.722
X558.514
X558.371 Z-54.286
X558.24 Z-54.319
X558.107 Z-54.296
G2 X305.94 Z-2.016 I-270.102 K-668.521
X220.647 Z-5.037 I-17.226 K-719.124
X166.745 Z-12.241 I68.736 K-719.575
G1 X161.679 Z-13.133
G2 X113.803 Z-23.416 I127.625 K-710.792
G1 X108.819 Z-24.684
G2 X61.848 Z-38.528 I179.875 K-696.92
G1 X56.973 Z-40.167
G2 X19.091 Z-54.259 I229.526 K-674.978
G1 X18.958 Z-54.283
X18.827 Z-54.25
X18.684 Z-54.217
X18.604 Y36.748
X18.555 Y36.815
Y36.899
X18.604 Y36.966
X18.684 Y36.992
X18.701
X18.844 Z-54.25
X18.975 Z-54.283
X19.109 Z-54.26
X19.11 Z-54.259
G3 X56.977 Z-40.172 I267.016 K-659.804
G1 X61.853 Z-38.532
G3 X108.823 Z-24.688 I226.84 K-683.028
G1 X113.808 Z-23.419
G3 X161.684 Z-13.136 I175.495 K-700.454
G1 X166.749 Z-12.244
G3 X436.796 Z-17.331 I121.773 K-705.996
X558.089 Z-54.295 I-147.952 K-702.977
G1 X558.09 Z-54.296
X558.223 Z-54.32
X558.354 Z-54.287
X558.497 Z-54.254
X558.577 Y37.018
X558.626 Y37.085
Y37.169
X558.577 Y37.236
X558.497 Y37.262
X558.478
X558.335 Z-54.287
X558.204 Z-54.32
X558.071 Z-54.296
G2 X310.124 Z-2.138 I-270.08 K-668.475
X171.595 Z-11.431 I-21.468 K-717.175
G1 X166.523 Z-12.288
G2 X113.824 Z-23.42 I122.777 K-711.535
G1 X108.839 Z-24.689
G2 X61.869 Z-38.532 I179.853 K-696.827
G1 X56.994 Z-40.172
G2 X19.128 Z-54.258 I229.507 K-674.893
G1 X18.995 Z-54.282
X18.863 Z-54.249
X18.72 Z-54.216
X18.641 Y37.288
X18.592 Y37.355
Y37.439
X18.641 Y37.506
X18.72 Y37.532
X18.737
X18.88 Z-54.249
X19.012 Z-54.282
X19.145 Z-54.259
X19.146 Z-54.258
G3 X52.341 Z-41.778 I266.626 K-658.804
G1 X57.205 Z-40.105
G3 X104.08 Z-25.94 I231.365 K-680.956
G1 X109.056 Z-24.637
G3 X161.678 Z-13.145 I180.238 K-699.112
G1 X166.743 Z-12.253
G3 X434.139 Z-16.784 I121.776 K-705.863
X558.054 Z-54.295 I-145.384 K-703.694
G1 Z-54.297
X558.187 Z-54.321
X558.319 Z-54.288
X558.462 Z-54.254
X558.541 Y37.558
X558.59 Y37.625
Y37.709
X558.541 Y37.776
X558.462 Y37.802
X558.443
X558.3 Z-54.288
X558.168 Z-54.321
X558.035 Z-54.297
G2 X305.956 Z-2.03 I-270.037 K-668.354
X232.901 Z-3.989 I-17.224 K-720.936
X142.598 Z-16.841 I56.305 K-719.276
G1 X137.566 Z-17.905
G2 X85.365 Z-31.183 I151.575 K-705.152
G1 X80.437 Z-32.655
G2 X19.164 Z-54.257 I206.942 K-684.678
G1 X19.031 Z-54.281
X18.9 Z-54.248
X18.757 Z-54.215
X18.677 Y37.828
X18.628 Y37.895
Y37.979
X18.677 Y38.046
X18.757 Y38.072
X18.774
X18.917 Z-54.248
X19.048 Z-54.281
X19.182 Z-54.258
X19.183 Z-54.257
G3 X75.731 Z-34.101 I267.811 K-661.927
G1 X80.649 Z-32.595
G3 X127.98 Z-20.039 I208.402 K-690.078
G1 X132.997 Z-18.907
G3 X190.83 Z-8.531 I156.241 K-704.484
G1 X195.927 Z-7.847
G3 X431.182 Z-16.188 I92.603 K-709.917
X558.018 Z-54.296 I-142.46 K-704.295
G1 Z-54.298
X558.151 Z-54.321
X558.283 Z-54.288
X558.426 Z-54.255
X558.505 Y38.098
X558.554 Y38.165
Y38.249
X558.505 Y38.316
X558.426 Y38.342
X558.407
X558.264 Z-54.288
X558.133 Z-54.321
X557.999 Z-54.298
G2 X305.916 Z-2.036 I-270.002 K-668.264
X220.791 Z-5.045 I-17.204 K-719.018
X166.757 Z-12.263 I68.625 K-719.558
G1 X161.691 Z-13.155
G2 X104.331 Z-25.887 I127.591 K-710.413
G1 X99.364 Z-27.224
G2 X52.587 Z-41.71 I189.073 K-693.273
G1 X47.735 Z-43.417
G2 X19.201 Z-54.256 I238.344 K-670.386
G1 X19.068 Z-54.28
X18.936 Z-54.248
X18.793 Z-54.214
X18.714 Y38.368
X18.665 Y38.435
Y38.519
X18.714 Y38.586
X18.793 Y38.612
X18.81
X18.953 Z-54.248
X19.085 Z-54.28
X19.218 Z-54.257
X19.219
G3 X47.738 Z-43.422 I266.265 K-657.894
G1 X52.59 Z-41.715
G3 X99.367 Z-27.228 I235.844 K-678.732
G1 X104.334 Z-25.891
G3 X161.694 Z-13.159 I184.947 K-697.632
G1 X166.759 Z-12.267
G3 X436.718 Z-17.343 I121.758 K-705.711
X557.982 Z-54.297 I-147.871 K-702.674
G1 Z-54.299
X558.116 Z-54.322
X558.247 Z-54.289
X558.39 Z-54.256
X558.469 Y38.638
X558.518 Y38.705
Y38.789
X558.469 Y38.856
X558.39 Y38.882
X558.371
X558.228 Z-54.289
X558.097 Z-54.322
X557.964 Z-54.299
G2 X310.01 Z-2.156 I-269.978 K-668.208
X181.323 Z-9.915 I-21.363 K-716.744
G1 X176.241 Z-10.703
G2 X118.632 Z-22.261 I113.045 K-712.811
G1 X113.639 Z-23.496
G2 X61.923 Z-38.549 I175.099 K-697.917
G1 X57.048 Z-40.189
G2 X19.237 Z-54.255 I229.48 K-674.696
G1 X19.104 Z-54.279
X18.973 Z-54.247
X18.83 Z-54.214
X18.75 Y38.908
X18.701 Y38.975
Y39.059
X18.75 Y39.126
X18.83 Y39.152
X18.847
X18.99 Z-54.247
X19.121 Z-54.28
X19.255 Z-54.256
X19.256
G3 X47.731 Z-43.437 I265.996 K-657.203
G1 X52.583 Z-41.73
G3 X94.638 Z-28.545 I235.78 K-678.41
G1 X99.596 Z-27.175
G3 X156.868 Z-14.051 I189.666 K-696.178
G1 X161.927 Z-13.125
G3 X436.949 Z-17.401 I126.585 K-704.824
X557.946 Z-54.298 I-148.118 K-702.575
G1 X557.947 Z-54.3
X558.08 Z-54.323
X558.211 Z-54.29
X558.354 Z-54.257
X558.434 Y39.178
X558.483 Y39.245
Y39.329
X558.434 Y39.396
X558.354 Y39.422
X558.335
X558.192 Z-54.29
X558.061 Z-54.323
X557.928 Z-54.3
G2 X310.116 Z-2.167 I-269.944 K-668.123
X161.94 Z-13.126 I-21.461 K-716.991
G1 X156.881 Z-14.053
G2 X99.609 Z-27.176 I132.38 K-709.254
G1 X94.652 Z-28.547
G2 X52.596 Z-41.731 I193.711 K-691.549
G1 X47.744 Z-43.438
G2 X19.274 Z-54.255 I238.202 K-669.84
G1 X19.141 Z-54.279
X19.009 Z-54.246
X18.866 Z-54.213
X18.787 Y39.448
X18.738 Y39.515
Y39.599
X18.787 Y39.666
X18.866 Y39.692
X18.883
X19.026 Z-54.246
X19.158 Z-54.279
X19.291 Z-54.255
X19.292
G3 X94.649 Z-28.553 I268.224 K-663.087
G1 X99.607 Z-27.182
G3 X156.879 Z-14.057 I189.654 K-696.082
G1 X161.938 Z-13.131
G3 X436.912 Z-17.403 I126.572 K-704.733
X557.91 Z-54.299 I-148.09 K-702.506
G1 X557.911 Z-54.3
X558.044 Z-54.324
X558.175 Z-54.291
X558.318 Z-54.258
X558.398 Y39.718
X558.447 Y39.785
Y39.869
X558.398 Y39.936
X558.318 Y39.962
X558.3
X558.157 Z-54.291
X558.025 Z-54.324
X557.892 Z-54.3
G2 X305.972 Z-2.059 I-269.901 K-668.003
X216.762 Z-5.462 I-17.271 K-718.299
X161.933 Z-13.136 I72.672 K-718.935
G1 X156.874 Z-14.063
G2 X94.881 Z-28.492 I132.369 K-709.079
G1 X89.933 Z-29.897
G2 X19.31 Z-54.253 I197.688 K-687.771
G1 X19.177 Z-54.277
X19.046 Z-54.245
X18.903 Z-54.212
X18.823 Y39.988
X18.774 Y40.055
Y40.139
X18.823 Y40.206
X18.903 Y40.232
X18.92
X19.063 Z-54.245
X19.194 Z-54.278
X19.328 Z-54.254
X19.329
G3 X52.449 Z-41.801 I266.459 K-658.427
G1 X57.313 Z-40.128
G3 X113.671 Z-23.512 I231.361 K-680.841
G1 X118.664 Z-22.277
G3 X176.273 Z-10.718 I170.616 K-701.007
G1 X181.328 Z-9.934
G3 X433.956 Z-16.795 I107.192 K-707.608
X557.875 Z-54.299 I-145.179 K-703.154
G1 Z-54.301
X558.008 Z-54.325
X558.14 Z-54.292
X558.283 Z-54.258
X558.362 Y40.258
X558.411 Y40.325
Y40.409
X558.362 Y40.476
X558.283 Y40.502
X558.264
X558.121 Z-54.292
X557.99 Z-54.325
X557.856 Z-54.301
G2 X310.029 Z-2.178 I-269.877 K-667.947
X186.202 Z-9.217 I-21.389 K-716.41
G1 X181.114 Z-9.971
G2 X123.456 Z-21.132 I108.145 K-713.171
G1 X118.455 Z-22.333
G2 X61.984 Z-38.564 I170.327 K-698.968
G1 X57.109 Z-40.204
G2 X19.347 Z-54.253 I229.486 K-674.617
G1 X19.214 Z-54.277
X19.082 Z-54.244
X18.939 Z-54.211
X18.86 Y40.528
X18.811 Y40.595
Y40.679
X18.86 Y40.746
X18.939 Y40.772
X18.956
X19.099 Z-54.244
X19.231 Z-54.277
X19.364 Z-54.254
X19.365 Z-54.253
G3 X57.109 Z-40.21 I266.741 K-659.169
G1 X61.984 Z-38.57
G3 X118.455 Z-22.338 I226.796 K-682.684
G1 X123.456 Z-21.137
G3 X176.274 Z-10.726 I165.816 K-702.032
G1 X181.356 Z-9.938
G3 X433.92 Z-16.797 I107.161 K-707.522
X557.839 Z-54.3 I-145.146 K-703.07
G1 Z-54.302
X557.973 Z-54.325
X558.104 Z-54.292
X558.247 Z-54.259
X558.326 Y40.798
X558.375 Y40.865
Y40.949
X558.326 Y41.016
X558.247 Y41.042
X558.228
X558.085 Z-54.292
X557.954 Z-54.325
X557.82 Z-54.302
G2 X310.02 Z-2.185 I-269.841 K-667.854
X142.666 Z-16.88 I-21.353 K-717.167
G1 X137.662 Z-17.938
G2 X85.462 Z-31.218 I151.466 K-704.57
G1 X80.533 Z-32.691
G2 X19.383 Z-54.252 I206.858 K-684.176
G1 X19.25 Z-54.276
X19.119 Z-54.243
X18.976 Z-54.21
X18.896 Y41.068
X18.847 Y41.135
Y41.219
X18.896 Y41.286
X18.976 Y41.312
X18.993
X19.136 Z-54.243
X19.267 Z-54.276
X19.401 Z-54.253
X19.402 Z-54.252
G3 X80.542 Z-32.693 I267.741 K-661.826
G1 X85.47 Z-31.221
G3 X147.261 Z-15.946 I203.691 K-691.373
G1 X152.307 Z-14.951
G3 X352.6 Z-4.749 I136.215 K-702.985
X557.806 Z-54.294 I-64.852 K-718.339
G1 X557.804 Z-54.303
X557.937 Z-54.326
