(ZF_1_dug_lic_part_3)
(T6 D=6.5 CR=3.25 TAPER=4deg - ZMIN=-54.946 - tapered mill)
(Parallel2)
S24000 M3
G17
G0 X272.732 Y0.002
Z15
Z0.495
G1 Z-0.872 F90
X272.701 Z-1.07 F1000
X272.611 Z-1.249
X272.471 Z-1.392
X272.295 Z-1.486
X272.098 Z-1.522
X269.037 Z-1.599 F4000
X267.539 Z-1.64
X267.334 Z-1.613 F1000
X267.148 Z-1.523
X267 Z-1.378
X266.904 Z-1.195
X266.872 Z-0.991
G0 Z5
X218.183 Y0.272
Z-2.759
G1 Z-4.066 F90
X218.219 Z-4.278 F1000
X218.322 Z-4.468
X218.482 Z-4.613
X218.68 Z-4.698
X218.895 Z-4.713
X222.081 Z-4.412 F4000
X227.087 Z-3.964
G3 X317.966 Z-1.93 I61.546 K-718.816
G1X338.468 Z-2.719
X338.468 Z-2.719
X338.468 Z-2.719
X338.468 Z-2.719
G2 X317.966 Z-1.93 I61.546 K-718.816
G1 X338.468 Z-2.719
X338.496 Y0.273 Z-2.721
X338.524 Y0.277 Z-2.727
X338.551 Y0.282 Z-2.735
X338.576 Y0.29 Z-2.746
X338.599 Y0.3 Z-2.759
X338.62 Y0.312 Z-2.775
X338.638 Y0.325 Z-2.792
X338.653 Y0.34 Z-2.811
X338.665 Y0.355 Z-2.832
X338.673 Y0.372 Z-2.853
X338.678 Y0.39 Z-2.876
X338.679 Y0.407 Z-2.898
X338.676 Y0.425 Z-2.92
X338.67 Y0.442 Z-2.942
X338.66 Y0.459 Z-2.963
X338.646 Y0.475 Z-2.982
X338.63 Y0.489 Z-3
X338.61 Y0.503 Z-3.016
X338.589 Y0.514 Z-3.03
X338.564 Y0.524 Z-3.042
X338.538 Y0.532 Z-3.05
X338.511 Y0.538 Z-3.057
X338.483 Y0.541 Z-3.06
X338.455 Y0.542
G2 X198.598 Z-6.978 I-49.827 K-719.561
G1 X182.871 Z-8.946
X182.848 Y0.544 Z-8.95
X182.826 Y0.548 Z-8.955
X182.805 Y0.554 Z-8.963
X182.786 Y0.564 Z-8.971
X182.768 Y0.575 Z-8.981
X182.753 Y0.589 Z-8.993
X182.74 Y0.604 Z-9.005
X182.731 Y0.621 Z-9.018
X182.724 Y0.639 Z-9.031
X182.721 Y0.658 Z-9.044
Y0.677 Z-9.057
X182.724 Y0.696 Z-9.07
X182.73 Y0.715 Z-9.082
X182.74 Y0.733 Z-9.093
X182.753 Y0.75 Z-9.103
X182.768 Y0.766 Z-9.112
X182.785 Y0.779 Z-9.119
X182.805 Y0.791 Z-9.124
X182.826 Y0.8 Z-9.128
X182.848 Y0.807 Z-9.13
X182.871 Y0.811
X182.894 Y0.812 Z-9.128
G3 X354.137 Z-4.317 I105.755 K-714.26
G1 X367.459 Z-5.494
X367.483 Y0.814 Z-5.497
X367.507 Y0.819 Z-5.502
X367.53 Y0.827 Z-5.509
X367.55 Y0.838 Z-5.518
X367.568 Y0.852 Z-5.528
X367.583 Y0.868 Z-5.539
X367.595 Y0.886 Z-5.551
X367.604 Y0.905 Z-5.564
X367.608 Y0.926 Z-5.577
X367.609 Y0.947 Z-5.591
X367.606 Y0.968 Z-5.603
X367.599 Y0.989 Z-5.615
X367.589 Y1.008 Z-5.627
X367.575 Y1.026 Z-5.637
X367.558 Y1.043 Z-5.645
X367.538 Y1.056 Z-5.652
X367.516 Y1.067 Z-5.657
X367.493 Y1.076 Z-5.66
X367.469 Y1.08 Z-5.661
X367.444 Y1.082 Z-5.659
G2 X169.729 Z-11.204 I-78.811 K-717.619
G1 X158.08 Z-13.16
X158.059 Y1.084 Z-13.165
X158.038 Y1.089 Z-13.17
X158.018 Y1.097 Z-13.175
X158 Y1.108 Z-13.182
X157.984 Y1.122 Z-13.188
X157.971 Y1.138 Z-13.195
X157.96 Y1.156 Z-13.203
X157.953 Y1.175 Z-13.21
X157.949 Y1.196 Z-13.216
X157.948 Y1.217 Z-13.223
X157.951 Y1.238 Z-13.229
X157.957 Y1.259 Z-13.234
X157.966 Y1.278 Z-13.238
X157.979 Y1.296 Z-13.241
X157.993 Y1.313 Z-13.244
X158.011 Y1.326 Z-13.245
X158.03 Y1.337
X158.05 Y1.346 Z-13.244
X158.072 Y1.35 Z-13.242
X158.094 Y1.352 Z-13.238
G3 X379.035 Z-7.027 I130.539 K-710.76
G1 X389.58 Z-8.347
X389.602 Y1.354 Z-8.35
X389.624 Y1.359 Z-8.355
X389.644 Y1.367 Z-8.36
X389.663 Y1.378 Z-8.366
X389.679 Y1.392 Z-8.373
X389.693 Y1.408 Z-8.381
X389.704 Y1.426 Z-8.389
X389.711 Y1.445 Z-8.397
X389.716 Y1.466 Z-8.405
X389.717 Y1.487 Z-8.412
X389.714 Y1.508 Z-8.42
X389.708 Y1.529 Z-8.426
X389.698 Y1.548 Z-8.432
X389.686 Y1.566 Z-8.437
X389.671 Y1.583 Z-8.441
X389.653 Y1.596 Z-8.444
X389.634 Y1.607 Z-8.445
X389.613 Y1.616 Z-8.446
X389.591 Y1.62 Z-8.445
X389.568 Y1.622 Z-8.443
G2 X147.68 Z-15.239 I-100.945 K-715.124
G1 X138.077 Z-17.146
X138.056 Y1.624 Z-17.15
X138.035 Y1.629 Z-17.155
X138.016 Y1.637 Z-17.161
X137.998 Y1.648 Z-17.167
X137.983 Y1.662 Z-17.174
X137.97 Y1.678 Z-17.18
X137.959 Y1.696 Z-17.186
X137.952 Y1.715 Z-17.193
X137.948 Y1.736 Z-17.198
X137.947 Y1.757 Z-17.203
X137.95 Y1.778 Z-17.208
X137.956 Y1.799 Z-17.212
X137.965 Y1.818 Z-17.214
X137.977 Y1.836 Z-17.216
X137.991 Y1.853 Z-17.217
X138.008 Y1.866
X138.027 Y1.877 Z-17.216
X138.047 Y1.886 Z-17.214
X138.068 Y1.89 Z-17.211
X138.089 Y1.892 Z-17.207
G3 X349.548 Z-3.923 I150.595 K-707.553
X399.257 Z-9.879 I-62.358 K-730.904
G1 X399.355 Z-9.88
X399.45 Z-9.852
X399.593 Z-9.819
X408.597
X408.65 Z-9.821
X408.703 Y1.894 Z-9.826
X408.755 Y1.895 Z-9.835
X408.806 Y1.898 Z-9.848
X408.856 Y1.901 Z-9.865
X408.905 Y1.904 Z-9.884
X408.952 Y1.909 Z-9.908
X408.998 Y1.914 Z-9.934
X409.041 Y1.919 Z-9.964
X409.082 Y1.925 Z-9.997
X409.121 Y1.932 Z-10.032
X409.157 Y1.939 Z-10.07
X409.19 Y1.946 Z-10.11
X409.22 Y1.954 Z-10.153
X409.247 Y1.962 Z-10.198
X409.271 Y1.971 Z-10.244
X409.291 Y1.98 Z-10.292
X409.308 Y1.989 Z-10.342
X409.321 Y1.998 Z-10.392
X409.33 Y2.008 Z-10.443
X409.336 Y2.018 Z-10.495
X409.338 Y2.027 Z-10.547
X409.336 Y2.037 Z-10.599
X409.33 Y2.046 Z-10.65
X409.321 Y2.056 Z-10.701
X409.308 Y2.065 Z-10.752
X409.291 Y2.074 Z-10.801
X409.271 Y2.083 Z-10.849
X409.247 Y2.092 Z-10.896
X409.22 Y2.1 Z-10.94
X409.19 Y2.108 Z-10.983
X409.157 Y2.116 Z-11.023
X409.121 Y2.123 Z-11.062
X409.082 Y2.129 Z-11.097
X409.041 Y2.135 Z-11.13
X408.998 Y2.141 Z-11.159
X408.952 Y2.146 Z-11.186
X408.905 Y2.15 Z-11.209
X408.856 Y2.154 Z-11.229
X408.806 Y2.157 Z-11.245
X408.755 Y2.159 Z-11.258
X408.703 Y2.161 Z-11.267
X408.65 Y2.162 Z-11.273
X408.597 Z-11.275
X408.454 Z-11.308
X408.358 Z-11.338
X408.258 Z-11.337
G2 X144.984 Z-15.789 I-119.63 K-712.279
X129.174 Z-19.164 I124.55 K-622.128
G1 X129.065 Z-19.169
X128.96 Z-19.138
X128.817 Z-19.105
X120.456
X120.395 Z-19.107
X120.334 Y2.163 Z-19.113
X120.273 Y2.165 Z-19.122
X120.213 Y2.166 Z-19.135
X120.154 Y2.169 Z-19.152
X120.097 Y2.172 Z-19.173
X120.041 Y2.175 Z-19.197
X119.986 Y2.179 Z-19.224
X119.933 Y2.183 Z-19.255
X119.883 Y2.188 Z-19.289
X119.834 Y2.193 Z-19.327
X119.788 Y2.199 Z-19.367
X119.745 Y2.204 Z-19.41
X119.705 Y2.211 Z-19.455
X119.667 Y2.217 Z-19.503
X119.633 Y2.224 Z-19.553
X119.601 Y2.232 Z-19.605
X119.574 Y2.239 Z-19.659
X119.549 Y2.247 Z-19.715
X119.529 Y2.255 Z-19.772
X119.511 Y2.263 Z-19.83
X119.498 Y2.271 Z-19.89
X119.488 Y2.28 Z-19.95
X119.483 Y2.288 Z-20.01
X119.481 Y2.296 Z-20.071
Y2.298 Z-20.082
X119.483 Y2.306 Z-20.142
X119.488 Y2.315 Z-20.203
X119.498 Y2.323 Z-20.263
X119.511 Y2.331 Z-20.322
X119.529 Y2.339 Z-20.38
X119.549 Y2.347 Z-20.437
X119.574 Y2.355 Z-20.493
X119.601 Y2.363 Z-20.547
X119.633 Y2.37 Z-20.599
X119.667 Y2.377 Z-20.649
X119.705 Y2.383 Z-20.697
X119.745 Y2.39 Z-20.743
X119.788 Y2.396 Z-20.786
X119.834 Y2.401 Z-20.826
X119.883 Y2.407 Z-20.863
X119.933 Y2.411 Z-20.897
X119.986 Y2.416 Z-20.928
X120.041 Y2.419 Z-20.956
X120.097 Y2.423 Z-20.98
X120.154 Y2.426 Z-21
X120.213 Y2.428 Z-21.017
X120.273 Y2.43 Z-21.03
X120.334 Y2.431 Z-21.04
X120.395 Y2.432 Z-21.046
X120.456 Z-21.048
X120.599 Z-21.081
X120.706 Z-21.112
X120.817 Z-21.105
G3 X323.532 Z-2.197 I167.968 K-704.696
X416.692 Z-12.804 I-35.503 K-726.273
G1 X416.794 Z-12.807
X416.892 Z-12.778
X417.035 Z-12.745
X425
X425.054 Z-12.747
X425.107 Y2.434 Z-12.752
X425.16 Y2.435 Z-12.762
X425.212 Y2.438 Z-12.775
X425.263 Y2.441 Z-12.791
X425.313 Y2.444 Z-12.812
X425.361 Y2.449 Z-12.835
X425.407 Y2.454 Z-12.862
X425.451 Y2.459 Z-12.892
X425.493 Y2.465 Z-12.926
X425.532 Y2.472 Z-12.962
X425.569 Y2.479 Z-13
X425.603 Y2.486 Z-13.041
X425.633 Y2.494 Z-13.085
X425.661 Y2.502 Z-13.13
X425.685 Y2.511 Z-13.178
X425.705 Y2.52 Z-13.226
X425.722 Y2.529 Z-13.277
X425.736 Y2.538 Z-13.328
X425.745 Y2.548 Z-13.38
X425.751 Y2.558 Z-13.432
X425.753 Y2.567 Z-13.485
X425.751 Y2.577 Z-13.538
X425.745 Y2.586 Z-13.591
X425.736 Y2.596 Z-13.643
X425.722 Y2.605 Z-13.694
X425.705 Y2.614 Z-13.744
X425.685 Y2.623 Z-13.793
X425.661 Y2.632 Z-13.84
X425.633 Y2.64 Z-13.886
X425.603 Y2.648 Z-13.929
X425.569 Y2.656 Z-13.97
X425.532 Y2.663 Z-14.009
X425.493 Y2.669 Z-14.045
X425.451 Y2.675 Z-14.078
X425.407 Y2.681 Z-14.108
X425.361 Y2.686 Z-14.135
X425.313 Y2.69 Z-14.159
X425.263 Y2.694 Z-14.179
X425.212 Y2.697 Z-14.196
X425.16 Y2.699 Z-14.209
X425.107 Y2.701 Z-14.218
X425.054 Y2.702 Z-14.224
X425 Z-14.226
X424.857 Z-14.259
X424.757 Z-14.289
X424.653 Z-14.287
G2 X136.23 Z-17.625 I-136.016 K-709.627
X112.927 Z-23.035 I140.922 K-659.966
G1 X112.814 Z-23.042
X112.706 Z-23.011
X112.563 Z-22.978
X105.066
X105.005 Z-22.98
X104.945 Y2.703 Z-22.985
X104.885 Y2.705 Z-22.995
X104.825 Y2.706 Z-23.008
X104.767 Y2.709 Z-23.025
X104.71 Y2.712 Z-23.045
X104.654 Y2.715 Z-23.069
X104.599 Y2.719 Z-23.097
X104.547 Y2.723 Z-23.127
X104.497 Y2.728 Z-23.161
X104.449 Y2.733 Z-23.198
X104.403 Y2.739 Z-23.238
X104.36 Y2.745 Z-23.281
X104.32 Y2.751 Z-23.326
X104.282 Y2.758 Z-23.373
X104.248 Y2.765 Z-23.423
X104.217 Y2.772 Z-23.475
X104.189 Y2.78 Z-23.529
X104.165 Y2.787 Z-23.584
X104.145 Y2.795 Z-23.641
X104.128 Y2.804 Z-23.699
X104.114 Y2.812 Z-23.758
X104.105 Y2.82 Z-23.817
X104.099 Y2.829 Z-23.877
X104.097 Y2.837 Z-23.938
X104.099 Y2.846 Z-23.998
X104.105 Y2.854 Z-24.058
X104.114 Y2.862 Z-24.118
X104.128 Y2.871 Z-24.176
X104.145 Y2.879 Z-24.234
X104.165 Y2.887 Z-24.291
X104.189 Y2.895 Z-24.346
X104.217 Y2.902 Z-24.4
X104.248 Y2.909 Z-24.452
X104.282 Y2.916 Z-24.502
X104.32 Y2.923 Z-24.549
X104.36 Y2.93 Z-24.595
X104.403 Y2.936 Z-24.637
X104.449 Y2.941 Z-24.677
X104.497 Y2.946 Z-24.714
X104.547 Y2.951 Z-24.748
X104.599 Y2.955 Z-24.779
X104.654 Y2.959 Z-24.806
X104.71 Y2.963 Z-24.83
X104.767 Y2.966 Z-24.851
X104.825 Y2.968 Z-24.867
X104.885 Y2.97 Z-24.88
X104.945 Y2.971 Z-24.89
X105.005 Y2.972 Z-24.896
X105.066 Z-24.897
X105.209 Z-24.931
X105.32 Z-24.962
X105.435 Z-24.953
G3 X278.742 Z-1.43 I183.583 K-702.365
X305.397 Z-1.564 I9.554 K-752.846
G1 X310.426 Z-1.697
G3 X432.214 Z-15.78 I-22.011 K-724.001
G1 X432.32 Z-15.782
X432.421 Z-15.75
X432.564 Z-15.717
X439.789
X439.844 Z-15.719
X439.898 Y2.974 Z-15.724
X439.952 Y2.975 Z-15.734
X440.005 Y2.978 Z-15.747
X440.056 Y2.981 Z-15.764
X440.107 Y2.984 Z-15.785
X440.156 Y2.989 Z-15.809
X440.203 Y2.994 Z-15.836
X440.248 Y2.999 Z-15.867
X440.29 Y3.005 Z-15.901
X440.33 Y3.012 Z-15.937
X440.367 Y3.019 Z-15.977
X440.402 Y3.026 Z-16.019
X440.433 Y3.034 Z-16.063
X440.461 Y3.042 Z-16.109
X440.485 Y3.051 Z-16.157
X440.506 Y3.06 Z-16.207
X440.523 Y3.069 Z-16.258
X440.537 Y3.078 Z-16.31
X440.546 Y3.088 Z-16.363
X440.552 Y3.098 Z-16.416
X440.554 Y3.107 Z-16.47
X440.552 Y3.117 Z-16.524
X440.546 Y3.126 Z-16.577
X440.537 Y3.136 Z-16.63
X440.523 Y3.145 Z-16.682
X440.506 Y3.154 Z-16.733
X440.485 Y3.163 Z-16.783
X440.461 Y3.172 Z-16.831
X440.433 Y3.18 Z-16.877
X440.402 Y3.188 Z-16.921
X440.367 Y3.196 Z-16.963
X440.33 Y3.203 Z-17.003
X440.29 Y3.209 Z-17.039
X440.248 Y3.215 Z-17.073
X440.203 Y3.221 Z-17.104
X440.156 Y3.226 Z-17.131
X440.107 Y3.23 Z-17.155
X440.056 Y3.234 Z-17.176
X440.005 Y3.237 Z-17.193
X439.952 Y3.239 Z-17.206
X439.898 Y3.241 Z-17.215
X439.844 Y3.242 Z-17.221
X439.789 Z-17.223
X439.646 Z-17.256
X439.543 Z-17.287
X439.436 Z-17.283
G2 X222.882 Z-4.37 I-150.828 K-707.143
X98.28 Z-26.862 I66.688 K-725.81
G1 X98.165 Z-26.872
X98.053 Z-26.841
X97.91 Z-26.808
X91.063
X91.003 Z-26.81
X90.943 Y3.243 Z-26.815
X90.883 Y3.245 Z-26.825
X90.824 Y3.246 Z-26.838
X90.766 Y3.249 Z-26.854
X90.709 Y3.252 Z-26.875
X90.653 Y3.255 Z-26.898
X90.6 Y3.259 Z-26.926
X90.547 Y3.263 Z-26.956
X90.497 Y3.268 Z-26.99
X90.45 Y3.273 Z-27.027
X90.404 Y3.279 Z-27.066
X90.361 Y3.285 Z-27.109
X90.321 Y3.291 Z-27.153
X90.284 Y3.298 Z-27.201
X90.25 Y3.305 Z-27.25
X90.22 Y3.312 Z-27.302
X90.192 Y3.32 Z-27.355
X90.168 Y3.327 Z-27.41
X90.148 Y3.335 Z-27.467
X90.131 Y3.344 Z-27.524
X90.118 Y3.352 Z-27.583
X90.108 Y3.36 Z-27.642
X90.102 Y3.369 Z-27.701
X90.1 Y3.377 Z-27.761
X90.102 Y3.386 Z-27.821
X90.108 Y3.394 Z-27.881
X90.118 Y3.402 Z-27.94
X90.131 Y3.411 Z-27.998
X90.148 Y3.419 Z-28.056
X90.168 Y3.427 Z-28.112
X90.192 Y3.435 Z-28.167
X90.22 Y3.442 Z-28.221
X90.25 Y3.449 Z-28.272
X90.284 Y3.456 Z-28.322
X90.321 Y3.463 Z-28.369
X90.361 Y3.47 Z-28.414
X90.404 Y3.476 Z-28.456
X90.45 Y3.481 Z-28.496
X90.497 Y3.486 Z-28.533
X90.547 Y3.491 Z-28.566
X90.6 Y3.495 Z-28.597
X90.653 Y3.499 Z-28.624
X90.709 Y3.503 Z-28.648
X90.766 Y3.506 Z-28.668
X90.824 Y3.508 Z-28.685
X90.883 Y3.51 Z-28.698
X90.943 Y3.511 Z-28.707
X91.003 Y3.512 Z-28.713
X91.063 Z-28.715
X91.206 Z-28.748
X91.32 Z-28.78
X91.438 Z-28.769
G3 X274.396 Z-1.509 I197.637 K-698.875
X446.364 Z-18.801 I14.057 K-723.991
G1 X446.474 Z-18.805
X446.579 Z-18.772
X446.722 Z-18.739
X453.4
X453.455 Z-18.741
X453.51 Y3.514 Z-18.747
X453.564 Y3.515 Z-18.757
X453.618 Y3.518 Z-18.77
X453.67 Y3.521 Z-18.787
X453.721 Y3.524 Z-18.808
X453.771 Y3.529 Z-18.832
X453.818 Y3.534 Z-18.86
X453.864 Y3.539 Z-18.891
X453.907 Y3.545 Z-18.925
X453.947 Y3.552 Z-18.963
X453.985 Y3.559 Z-19.002
X454.02 Y3.566 Z-19.045
X454.051 Y3.574 Z-19.09
X454.079 Y3.582 Z-19.136
X454.104 Y3.591 Z-19.185
X454.125 Y3.6 Z-19.235
X454.143 Y3.609 Z-19.287
X454.156 Y3.618 Z-19.34
X454.166 Y3.628 Z-19.393
X454.172 Y3.637 Z-19.447
X454.174 Y3.647 Z-19.502
X454.172 Y3.657 Z-19.556
X454.166 Y3.666 Z-19.61
X454.156 Y3.676 Z-19.664
X454.143 Y3.685 Z-19.717
X454.125 Y3.694 Z-19.768
X454.104 Y3.703 Z-19.819
X454.079 Y3.712 Z-19.867
X454.051 Y3.72 Z-19.914
X454.02 Y3.728 Z-19.959
X453.985 Y3.736 Z-20.001
X453.947 Y3.743 Z-20.041
X453.907 Y3.749 Z-20.078
X453.864 Y3.755 Z-20.112
X453.818 Y3.761 Z-20.144
X453.771 Y3.766 Z-20.171
X453.721 Y3.77 Z-20.196
X453.67 Y3.774 Z-20.217
X453.618 Y3.777 Z-20.234
X453.564 Y3.779 Z-20.247
X453.51 Y3.781 Z-20.257
X453.455 Y3.782 Z-20.263
X453.4 Z-20.265
X453.257 Z-20.298
X453.151 Z-20.329
X453.041 Z-20.323
G2 X261.91 Z-1.867 I-164.576 K-705.451
X84.914 Z-30.65 I27.287 K-726.386
G1 X84.795 Z-30.662
X84.679 Z-30.63
X84.536 Z-30.597
X78.235
X78.175 Z-30.599
X78.116 Y3.783 Z-30.604
X78.057 Y3.785 Z-30.613
X77.998 Y3.786 Z-30.626
X77.941 Y3.789 Z-30.643
X77.885 Y3.792 Z-30.663
X77.83 Y3.795 Z-30.686
X77.777 Y3.799 Z-30.713
X77.725 Y3.803 Z-30.743
X77.676 Y3.808 Z-30.776
X77.629 Y3.813 Z-30.813
X77.584 Y3.819 Z-30.852
X77.542 Y3.825 Z-30.894
X77.502 Y3.831 Z-30.938
X77.466 Y3.838 Z-30.985
X77.432 Y3.845 Z-31.033
X77.402 Y3.852 Z-31.084
X77.375 Y3.86 Z-31.137
X77.351 Y3.867 Z-31.191
X77.331 Y3.875 Z-31.247
X77.314 Y3.884 Z-31.304
X77.301 Y3.892 Z-31.361
X77.292 Y3.9 Z-31.42
X77.286 Y3.909 Z-31.479
X77.284 Y3.917 Z-31.538
X77.286 Y3.926 Z-31.597
X77.292 Y3.934 Z-31.656
X77.301 Y3.942 Z-31.714
X77.314 Y3.951 Z-31.772
X77.331 Y3.959 Z-31.829
X77.351 Y3.967 Z-31.884
X77.375 Y3.975 Z-31.938
X77.402 Y3.982 Z-31.991
X77.432 Y3.989 Z-32.042
X77.466 Y3.996 Z-32.091
X77.502 Y4.003 Z-32.138
X77.542 Y4.01 Z-32.182
X77.584 Y4.016 Z-32.224
X77.629 Y4.021 Z-32.263
X77.676 Y4.026 Z-32.299
X77.725 Y4.031 Z-32.332
X77.777 Y4.035 Z-32.362
X77.83 Y4.039 Z-32.389
X77.885 Y4.043 Z-32.413
X77.941 Y4.046 Z-32.433
X77.998 Y4.048 Z-32.449
X78.057 Y4.05 Z-32.462
X78.116 Y4.051 Z-32.471
X78.175 Y4.052 Z-32.477
X78.235 Z-32.479
X78.378 Z-32.512
X78.494 Z-32.544
X78.615 Z-32.531
G3 X274.403 Z-1.515 I210.486 K-695.233
X345.282 Z-3.608 I14.022 K-726.358
X459.429 Z-21.847 I-57.35 K-725.232
G1 X459.541 Z-21.855
X459.649 Z-21.824
X459.792 Z-21.791
X465.958
X466.014 Z-21.793
X466.069 Y4.054 Z-21.799
X466.123 Y4.055 Z-21.809
X466.177 Y4.058 Z-21.822
X466.229 Y4.061 Z-21.839
X466.28 Y4.064 Z-21.86
X466.33 Y4.069 Z-21.885
X466.377 Y4.074 Z-21.913
X466.423 Y4.079 Z-21.944
X466.466 Y4.085 Z-21.978
X466.507 Y4.092 Z-22.015
X466.544 Y4.099 Z-22.055
X466.579 Y4.106 Z-22.097
X466.611 Y4.114 Z-22.142
X466.639 Y4.122 Z-22.189
X466.664 Y4.131 Z-22.238
X466.685 Y4.14 Z-22.288
X466.702 Y4.149 Z-22.34
X466.716 Y4.158 Z-22.393
X466.726 Y4.168 Z-22.446
X466.732 Y4.177 Z-22.5
X466.734 Y4.187 Z-22.555
X466.732 Y4.197 Z-22.609
X466.726 Y4.206 Z-22.664
X466.716 Y4.216 Z-22.717
X466.702 Y4.225 Z-22.77
X466.685 Y4.234 Z-22.822
X466.664 Y4.243 Z-22.872
X466.639 Y4.252 Z-22.921
X466.611 Y4.26 Z-22.968
X466.579 Y4.268 Z-23.013
X466.544 Y4.276 Z-23.055
X466.507 Y4.283 Z-23.095
X466.466 Y4.289 Z-23.132
X466.423 Y4.295 Z-23.166
X466.377 Y4.301 Z-23.197
X466.33 Y4.306 Z-23.225
X466.28 Y4.31 Z-23.25
X466.229 Y4.314 Z-23.27
X466.177 Y4.317 Z-23.288
X466.123 Y4.319 Z-23.301
X466.069 Y4.321 Z-23.311
X466.014 Y4.322 Z-23.317
X465.958 Z-23.319
X465.815 Z-23.352
X465.707 Z-23.383
X465.594 Z-23.375
G2 X310.458 Z-1.716 I-177.334 K-703.743
G1 X305.43 Z-1.582
G2 X98.163 Z-26.926 I-16.662 K-723.946
X72.51 Z-34.413 I179.593 K-662.992
G1 X72.388 Z-34.427
X72.27 Z-34.395
X72.127 Z-34.361
X66.215
X66.155 Z-34.363
X66.096 Y4.323 Z-34.369
X66.037 Y4.325 Z-34.378
X65.979 Y4.326 Z-34.391
X65.921 Y4.329 Z-34.407
X65.865 Y4.332 Z-34.427
X65.811 Y4.335 Z-34.451
X65.757 Y4.339 Z-34.478
X65.706 Y4.343 Z-34.508
X65.657 Y4.348 Z-34.541
X65.609 Y4.353 Z-34.577
X65.565 Y4.359 Z-34.616
X65.522 Y4.365 Z-34.658
X65.483 Y4.371 Z-34.702
X65.446 Y4.378 Z-34.749
X65.413 Y4.385 Z-34.798
X65.382 Y4.392 Z-34.849
X65.355 Y4.4 Z-34.901
X65.332 Y4.407 Z-34.956
X65.311 Y4.415 Z-35.011
X65.295 Y4.424 Z-35.068
X65.282 Y4.432 Z-35.126
X65.272 Y4.44 Z-35.184
X65.267 Y4.449 Z-35.243
X65.265 Y4.457 Z-35.302
X65.267 Y4.466 Z-35.361
X65.272 Y4.474 Z-35.42
X65.282 Y4.482 Z-35.478
X65.295 Y4.491 Z-35.536
X65.311 Y4.499 Z-35.593
X65.332 Y4.507 Z-35.648
X65.355 Y4.515 Z-35.702
X65.382 Y4.522 Z-35.755
X65.413 Y4.529 Z-35.806
X65.446 Y4.536 Z-35.855
X65.483 Y4.543 Z-35.902
X65.522 Y4.55 Z-35.946
X65.565 Y4.556 Z-35.988
X65.609 Y4.561 Z-36.027
X65.657 Y4.566 Z-36.063
X65.706 Y4.571 Z-36.096
X65.757 Y4.575 Z-36.126
X65.811 Y4.579 Z-36.153
X65.865 Y4.583 Z-36.177
X65.921 Y4.586 Z-36.197
X65.979 Y4.588 Z-36.213
X66.037 Y4.59 Z-36.226
X66.096 Y4.591 Z-36.235
X66.155 Y4.592 Z-36.241
X66.215 Z-36.243
X66.358 Z-36.276
X66.478 Z-36.308
X66.601 Z-36.293
G3 X274.355 Z-1.523 I222.505 K-691.424
X340.869 Z-3.281 I14.052 K-727.422
X471.588 Z-24.918 I-52.922 K-725.443
G1 X471.702 Z-24.927
X471.813 Z-24.895
X471.956 Z-24.862
X477.789
X477.842 Z-24.864
X477.896 Y4.593 Z-24.869
X477.949 Y4.595 Z-24.878
X478.001 Y4.597 Z-24.891
X478.053 Y4.6 Z-24.907
X478.103 Y4.603 Z-24.926
X478.151 Y4.607 Z-24.949
X478.198 Y4.612 Z-24.975
X478.243 Y4.617 Z-25.004
X478.286 Y4.622 Z-25.036
X478.327 Y4.628 Z-25.071
X478.365 Y4.635 Z-25.109
X478.4 Y4.642 Z-25.149
X478.433 Y4.649 Z-25.191
X478.462 Y4.657 Z-25.235
X478.488 Y4.665 Z-25.281
X478.512 Y4.673 Z-25.329
X478.531 Y4.682 Z-25.379
X478.548 Y4.691 Z-25.429
X478.56 Y4.7 Z-25.481
X478.569 Y4.709 Z-25.533
X478.575 Y4.718 Z-25.586
X478.577 Y4.727 Z-25.639
X478.575 Y4.736 Z-25.692
X478.569 Y4.746 Z-25.744
X478.56 Y4.755 Z-25.797
X478.548 Y4.764 Z-25.848
X478.531 Y4.772 Z-25.899
X478.512 Y4.781 Z-25.948
X478.488 Y4.789 Z-25.996
X478.462 Y4.797 Z-26.042
X478.433 Y4.805 Z-26.086
X478.4 Y4.812 Z-26.129
X478.365 Y4.819 Z-26.169
X478.327 Y4.826 Z-26.206
X478.286 Y4.832 Z-26.241
X478.243 Y4.837 Z-26.273
X478.198 Y4.842 Z-26.302
X478.151 Y4.847 Z-26.328
X478.103 Y4.851 Z-26.351
X478.053 Y4.854 Z-26.37
X478.001 Y4.857 Z-26.386
X477.949 Y4.859 Z-26.399
X477.896 Y4.861 Z-26.408
X477.842 Y4.862 Z-26.413
X477.789 Z-26.415
X477.646 Z-26.448
X477.534 Z-26.48
X477.419 Z-26.47
G2 X310.363 Z-1.714 I-189.288 K-701.293
X77.134 Z-33.005 I-21.512 K-724.494
X60.93 Z-38.148 I186.395 K-615.397
G1 X60.806 Z-38.163
X60.685 Z-38.13
X60.542 Z-38.097
X54.999
X54.94 Z-38.099
X54.881 Y4.863 Z-38.104
X54.822 Y4.865 Z-38.113
X54.764 Y4.866 Z-38.126
X54.708 Y4.869 Z-38.143
X54.652 Y4.872 Z-38.163
X54.597 Y4.875 Z-38.186
X54.545 Y4.879 Z-38.212
X54.494 Y4.883 Z-38.242
X54.445 Y4.888 Z-38.275
X54.398 Y4.893 Z-38.311
X54.353 Y4.899 Z-38.35
X54.311 Y4.905 Z-38.391
X54.272 Y4.911 Z-38.435
X54.236 Y4.918 Z-38.482
X54.203 Y4.925 Z-38.53
X54.172 Y4.932 Z-38.581
X54.146 Y4.94 Z-38.633
X54.122 Y4.947 Z-38.687
X54.102 Y4.955 Z-38.742
X54.085 Y4.964 Z-38.798
X54.072 Y4.972 Z-38.856
X54.063 Y4.98 Z-38.914
X54.058 Y4.989 Z-38.972
X54.056 Y4.997 Z-39.031
X54.058 Y5.006 Z-39.089
X54.063 Y5.014 Z-39.148
X54.072 Y5.022 Z-39.205
X54.085 Y5.031 Z-39.263
X54.102 Y5.039 Z-39.319
X54.122 Y5.047 Z-39.374
X54.146 Y5.055 Z-39.428
X54.172 Y5.062 Z-39.48
X54.203 Y5.069 Z-39.531
X54.236 Y5.076 Z-39.579
X54.272 Y5.083 Z-39.626
X54.311 Y5.09 Z-39.67
X54.353 Y5.096 Z-39.711
X54.398 Y5.101 Z-39.75
X54.445 Y5.106 Z-39.786
X54.494 Y5.111 Z-39.819
X54.545 Y5.115 Z-39.849
X54.597 Y5.119 Z-39.875
X54.652 Y5.123 Z-39.899
X54.708 Y5.126 Z-39.918
X54.764 Y5.128 Z-39.935
X54.822 Y5.13 Z-39.948
X54.881 Y5.131 Z-39.957
X54.94 Y5.132 Z-39.962
X54.999 Z-39.964
X55.142 Z-39.997
X55.265 Z-40.03
X55.39 Z-40.013
G3 X274.141 Z-1.535 I233.72 K-687.663
X340.939 Z-3.294 I14.268 K-727.228
X483.016 Z-28.008 I-53.024 K-725.566
G1 X483.133 Z-28.018
X483.245 Z-27.985
X483.388 Z-27.952
X488.874
X488.928 Z-27.954
X488.982 Y5.133 Z-27.959
X489.035 Y5.135 Z-27.968
X489.087 Y5.137 Z-27.981
X489.139 Y5.14 Z-27.997
X489.189 Y5.143 Z-28.017
X489.238 Y5.147 Z-28.039
X489.285 Y5.152 Z-28.065
X489.33 Y5.157 Z-28.095
X489.373 Y5.162 Z-28.127
X489.414 Y5.168 Z-28.162
X489.452 Y5.175 Z-28.199
X489.487 Y5.182 Z-28.239
X489.52 Y5.189 Z-28.282
X489.55 Y5.197 Z-28.326
X489.576 Y5.205 Z-28.373
X489.599 Y5.213 Z-28.421
X489.619 Y5.222 Z-28.47
X489.635 Y5.231 Z-28.521
X489.648 Y5.24 Z-28.573
X489.657 Y5.249 Z-28.625
X489.663 Y5.258 Z-28.678
X489.665 Y5.267 Z-28.731
X489.663 Y5.276 Z-28.784
X489.657 Y5.286 Z-28.837
X489.648 Y5.295 Z-28.89
X489.635 Y5.304 Z-28.941
X489.619 Y5.312 Z-28.992
X489.599 Y5.321 Z-29.042
X489.576 Y5.329 Z-29.09
X489.55 Y5.337 Z-29.136
X489.52 Y5.345 Z-29.181
X489.487 Y5.352 Z-29.223
X489.452 Y5.359 Z-29.263
X489.414 Y5.366 Z-29.301
X489.373 Y5.372 Z-29.336
X489.33 Y5.377 Z-29.368
X489.285 Y5.382 Z-29.397
X489.238 Y5.387 Z-29.423
X489.189 Y5.391 Z-29.446
X489.139 Y5.394 Z-29.466
X489.087 Y5.397 Z-29.482
X489.035 Y5.399 Z-29.494
X488.982 Y5.401 Z-29.503
X488.928 Y5.402 Z-29.509
X488.874 Z-29.511
X488.731 Z-29.544
X488.617 Z-29.576
X488.498 Z-29.564
G2 X310.373 Z-1.721 I-200.403 K-698.361
X64.555 Z-36.979 I-21.501 K-724.641
X49.984 Z-41.882 I190.04 K-588.921
G1 X49.857 Z-41.899
X49.734 Z-41.866
X49.591 Z-41.833
X44.391
X44.33 Z-41.835
X44.269 Y5.403 Z-41.841
X44.209 Y5.405 Z-41.851
X44.15 Y5.407 Z-41.864
X44.092 Y5.409 Z-41.882
X44.035 Y5.412 Z-41.903
X43.979 Y5.416 Z-41.928
X43.926 Y5.42 Z-41.956
X43.874 Y5.425 Z-41.988
X43.824 Y5.43 Z-42.023
X43.777 Y5.436 Z-42.061
X43.733 Y5.442 Z-42.103
X43.691 Y5.448 Z-42.147
X43.653 Y5.455 Z-42.193
X43.617 Y5.462 Z-42.242
X43.585 Y5.47 Z-42.293
X43.556 Y5.477 Z-42.346
X43.531 Y5.485 Z-42.401
X43.51 Y5.494 Z-42.458
X43.492 Y5.502 Z-42.515
X43.478 Y5.511 Z-42.574
X43.468 Y5.519 Z-42.633
X43.463 Y5.528 Z-42.693
X43.461 Y5.537 Z-42.753
X43.463 Y5.546 Z-42.814
X43.468 Y5.555 Z-42.874
X43.478 Y5.563 Z-42.933
X43.492 Y5.572 Z-42.992
X43.51 Y5.581 Z-43.049
X43.531 Y5.589 Z-43.106
X43.556 Y5.597 Z-43.16
X43.585 Y5.605 Z-43.214
X43.617 Y5.612 Z-43.265
X43.653 Y5.619 Z-43.314
X43.691 Y5.626 Z-43.36
X43.733 Y5.633 Z-43.404
X43.777 Y5.639 Z-43.445
X43.824 Y5.644 Z-43.484
X43.874 Y5.649 Z-43.519
X43.926 Y5.654 Z-43.55
X43.979 Y5.658 Z-43.579
X44.035 Y5.662 Z-43.604
X44.092 Y5.665 Z-43.625
X44.15 Y5.668 Z-43.642
X44.209 Y5.67 Z-43.656
X44.269 Y5.671 Z-43.666
X44.33 Y5.672 Z-43.672
X44.391 Z-43.674
X44.534 Z-43.707
X44.658 Z-43.74
X44.785 Z-43.721
G3 X274.233 Z-1.54 I244.323 K-683.866
X336.659 Z-3.003 I14.159 K-728.426
X493.856 Z-31.128 I-48.711 K-725.612
G1 X493.975 Z-31.141
X494.09 Z-31.109
X494.233 Z-31.076
X499.403
X499.457 Z-31.078
X499.51 Y5.673 Z-31.083
X499.563 Y5.675 Z-31.092
X499.616 Y5.677 Z-31.105
X499.667 Y5.68 Z-31.121
X499.717 Y5.683 Z-31.14
X499.766 Y5.687 Z-31.163
X499.812 Y5.692 Z-31.189
X499.857 Y5.697 Z-31.218
X499.9 Y5.702 Z-31.25
X499.941 Y5.708 Z-31.285
X499.979 Y5.715 Z-31.322
X500.014 Y5.722 Z-31.362
X500.046 Y5.729 Z-31.404
X500.076 Y5.737 Z-31.449
X500.102 Y5.745 Z-31.495
X500.125 Y5.753 Z-31.543
X500.145 Y5.762 Z-31.592
X500.161 Y5.771 Z-31.643
X500.174 Y5.78 Z-31.694
X500.183 Y5.789 Z-31.746
X500.189 Y5.798 Z-31.799
X500.191 Y5.807 Z-31.852
X500.189 Y5.816 Z-31.905
X500.183 Y5.825 Z-31.957
X500.174 Y5.835 Z-32.01
X500.161 Y5.844 Z-32.061
X500.145 Y5.852 Z-32.112
X500.125 Y5.861 Z-32.161
X500.102 Y5.869 Z-32.209
X500.076 Y5.877 Z-32.255
X500.046 Y5.885 Z-32.299
X500.014 Y5.892 Z-32.341
X499.979 Y5.899 Z-32.381
X499.941 Y5.906 Z-32.419
X499.9 Y5.912 Z-32.453
X499.857 Y5.917 Z-32.485
X499.812 Y5.922 Z-32.515
X499.766 Y5.927 Z-32.54
X499.717 Y5.931 Z-32.563
X499.667 Y5.934 Z-32.583
X499.616 Y5.937 Z-32.599
X499.563 Y5.939 Z-32.611
X499.51 Y5.941 Z-32.62
X499.457 Y5.942 Z-32.626
X499.403 Z-32.627
X499.26 Z-32.661
X499.144 Z-32.693
X499.024 Z-32.68
G2 X310.431 Z-1.729 I-210.962 K-695.397
X224.785 Z-4.239 I-21.634 K-724.152
X39.657 Z-45.578 I64.505 K-724.073
G1 X39.529 Z-45.599
X39.403 Z-45.569
X39.26 Z-45.535
X34.287
X34.229 Z-45.537
X34.17 Y5.943 Z-45.543
X34.112 Y5.945 Z-45.552
X34.055 Y5.946 Z-45.565
X33.999 Y5.949 Z-45.581
X33.943 Y5.952 Z-45.6
X33.89 Y5.955 Z-45.623
X33.837 Y5.959 Z-45.65
X33.787 Y5.963 Z-45.679
X33.738 Y5.968 Z-45.712
X33.692 Y5.973 Z-45.748
X33.648 Y5.979 Z-45.786
X33.606 Y5.985 Z-45.827
X33.567 Y5.991 Z-45.871
X33.531 Y5.998 Z-45.917
X33.499 Y6.005 Z-45.965
X33.469 Y6.012 Z-46.015
X33.442 Y6.02 Z-46.066
X33.419 Y6.027 Z-46.12
X33.399 Y6.035 Z-46.174
X33.382 Y6.044 Z-46.23
X33.37 Y6.052 Z-46.287
X33.36 Y6.06 Z-46.344
X33.355 Y6.069 Z-46.402
X33.353 Y6.077 Z-46.46
X33.355 Y6.086 Z-46.518
X33.36 Y6.094 Z-46.576
X33.37 Y6.102 Z-46.633
X33.382 Y6.111 Z-46.69
X33.399 Y6.119 Z-46.746
X33.419 Y6.127 Z-46.8
X33.442 Y6.135 Z-46.854
X33.469 Y6.142 Z-46.905
X33.499 Y6.149 Z-46.955
X33.531 Y6.156 Z-47.003
X33.567 Y6.163 Z-47.049
X33.606 Y6.17 Z-47.093
X33.648 Y6.176 Z-47.134
X33.692 Y6.181 Z-47.172
X33.738 Y6.186 Z-47.208
X33.787 Y6.191 Z-47.241
X33.837 Y6.195 Z-47.27
X33.89 Y6.199 Z-47.296
X33.943 Y6.203 Z-47.32
X33.999 Y6.206 Z-47.339
X34.055 Y6.208 Z-47.355
X34.112 Y6.21 Z-47.368
X34.17 Y6.211 Z-47.377
X34.229 Y6.212 Z-47.383
X34.287 Z-47.384
X34.43 Z-47.418
X34.558 Z-47.45
X34.688 Z-47.43
G3 X273.994 Z-1.553 I254.393 K-679.892
X358.523 Z-4.807 I14.469 K-723.686
X504.114 Z-34.249 I-70.719 K-724.397
G1 X504.235 Z-34.262
X504.352 Z-34.23
X504.496 Z-34.197
X509.447
X509.501 Z-34.199
X509.555 Y6.213 Z-34.204
X509.608 Y6.215 Z-34.213
X509.661 Y6.217 Z-34.226
X509.713 Y6.22 Z-34.242
X509.764 Y6.223 Z-34.262
X509.813 Y6.227 Z-34.285
X509.86 Y6.232 Z-34.311
X509.906 Y6.237 Z-34.34
X509.949 Y6.242 Z-34.373
X509.99 Y6.248 Z-34.408
X510.028 Y6.255 Z-34.446
X510.064 Y6.262 Z-34.486
X510.097 Y6.269 Z-34.529
X510.127 Y6.277 Z-34.574
X510.153 Y6.285 Z-34.62
X510.177 Y6.293 Z-34.669
X510.197 Y6.302 Z-34.719
X510.213 Y6.311 Z-34.77
X510.226 Y6.32 Z-34.822
X510.235 Y6.329 Z-34.875
X510.241 Y6.338 Z-34.928
X510.242 Y6.347 Z-34.981
X510.241 Y6.356 Z-35.035
X510.235 Y6.365 Z-35.088
X510.226 Y6.375 Z-35.141
X510.213 Y6.384 Z-35.193
X510.197 Y6.392 Z-35.244
X510.177 Y6.401 Z-35.294
X510.153 Y6.409 Z-35.342
X510.127 Y6.417 Z-35.389
X510.097 Y6.425 Z-35.434
X510.064 Y6.432 Z-35.476
X510.028 Y6.439 Z-35.517
X509.99 Y6.446 Z-35.555
X509.949 Y6.452 Z-35.59
X509.906 Y6.457 Z-35.622
X509.86 Y6.462 Z-35.652
X509.813 Y6.467 Z-35.678
X509.764 Y6.471 Z-35.701
X509.713 Y6.474 Z-35.72
X509.661 Y6.477 Z-35.737
X509.608 Y6.479 Z-35.749
X509.555 Y6.481 Z-35.758
X509.501 Y6.482 Z-35.764
X509.447 Z-35.766
X509.303 Z-35.799
X509.184 Z-35.831
X509.062 Z-35.817
G2 X314.857 Z-1.884 I-221.034 K-692.327
X77.33 Z-32.979 I-26.021 K-723.996
X29.833 Z-49.275 I206.218 K-678.416
G1 X29.702 Z-49.296
X29.574 Z-49.263
X29.431 Z-49.23
X24.685
X24.624 Z-49.232
X24.564 Y6.483 Z-49.238
X24.503 Y6.485 Z-49.248
X24.444 Y6.487 Z-49.261
X24.386 Y6.489 Z-49.279
X24.329 Y6.492 Z-49.3
X24.273 Y6.496 Z-49.325
X24.22 Y6.5 Z-49.353
X24.168 Y6.505 Z-49.385
X24.118 Y6.51 Z-49.42
X24.071 Y6.516 Z-49.458
X24.027 Y6.522 Z-49.5
X23.985 Y6.528 Z-49.544
X23.947 Y6.535 Z-49.59
X23.911 Y6.542 Z-49.639
X23.879 Y6.55 Z-49.69
X23.85 Y6.557 Z-49.744
X23.825 Y6.565 Z-49.798
X23.804 Y6.574 Z-49.855
X23.786 Y6.582 Z-49.912
X23.772 Y6.591 Z-49.971
X23.762 Y6.599 Z-50.031
X23.756 Y6.608 Z-50.091
X23.754 Y6.617 Z-50.151
X23.756 Y6.626 Z-50.211
X23.762 Y6.635 Z-50.271
X23.772 Y6.643 Z-50.33
X23.786 Y6.652 Z-50.389
X23.804 Y6.661 Z-50.447
X23.825 Y6.669 Z-50.503
X23.85 Y6.677 Z-50.558
X23.879 Y6.685 Z-50.611
X23.911 Y6.692 Z-50.662
X23.947 Y6.699 Z-50.711
X23.985 Y6.706 Z-50.758
X24.027 Y6.713 Z-50.802
X24.071 Y6.719 Z-50.843
X24.118 Y6.724 Z-50.881
X24.168 Y6.729 Z-50.916
X24.22 Y6.734 Z-50.948
X24.273 Y6.738 Z-50.977
X24.329 Y6.742 Z-51.002
X24.386 Y6.745 Z-51.023
X24.444 Y6.748 Z-51.04
X24.503 Y6.75 Z-51.054
X24.564 Y6.751 Z-51.064
X24.624 Y6.752 Z-51.07
X24.685 Z-51.072
X24.828 Z-51.105
X24.957 Z-51.138
X25.089 Z-51.116
G3 X278.177 Z-1.487 I263.951 K-675.908
X367.108 Z-5.703 I10.278 K-723.207
X513.899 Z-37.383 I-79.311 K-723.409
G1 X514.022 Z-37.4
X514.142 Z-37.369
X514.285 Z-37.336
X519.051
X519.106 Z-37.338
X519.16 Y6.753 Z-37.343
X519.214 Y6.755 Z-37.353
X519.268 Y6.757 Z-37.365
X519.32 Y6.76 Z-37.382
X519.371 Y6.763 Z-37.402
X519.42 Y6.767 Z-37.425
X519.468 Y6.772 Z-37.451
X519.514 Y6.777 Z-37.481
X519.558 Y6.782 Z-37.514
X519.599 Y6.788 Z-37.549
X519.638 Y6.795 Z-37.587
X519.674 Y6.802 Z-37.628
X519.707 Y6.809 Z-37.671
X519.737 Y6.817 Z-37.716
X519.764 Y6.825 Z-37.763
X519.787 Y6.833 Z-37.812
X519.808 Y6.842 Z-37.863
X519.824 Y6.851 Z-37.914
X519.837 Y6.86 Z-37.967
X519.846 Y6.869 Z-38.02
X519.852 Y6.878 Z-38.074
X519.854 Y6.887 Z-38.128
X519.852 Y6.896 Z-38.182
X519.846 Y6.905 Z-38.235
X519.837 Y6.915 Z-38.289
X519.824 Y6.924 Z-38.341
X519.808 Y6.932 Z-38.393
X519.787 Y6.941 Z-38.443
X519.764 Y6.949 Z-38.492
X519.737 Y6.957 Z-38.539
X519.707 Y6.965 Z-38.584
X519.674 Y6.972 Z-38.627
X519.638 Y6.979 Z-38.668
X519.599 Y6.986 Z-38.706
X519.558 Y6.992 Z-38.742
X519.514 Y6.997 Z-38.774
X519.468 Y7.002 Z-38.804
X519.42 Y7.007 Z-38.831
X519.371 Y7.011 Z-38.854
X519.32 Y7.014 Z-38.874
X519.268 Y7.017 Z-38.89
X519.214 Y7.019 Z-38.903
X519.16 Y7.021 Z-38.912
X519.106 Y7.022 Z-38.917
X519.051 Z-38.919
X518.908 Z-38.952
X518.787 Z-38.985
X518.662 Z-38.969
G2 X314.836 Z-1.891 I-230.627 K-689.032
X89.543 Z-29.383 I-26.02 K-723.65
X20.46 Z-52.951 I196.316 K-688.479
G1 X20.327 Z-52.973
X20.197 Z-52.939
X20.054 Z-52.906
X16.695
X16.643 Z-52.908
X16.591 Y7.024 Z-52.914
X16.541 Y7.025 Z-52.923
X16.491 Y7.028 Z-52.936
X16.442 Y7.031 Z-52.953
X16.394 Y7.035 Z-52.974
X16.349 Y7.04 Z-52.997
X16.305 Y7.046 Z-53.024
X16.263 Y7.052 Z-53.054
X16.224 Y7.058 Z-53.088
X16.187 Y7.065 Z-53.123
X16.153 Y7.073 Z-53.162
X16.123 Y7.081 Z-53.203
X16.095 Y7.09 Z-53.246
X16.071 Y7.099 Z-53.291
X16.05 Y7.108 Z-53.337
X16.033 Y7.117 Z-53.385
X16.02 Y7.127 Z-53.434
X16.01 Y7.137 Z-53.484
X16.004 Y7.147 Z-53.535
X16.002 Y7.157 Z-53.585
X16.004 Y7.167 Z-53.636
X16.01 Y7.177 Z-53.686
X16.02 Y7.187 Z-53.736
X16.033 Y7.197 Z-53.785
X16.05 Y7.206 Z-53.833
X16.071 Y7.216 Z-53.88
X16.095 Y7.225 Z-53.925
X16.123 Y7.233 Z-53.968
X16.153 Y7.241 Z-54.009
X16.187 Y7.249 Z-54.047
X16.224 Y7.256 Z-54.083
X16.263 Y7.263 Z-54.116
X16.305 Y7.269 Z-54.146
X16.349 Y7.274 Z-54.173
X16.394 Y7.279 Z-54.197
X16.442 Y7.283 Z-54.217
X16.491 Y7.286 Z-54.234
X16.541 Y7.289 Z-54.247
X16.591 Y7.291 Z-54.257
X16.643 Y7.292 Z-54.262
X16.695 Z-54.264
X16.838 Z-54.297
X16.969 Z-54.33
X17.102 Z-54.307
G3 X278.363 Z-1.493 I271.907 K-672.459
X507.68 Z-35.404 I9.979 K-724.819
X523.274 Z-40.537 I-187.999 K-597.455
G1 X523.4 Z-40.553
X523.522 Z-40.52
X523.665 Z-40.487
X528.247
X528.302 Z-40.489
X528.357 Y7.293 Z-40.494
X528.411 Y7.295 Z-40.504
X528.464 Y7.297 Z-40.517
X528.517 Y7.3 Z-40.533
X528.568 Y7.303 Z-40.553
X528.618 Y7.307 Z-40.576
X528.666 Y7.312 Z-40.603
X528.712 Y7.317 Z-40.633
X528.756 Y7.322 Z-40.665
X528.797 Y7.328 Z-40.701
X528.836 Y7.335 Z-40.74
X528.873 Y7.342 Z-40.781
X528.906 Y7.349 Z-40.824
X528.936 Y7.357 Z-40.869
X528.963 Y7.365 Z-40.917
X528.987 Y7.373 Z-40.966
X529.007 Y7.382 Z-41.016
X529.024 Y7.391 Z-41.068
X529.037 Y7.4 Z-41.121
X529.046 Y7.409 Z-41.174
X529.052 Y7.418 Z-41.228
X529.054 Y7.427 Z-41.283
X529.052 Y7.436 Z-41.337
X529.046 Y7.445 Z-41.391
X529.037 Y7.455 Z-41.444
X529.024 Y7.464 Z-41.497
X529.007 Y7.472 Z-41.549
X528.987 Y7.481 Z-41.6
X528.963 Y7.489 Z-41.649
X528.936 Y7.497 Z-41.696
X528.906 Y7.505 Z-41.741
X528.873 Y7.512 Z-41.785
X528.836 Y7.519 Z-41.826
X528.797 Y7.526 Z-41.864
X528.756 Y7.532 Z-41.9
X528.712 Y7.537 Z-41.933
X528.666 Y7.542 Z-41.962
X528.618 Y7.547 Z-41.989
X528.568 Y7.551 Z-42.012
X528.517 Y7.554 Z-42.032
X528.464 Y7.557 Z-42.049
X528.411 Y7.559 Z-42.062
X528.357 Y7.561 Z-42.071
X528.302 Y7.562 Z-42.076
X528.247 Z-42.078
X528.104 Z-42.111
X527.98 Z-42.144
X527.854 Z-42.126
G2 X314.697 Z-1.893 I-239.825 K-685.825
X81.621 Z-31.707 I-25.872 K-723.718
X17.121 Z-54.307 I203.53 K-684.214
G1 X16.987 Z-54.33
X16.856 Z-54.297
X16.713 Z-54.264
X16.634 Y7.588
X16.584 Y7.655
Y7.739
X16.634 Y7.806
X16.713 Y7.832
X16.73
X16.873 Z-54.297
X17.004 Z-54.33
X17.138 Z-54.306
X17.139
G3 X278.791 Z-1.493 I271.87 K-672.376
X511.843 Z-36.75 I9.536 K-724.844
X532.308 Z-43.708 I-204.462 K-634.966
G1 X532.435 Z-43.725
X532.559 Z-43.692
X532.702 Z-43.659
X537.076
X537.131 Z-43.661
X537.185 Y7.833 Z-43.666
X537.239 Y7.835 Z-43.676
X537.292 Y7.837 Z-43.688
X537.345 Y7.84 Z-43.705
X537.396 Y7.843 Z-43.725
X537.445 Y7.847 Z-43.748
X537.493 Y7.852 Z-43.774
X537.539 Y7.857 Z-43.804
X537.583 Y7.862 Z-43.837
X537.624 Y7.868 Z-43.872
X537.663 Y7.875 Z-43.91
X537.699 Y7.882 Z-43.951
X537.732 Y7.889 Z-43.994
X537.762 Y7.897 Z-44.04
X537.789 Y7.905 Z-44.087
X537.813 Y7.913 Z-44.135
X537.833 Y7.922 Z-44.186
X537.849 Y7.931 Z-44.237
X537.862 Y7.94 Z-44.29
X537.872 Y7.949 Z-44.343
X537.877 Y7.958 Z-44.397
X537.879 Y7.967 Z-44.451
X537.877 Y7.976 Z-44.505
X537.872 Y7.985 Z-44.559
X537.862 Y7.995 Z-44.612
X537.849 Y8.004 Z-44.665
X537.833 Y8.012 Z-44.716
X537.813 Y8.021 Z-44.767
X537.789 Y8.029 Z-44.815
X537.762 Y8.037 Z-44.863
X537.732 Y8.045 Z-44.908
X537.699 Y8.052 Z-44.951
X537.663 Y8.059 Z-44.992
X537.624 Y8.066 Z-45.03
X537.583 Y8.072 Z-45.065
X537.539 Y8.077 Z-45.098
X537.493 Y8.082 Z-45.128
X537.445 Y8.087 Z-45.154
X537.396 Y8.091 Z-45.177
X537.345 Y8.094 Z-45.197
X537.292 Y8.097 Z-45.214
X537.239 Y8.099 Z-45.226
X537.185 Y8.101 Z-45.236
X537.131 Y8.102 Z-45.241
X537.076 Z-45.243
X536.933 Z-45.276
X536.807 Z-45.309
X536.679 Z-45.29
G2 X314.77 Z-1.903 I-248.655 K-682.597
X279.075 Z-1.5 I-26.189 K-738.203
G1 X274.044 Z-1.584
G2 X17.155 Z-54.3 I14.948 K-725.108
G1 X17.024 Z-54.326
X16.892 Z-54.296
X16.891
X16.748 Z-54.262
X16.669 Y8.128
X16.62 Y8.195
Y8.279
X16.669 Y8.346
X16.748 Y8.372
X16.768
X16.911 Z-54.296
X17.042 Z-54.329
X17.175 Z-54.305
G3 X274.23 Z-1.583 I271.791 K-672.143
G1 X279.273 Z-1.501
G3 X473.994 Z-25.634 I9.199 K-723.421
X540.969 Z-46.878 I-183.388 K-694.356
G1 X541.099 Z-46.896
X541.225 Z-46.862
X541.368 Z-46.829
X545.584
X545.639 Z-46.831
X545.694 Y8.373 Z-46.837
X545.748 Y8.375 Z-46.846
X545.802 Y8.377 Z-46.859
X545.854 Y8.38 Z-46.875
X545.906 Y8.383 Z-46.895
X545.955 Y8.387 Z-46.918
X546.003 Y8.392 Z-46.945
X546.049 Y8.397 Z-46.975
X546.093 Y8.402 Z-47.007
X546.135 Y8.408 Z-47.043
X546.173 Y8.415 Z-47.082
X546.21 Y8.422 Z-47.122
X546.243 Y8.429 Z-47.166
X546.273 Y8.437 Z-47.211
X546.3 Y8.445 Z-47.258
X546.324 Y8.453 Z-47.307
X546.344 Y8.462 Z-47.358
X546.361 Y8.471 Z-47.409
X546.374 Y8.48 Z-47.462
X546.383 Y8.489 Z-47.516
X546.389 Y8.498 Z-47.57
X546.39 Y8.507 Z-47.624
X546.389 Y8.516 Z-47.678
X546.383 Y8.525 Z-47.732
X546.374 Y8.535 Z-47.786
X546.361 Y8.544 Z-47.838
X546.344 Y8.552 Z-47.89
X546.324 Y8.561 Z-47.94
X546.3 Y8.569 Z-47.989
X546.273 Y8.577 Z-48.037
X546.243 Y8.585 Z-48.082
X546.21 Y8.592 Z-48.125
X546.173 Y8.599 Z-48.166
X546.135 Y8.606 Z-48.205
X546.093 Y8.612 Z-48.24
X546.049 Y8.617 Z-48.273
X546.003 Y8.622 Z-48.303
X545.955 Y8.627 Z-48.329
X545.906 Y8.631 Z-48.353
X545.854 Y8.634 Z-48.373
X545.802 Y8.637 Z-48.389
X545.748 Y8.639 Z-48.402
X545.694 Y8.641 Z-48.411
X545.639 Y8.642 Z-48.417
X545.584 Z-48.418
X545.441 Z-48.452
X545.314 Z-48.484
X545.184 Z-48.464
G2 X310.511 Z-1.767 I-257.137 K-679.216
X208.751 Z-5.884 I-21.732 K-722.631
X23.558 Z-51.753 I80.503 K-721.8
G1 X19.543 Z-53.356
X17.194 Z-54.305
X17.06 Z-54.328
X16.929 Z-54.295
X16.786 Z-54.262
X16.707 Y8.668
X16.657 Y8.735
Y8.819
X16.707 Y8.886
X16.786 Y8.912
X16.803
X16.946 Z-54.295
X17.077 Z-54.328
X17.211 Z-54.305
X17.212 Z-54.304
G3 X279.612 Z-1.497 I271.787 K-672.178
X511.934 Z-36.805 I8.71 K-724.674
X549.325 Z-50.057 I-216.11 K-669.121
G1 X549.456 Z-50.077
X549.584 Z-50.043
X549.727 Z-50.01
X553.8
X553.855 Z-50.012
X553.91 Y8.913 Z-50.017
X553.964 Y8.915 Z-50.027
X554.018 Y8.917 Z-50.04
X554.07 Y8.92 Z-50.056
X554.121 Y8.923 Z-50.076
X554.171 Y8.927 Z-50.099
X554.219 Y8.932 Z-50.126
X554.266 Y8.937 Z-50.156
X554.31 Y8.942 Z-50.189
X554.351 Y8.948 Z-50.225
X554.39 Y8.955 Z-50.263
X554.426 Y8.962 Z-50.304
X554.46 Y8.969 Z-50.347
X554.49 Y8.977 Z-50.393
X554.517 Y8.985 Z-50.44
X554.541 Y8.993 Z-50.489
X554.561 Y9.002 Z-50.54
X554.578 Y9.011 Z-50.592
X554.591 Y9.02 Z-50.645
X554.6 Y9.029 Z-50.698
X554.606 Y9.038 Z-50.752
X554.608 Y9.047 Z-50.807
X554.606 Y9.056 Z-50.861
X554.6 Y9.065 Z-50.915
X554.591 Y9.075 Z-50.969
X554.578 Y9.084 Z-51.022
X554.561 Y9.092 Z-51.074
X554.541 Y9.101 Z-51.124
X554.517 Y9.109 Z-51.173
X554.49 Y9.117 Z-51.221
X554.46 Y9.125 Z-51.266
X554.426 Y9.132 Z-51.309
X554.39 Y9.139 Z-51.35
X554.351 Y9.146 Z-51.389
X554.31 Y9.152 Z-51.425
X554.266 Y9.157 Z-51.458
X554.219 Y9.162 Z-51.487
X554.171 Y9.167 Z-51.514
X554.121 Y9.171 Z-51.537
X554.07 Y9.174 Z-51.557
X554.018 Y9.177 Z-51.574
X553.964 Y9.179 Z-51.587
X553.91 Y9.181 Z-51.596
X553.855 Y9.182 Z-51.602
X553.8 Z-51.603
X553.657 Z-51.637
X553.527 Z-51.669
X553.396 Z-51.648
G2 X310.559 Z-1.777 I-265.326 K-675.798
X60.649 Z-38.342 I-21.696 K-724.013
X17.23 Z-54.304 I221.496 K-669.541
G1 X17.097 Z-54.327
X16.965 Z-54.294
X16.822 Z-54.261
X16.743 Y9.208
X16.694 Y9.275
Y9.359
X16.743 Y9.426
X16.822 Y9.452
X16.84
X16.983 Z-54.294
X17.114 Z-54.327
X17.247 Z-54.304
X17.248 Z-54.303
G3 X280.254 Z-1.496 I271.747 K-672.088
X524.315 Z-40.953 I8.044 K-724.805
X557.398 Z-53.244 I-226.736 K-660.967
G1 X557.531 Z-53.266
X557.662 Z-53.232
X557.805 Z-53.199
X560.303
X560.349 Y9.453 Z-53.2
X560.394 Y9.454 Z-53.206
X560.439 Y9.457 Z-53.216
X560.483 Y9.46 Z-53.229
X560.525 Y9.465 Z-53.246
X560.566 Y9.47 Z-53.267
X560.604 Y9.477 Z-53.29
X560.641 Y9.484 Z-53.317
X560.674 Y9.492 Z-53.347
X560.705 Y9.5 Z-53.38
X560.733 Y9.51 Z-53.415
X560.758 Y9.52 Z-53.452
X560.779 Y9.53 Z-53.492
X560.796 Y9.541 Z-53.533
X560.81 Y9.552 Z-53.575
X560.82 Y9.564 Z-53.618
X560.826 Y9.575 Z-53.662
X560.828 Y9.587 Z-53.706
X560.826 Y9.599 Z-53.75
X560.82 Y9.611 Z-53.794
X560.81 Y9.622 Z-53.837
X560.796 Y9.633 Z-53.88
X560.779 Y9.644 Z-53.921
X560.758 Y9.655 Z-53.96
X560.733 Y9.665 Z-53.997
X560.705 Y9.674 Z-54.032
X560.674 Y9.683 Z-54.065
X560.641 Y9.691 Z-54.095
X560.604 Y9.698 Z-54.122
X560.566 Y9.704 Z-54.146
X560.525 Y9.709 Z-54.166
X560.483 Y9.714 Z-54.183
X560.439 Y9.717 Z-54.196
X560.394 Y9.72 Z-54.206
X560.349 Y9.722 Z-54.212
X560.303 Z-54.214
X560.16 Z-54.247
X560.029 Z-54.28
X559.895 Z-54.256
G2 X310.444 Z-1.782 I-271.784 K-672.845
X176.027 Z-10.305 I-21.708 K-721.826
G1 X170.977 Z-11.122
G2 X17.264 Z-54.296 I118.042 K-715.49
G1 X17.133 Z-54.322
X17.002 Z-54.293
X16.859 Z-54.26
X16.78 Y9.748
X16.73 Y9.815
Y9.899
X16.78 Y9.966
X16.859 Y9.992
X16.876
X17.019 Z-54.293
X17.15 Z-54.326
X17.284 Z-54.303
X17.285 Z-54.302
G3 X280.618 Z-1.499 I271.709 K-671.999
X536.635 Z-45.33 I7.66 K-724.877
X559.877 Z-54.257 I-231.958 K-638.641
G1 X559.878
X560.012 Z-54.281
X560.143 Z-54.248
Z-54.247
X560.286 Z-54.214
X560.365 Y10.018
X560.414 Y10.085
Y10.169
X560.365 Y10.236
X560.286 Y10.262
X560.267
X560.124 Z-54.247
X559.993 Z-54.28
X559.86 Z-54.257
G2 X310.539 Z-1.792 I-271.757 K-672.786
X89.407 Z-29.484 I-21.73 K-723.24
X17.303 Z-54.302 I196.568 K-688.238
G1 X17.17 Z-54.325
X17.038 Z-54.292
X17.037
X16.894 Z-54.259
X16.815 Y10.288
X16.766 Y10.355
Y10.439
X16.815 Y10.506
X16.894 Y10.532
X16.914
X17.057 Z-54.292
X17.188 Z-54.325
X17.321 Z-54.301
G3 X280.864 Z-1.504 I271.666 K-671.889
X552.978 Z-51.525 I7.399 K-724.896
G1 X557.05 Z-53.133
X559.842 Z-54.258
X559.843
X559.976 Z-54.281
X560.107 Z-54.248
X560.25 Z-54.215
X560.329 Y10.558
X560.379 Y10.625
Y10.709
X560.329 Y10.776
X560.25 Y10.802
X560.231
X560.088 Z-54.248
X559.957 Z-54.281
X559.824 Z-54.258
G2 X310.503 Z-1.798 I-271.725 K-672.709
X186.064 Z-8.809 I-21.774 K-721.388
G1 X180.976 Z-9.558
X176.163 Z-10.3
X171.113 Z-11.115
G2 X17.337 Z-54.294 I117.913 K-715.352
G1 X17.206 Z-54.321
X17.075 Z-54.292
X16.932 Z-54.258
X16.853 Y10.828
X16.803 Y10.895
Y10.979
X16.853 Y11.046
X16.932 Y11.072
X16.949
X17.092 Z-54.292
X17.223 Z-54.324
X17.357 Z-54.301
X17.358
G3 X175.904 Z-10.345 I271.521 K-671.455
G1 X180.987 Z-9.56
X186.076 Z-8.811
G3 X431.863 Z-15.857 I102.545 K-713.341
X559.807 Z-54.256 I-142.996 K-708.809
G1 Z-54.259
X559.94 Z-54.282
X560.071 Z-54.249
X560.214 Z-54.216
X560.294 Y11.098
X560.343 Y11.165
Y11.249
X560.294 Y11.316
X560.214 Y11.342
X560.195
X560.052 Z-54.249
X559.921 Z-54.282
X559.788 Z-54.259
G2 X310.466 Z-1.804 I-271.698 K-672.653
X186.031 Z-8.821 I-21.735 K-721.363
G1 X180.942 Z-9.57
X176.129 Z-10.313
X171.079 Z-11.129
G2 X103.453 Z-25.624 I118.445 K-717.578
G1 X98.513 Z-26.951
G2 X17.375 Z-54.298 I189.571 K-696.512
G1 X17.243 Z-54.322
X17.111 Z-54.291
X16.968 Z-54.257
X16.889 Y11.368
X16.84 Y11.435
Y11.519
X16.889 Y11.586
X16.968 Y11.612
X16.986
X17.129 Z-54.291
X17.26 Z-54.324
X17.393 Z-54.3
X17.394
G3 X98.471 Z-26.968 I270.367 K-668.097
G1 X103.411 Z-25.64
G3 X137.038 Z-17.588 I186.592 K-704.982
G1 X142.071 Z-16.527
X147.111 Z-15.503
G3 X171.064 Z-11.136 I142.169 K-711.915
G1 X176.114 Z-10.32
X180.926 Z-9.577
X185.744 Z-8.866
X190.837 Z-8.151
G3 X431.827 Z-15.859 I97.784 K-713.896
X559.771 Z-54.257 I-142.975 K-708.767
G1 Z-54.259
X559.904 Z-54.283
X560.035 Z-54.25
X560.178 Z-54.216
X560.258 Y11.638
X560.307 Y11.705
Y11.789
X560.258 Y11.856
X560.178 Y11.882
X560.16
X560.017 Z-54.25
X559.886 Z-54.283
X559.752 Z-54.259
G2 X310.572 Z-1.814 I-271.667 K-672.576
X190.874 Z-8.15 I-21.842 K-721.244
G1 X185.781 Z-8.865
X180.963 Z-9.575
X176.151 Z-10.318
X171.1 Z-11.133
G2 X151.953 Z-14.557 I117.996 K-715.213
G1 X146.906 Z-15.547
X141.867 Z-16.574
G2 X103.475 Z-25.628 I147.915 K-713.079
G1 X98.534 Z-26.956
G2 X17.411 Z-54.296 I189.555 K-696.446
G1 X17.279 Z-54.321
X17.148 Z-54.29
X17.005 Z-54.257
X16.926 Y11.908
X16.876 Y11.975
Y12.059
X16.926 Y12.126
X17.005 Y12.152
X17.022
X17.165 Z-54.29
X17.296 Z-54.323
X17.43 Z-54.299
X17.431
G3 X137.005 Z-17.604 I271.042 K-670.053
G1 X142.011 Z-16.548
X146.783 Z-15.576
X151.83 Z-14.585
G3 X171.031 Z-11.149 I137.34 K-712.198
G1 X176.081 Z-10.333
X180.894 Z-9.59
X185.711 Z-8.879
X190.805 Z-8.163
G3 X426.96 Z-14.9 I97.812 K-713.715
X559.736 Z-54.257 I-138.295 K-710.213
G1 X559.735 Z-54.26
X559.868 Z-54.283
X560 Z-54.25
X560.143 Z-54.217
X560.222 Y12.178
X560.271 Y12.245
Y12.329
X560.222 Y12.396
X560.143 Y12.422
X560.124
X559.981 Z-54.25
X559.85 Z-54.283
X559.717 Z-54.26
G2 X310.537 Z-1.82 I-271.637 K-672.505
X190.845 Z-8.161 I-21.805 K-721.221
G1 X185.751 Z-8.877
X180.934 Z-9.587
X176.121 Z-10.33
X171.071 Z-11.146
X166.242 Z-11.96
X161.445 Z-12.802
X156.654 Z-13.675
X151.601 Z-14.633
X146.823 Z-15.573
X142.051 Z-16.544
X137.018 Z-17.606
G2 X65.524 Z-36.803 I152.214 K-709.609
G1 X60.663 Z-38.398
G2 X17.449 Z-54.297 I226.303 K-681.793
G1 X17.316 Z-54.321
X17.184 Z-54.289
X17.041 Z-54.256
X16.962 Y12.448
X16.913 Y12.515
Y12.599
X16.962 Y12.666
X17.041 Y12.692
X17.059
X17.202 Z-54.289
X17.333 Z-54.322
X17.466 Z-54.298
X17.467
G3 X98.592 Z-26.955 I270.35 K-668.092
G1 X103.532 Z-25.628
X108.244 Z-24.398
X113.23 Z-23.133
G3 X132.188 Z-18.664 I175.956 K-703.904
G1 X137.186 Z-17.574
X141.952 Z-16.569
X146.723 Z-15.597
X151.77 Z-14.605
X156.555 Z-13.698
X161.345 Z-12.824
X166.384 Z-11.94
X171.214 Z-11.127
X176.021 Z-10.351
X180.834 Z-9.607
X185.922 Z-8.856
G3 X432.024 Z-15.917 I102.692 K-713.072
X559.7 Z-54.258 I-143.229 K-708.712
G1 Z-54.261
X559.833 Z-54.284
X559.964 Z-54.251
X560.107 Z-54.218
X560.186 Y12.718
X560.235 Y12.785
Y12.869
X560.186 Y12.936
X560.107 Y12.962
X560.088
X559.945 Z-54.251
X559.814 Z-54.284
X559.681 Z-54.261
G2 X310.644 Z-1.831 I-271.604 K-672.422
X181.081 Z-9.573 I-21.91 K-721.287
G1 X175.998 Z-10.358
X171.191 Z-11.135
X166.361 Z-11.948
X161.322 Z-12.832
X156.532 Z-13.707
X151.747 Z-14.613
X146.968 Z-15.552
X141.928 Z-16.579
X137.163 Z-17.583
X132.405 Z-18.62
X127.654 Z-19.688
X122.671 Z-20.845
X117.962 Z-21.972
X113.234 Z-23.137
X108.248 Z-24.402
X103.536 Z-25.632
X98.596 Z-26.959
G2 X70.277 Z-35.292 I190.75 K-700.534
G1 X65.379 Z-36.862
G2 X17.485 Z-54.296 I221.934 K-684.178
G1 X17.352 Z-54.32
X17.221 Z-54.288
X17.078 Z-54.255
X16.999 Y12.988
X16.949 Y13.055
Y13.139
X16.999 Y13.206
X17.078 Y13.232
X17.095
X17.238 Z-54.288
X17.369 Z-54.321
X17.503 Z-54.297
X17.504
G3 X103.345 Z-25.688 I270.366 K-668.143
G1 X108.321 Z-24.388
X113.042 Z-23.19
X118.036 Z-21.959
X122.772 Z-20.826
X127.515 Z-19.725
X132.266 Z-18.655
X137.264 Z-17.566
X142.029 Z-16.562
X146.801 Z-15.59
X151.579 Z-14.65
X156.633 Z-13.692
X161.423 Z-12.818
X166.22 Z-11.976
X171.292 Z-11.122
X176.099 Z-10.346
X180.912 Z-9.603
X185.729 Z-8.892
X190.823 Z-8.176
G3 X431.988 Z-15.919 I97.792 K-713.632
X559.664 Z-54.259 I-143.182 K-708.579
G1 Z-54.261
X559.797 Z-54.285
X559.928 Z-54.252
X560.071 Z-54.218
X560.151 Y13.258
X560.2 Y13.325
Y13.409
X560.151 Y13.476
X560.071 Y13.502
X560.052
X559.909 Z-54.252
X559.778 Z-54.285
X559.645 Z-54.261
G2 X310.599 Z-1.836 I-271.569 K-672.331
X190.831 Z-8.178 I-21.87 K-721.037
G1 X185.737 Z-8.895
X180.892 Z-9.61
X176.079 Z-10.353
X171.272 Z-11.129
X166.2 Z-11.984
X161.404 Z-12.826
X156.613 Z-13.7
X151.828 Z-14.606
X146.782 Z-15.598
X142.01 Z-16.57
X137.245 Z-17.574
X132.247 Z-18.664
X127.496 Z-19.734
X122.752 Z-20.835
X118.016 Z-21.968
X113.022 Z-23.199
X108.302 Z-24.398
X103.59 Z-25.628
X98.649 Z-26.954
G2 X17.521 Z-54.294 I189.405 K-696.081
G1 X17.389 Z-54.319
X17.257 Z-54.287
X17.114 Z-54.254
X17.035 Y13.528
X16.986 Y13.595
Y13.679
X17.035 Y13.746
X17.114 Y13.772
X17.132
X17.275 Z-54.287
X17.406 Z-54.32
X17.539 Z-54.297
X17.54 Z-54.296
G3 X65.389 Z-36.876 I269.268 K-665.172
G1 X70.287 Z-35.305
X75.196 Z-33.771
G3 X98.605 Z-26.972 I213.439 K-691.171
G1 X103.545 Z-25.644
X108.257 Z-24.414
X112.977 Z-23.215
X117.971 Z-21.984
X122.707 Z-20.85
X127.45 Z-19.749
X132.441 Z-18.625
X137.199 Z-17.589
X141.964 Z-16.584
X146.736 Z-15.612
X151.783 Z-14.619
X156.567 Z-13.713
X161.358 Z-12.838
X166.396 Z-11.954
X171.226 Z-11.141
X176.033 Z-10.365
X180.874 Z-9.617
X185.962 Z-8.866
G3 X432.219 Z-15.976 I102.649 K-712.887
X559.628 Z-54.26 I-143.438 K-708.514
G1 Z-54.262
X559.761 Z-54.285
X559.892 Z-54.252
X560.035 Z-54.219
X560.115 Y13.798
X560.164 Y13.865
Y13.949
X560.115 Y14.016
X560.035 Y14.042
X560.017
X559.874 Z-54.252
X559.742 Z-54.285
X559.609 Z-54.262
G2 X310.561 Z-1.842 I-271.536 K-672.249
X185.974 Z-8.868 I-21.833 K-721.007
G1 X180.886 Z-9.619
G2 X161.557 Z-12.806 I108.471 K-718.025
G1 X156.497 Z-13.73
X151.712 Z-14.637
X146.934 Z-15.576
X141.922 Z-16.598
X137.129 Z-17.609
X132.371 Z-18.645
X127.62 Z-19.714
X122.637 Z-20.871
X117.901 Z-22.005
X113.173 Z-23.171
X108.187 Z-24.437
G2 X84.714 Z-30.908 I180.662 K-701.165
G1 X79.785 Z-32.376
X75.127 Z-33.797
X70.218 Z-35.333
X65.58 Z-36.819
X60.72 Z-38.414
G0 Z15
M5
M30
