(ZF_2_dug_lic_part_3)
(T6 D=6.5 CR=3.25 TAPER=4deg - ZMIN=-54.902 - tapered mill)
(Parallel2)
S24000 M3
G17
G0 X297.676 Y0.004
Z15
Z0.184
G1 Z-1.161 F90
X297.644 Z-1.363 F1000
X297.55 Z-1.545
X297.405 Z-1.689
X297.223 Z-1.781
X297.021 Z-1.811
G18 G2 X282.933 I-7.039 K-715.191 F4000
G1 X240.904 Z-2.198
X240.854 Y0.005 Z-2.2
X240.804 Y0.006 Z-2.207
X240.755 Y0.008 Z-2.217
X240.707 Y0.011 Z-2.23
X240.66 Y0.015 Z-2.248
X240.614 Y0.019 Z-2.269
X240.571 Y0.024 Z-2.293
X240.529 Y0.03 Z-2.321
X240.49 Y0.037 Z-2.352
X240.454 Y0.044 Z-2.385
X240.42 Y0.052 Z-2.422
X240.389 Y0.06 Z-2.46
X240.362 Y0.069 Z-2.501
X240.338 Y0.078 Z-2.545
X240.317 Y0.088 Z-2.589
X240.3 Y0.098 Z-2.635
X240.287 Y0.108 Z-2.683
X240.277 Y0.118 Z-2.731
X240.272 Y0.129 Z-2.78
X240.27 Y0.139 Z-2.829
X240.273 Y0.15 Z-2.878
X240.279 Y0.16 Z-2.927
X240.289 Y0.171 Z-2.975
X240.303 Y0.181 Z-3.022
X240.321 Y0.191 Z-3.068
X240.343 Y0.201 Z-3.112
X240.368 Y0.21 Z-3.155
X240.396 Y0.219 Z-3.195
X240.427 Y0.227 Z-3.233
X240.462 Y0.235 Z-3.269
X240.499 Y0.242 Z-3.302
X240.539 Y0.249 Z-3.332
X240.581 Y0.254 Z-3.359
X240.625 Y0.26 Z-3.383
X240.671 Y0.264 Z-3.403
X240.718 Y0.268 Z-3.419
X240.766 Y0.271 Z-3.432
X240.816 Y0.273 Z-3.441
X240.865 Y0.274 Z-3.447
X240.916 Z-3.448
G3 X333.768 Z-3.103 I49.101 K-720.233
G1 X339.093 Z-3.449
X359.212 Z-4.754
X359.241 Y0.276 Z-4.757
X359.269 Y0.279 Z-4.763
X359.296 Y0.285 Z-4.773
X359.321 Y0.292 Z-4.784
X359.344 Y0.302 Z-4.799
X359.365 Y0.314 Z-4.815
X359.383 Y0.327 Z-4.834
X359.398 Y0.342 Z-4.854
X359.409 Y0.358 Z-4.876
X359.417 Y0.374 Z-4.898
X359.421 Y0.392 Z-4.921
X359.422 Y0.409 Z-4.944
X359.418 Y0.427 Z-4.967
X359.411 Y0.444 Z-4.989
X359.401 Y0.461 Z-5.01
X359.386 Y0.477 Z-5.03
X359.369 Y0.492 Z-5.048
X359.349 Y0.505 Z-5.064
X359.326 Y0.516 Z-5.078
X359.301 Y0.526 Z-5.089
X359.275 Y0.534 Z-5.098
X359.247 Y0.54 Z-5.103
X359.218 Y0.543 Z-5.106
X359.189 Y0.544 Z-5.105
G2 X220.835 Z-5.102 I-69.196 K-718.204
G1 X205.217 Z-6.581
X205.193 Y0.546 Z-6.584
X205.17 Y0.55 Z-6.589
X205.148 Y0.557 Z-6.596
X205.128 Y0.566 Z-6.605
X205.11 Y0.577 Z-6.615
X205.094 Y0.591 Z-6.627
X205.081 Y0.606 Z-6.64
X205.07 Y0.623 Z-6.653
X205.063 Y0.641 Z-6.667
X205.059 Y0.66 Z-6.682
Y0.679 Z-6.696
X205.062 Y0.699 Z-6.71
X205.069 Y0.717 Z-6.724
X205.078 Y0.735 Z-6.736
X205.091 Y0.752 Z-6.748
X205.106 Y0.768 Z-6.758
X205.124 Y0.781 Z-6.766
X205.144 Y0.793 Z-6.773
X205.166 Y0.802 Z-6.778
X205.188 Y0.809 Z-6.78
X205.212 Y0.813 Z-6.781
X205.236 Y0.814 Z-6.78
G3 X374.791 Z-6.782 I84.768 K-716.537
G1 X387.844 Z-8.305
X387.868 Y0.816 Z-8.309
X387.891 Y0.821 Z-8.314
X387.913 Y0.829 Z-8.321
X387.932 Y0.84 Z-8.329
X387.949 Y0.854 Z-8.339
X387.964 Y0.87 Z-8.349
X387.975 Y0.888 Z-8.36
X387.983 Y0.908 Z-8.371
X387.987 Y0.928 Z-8.383
X387.988 Y0.949 Z-8.394
X387.985 Y0.97 Z-8.405
X387.978 Y0.991 Z-8.415
X387.968 Y1.011 Z-8.425
X387.954 Y1.029 Z-8.433
X387.938 Y1.045 Z-8.439
X387.919 Y1.059 Z-8.445
X387.898 Y1.07 Z-8.448
X387.875 Y1.078 Z-8.45
X387.852 Y1.083
X387.828 Y1.084 Z-8.448
G2 X192.198 Z-8.444 I-97.83 K-715.149
G1 X180.751 Z-10.017
X180.729 Y1.086 Z-10.02
X180.708 Y1.091 Z-10.025
X180.688 Y1.099 Z-10.03
X180.67 Y1.11 Z-10.036
X180.654 Y1.124 Z-10.043
X180.64 Y1.14 Z-10.049
X180.629 Y1.158 Z-10.057
X180.622 Y1.178 Z-10.064
X180.617 Y1.198 Z-10.071
Y1.219 Z-10.078
X180.619 Y1.24 Z-10.084
X180.625 Y1.261 Z-10.089
X180.634 Y1.281 Z-10.094
X180.647 Y1.299 Z-10.098
X180.662 Y1.315 Z-10.101
X180.679 Y1.329 Z-10.103
X180.698 Y1.34 Z-10.104
X180.719 Y1.348
X180.74 Y1.353 Z-10.102
X180.762 Y1.354 Z-10.1
G3 X399.26 Z-10.105 I109.233 K-713.981
G1 X409.641 Z-11.656
X409.664 Y1.356 Z-11.66
X409.686 Y1.361 Z-11.665
X409.707 Y1.369 Z-11.672
X409.725 Y1.38 Z-11.679
X409.742 Y1.394 Z-11.688
X409.756 Y1.41 Z-11.697
X409.766 Y1.428 Z-11.706
X409.774 Y1.448 Z-11.716
X409.778 Y1.468 Z-11.726
Y1.489 Z-11.735
X409.775 Y1.51 Z-11.744
X409.768 Y1.531 Z-11.752
X409.758 Y1.551 Z-11.759
X409.745 Y1.569 Z-11.765
X409.73 Y1.585 Z-11.769
X409.711 Y1.599 Z-11.773
X409.691 Y1.61 Z-11.774
X409.67 Y1.618 Z-11.775
X409.647 Y1.623 Z-11.773
X409.624 Y1.624 Z-11.771
G2 X170.395 Z-11.768 I-119.622 K-712.318
G1 X160.765 Z-13.386
X160.743 Y1.626 Z-13.39
X160.723 Y1.631 Z-13.395
X160.703 Y1.639 Z-13.4
X160.685 Y1.65 Z-13.406
X160.669 Y1.664 Z-13.412
X160.656 Y1.68 Z-13.418
X160.646 Y1.698 Z-13.424
X160.638 Y1.718 Z-13.43
X160.634 Y1.738 Z-13.436
X160.633 Y1.759 Z-13.441
X160.636 Y1.78 Z-13.446
X160.641 Y1.801 Z-13.45
X160.65 Y1.821 Z-13.453
X160.662 Y1.839 Z-13.456
X160.677 Y1.855 Z-13.457
X160.694 Y1.869 Z-13.458
X160.713 Y1.88 Z-13.457
X160.733 Y1.888 Z-13.456
X160.754 Y1.893 Z-13.453
X160.775 Y1.894 Z-13.45
G3 X419.24 Z-13.455 I129.219 K-710.846
G1 X419.343 Z-13.456
X419.441 Z-13.425
X419.584 Z-13.392
X428.576
X428.633 Y1.895 Z-13.394
X428.688 Y1.896 Z-13.399
X428.744 Y1.897 Z-13.408
X428.798 Y1.899 Z-13.421
X428.852 Y1.902 Z-13.437
X428.905 Y1.905 Z-13.456
X428.956 Y1.908 Z-13.479
X429.005 Y1.912 Z-13.505
X429.053 Y1.917 Z-13.535
X429.099 Y1.922 Z-13.567
X429.142 Y1.928 Z-13.602
X429.183 Y1.934 Z-13.64
X429.221 Y1.94 Z-13.68
X429.257 Y1.947 Z-13.723
X429.29 Y1.954 Z-13.768
X429.319 Y1.962 Z-13.815
X429.346 Y1.97 Z-13.864
X429.369 Y1.978 Z-13.915
X429.389 Y1.986 Z-13.967
X429.405 Y1.994 Z-14.02
X429.418 Y2.003 Z-14.074
X429.427 Y2.012 Z-14.128
X429.432 Y2.021 Z-14.184
X429.434 Y2.029 Z-14.239
X429.432 Y2.038 Z-14.294
X429.427 Y2.047 Z-14.349
X429.418 Y2.056 Z-14.404
X429.405 Y2.064 Z-14.458
X429.389 Y2.073 Z-14.511
X429.369 Y2.081 Z-14.563
X429.346 Y2.089 Z-14.614
X429.319 Y2.097 Z-14.662
X429.29 Y2.104 Z-14.709
X429.257 Y2.112 Z-14.755
X429.221 Y2.118 Z-14.797
X429.183 Y2.125 Z-14.838
X429.142 Y2.131 Z-14.876
X429.099 Y2.136 Z-14.911
X429.053 Y2.142 Z-14.943
X429.005 Y2.146 Z-14.972
X428.956 Y2.15 Z-14.999
X428.905 Y2.154 Z-15.021
X428.852 Y2.157 Z-15.041
X428.798 Y2.16 Z-15.057
X428.744 Y2.162 Z-15.07
X428.688 Y2.163 Z-15.079
X428.633 Y2.164 Z-15.084
X428.576 Z-15.086
X428.433 Z-15.119
X428.333 Z-15.149
X428.229 Z-15.146
G2 X151.797 Z-15.145 I-138.221 K-709.368
G1 X151.691 Z-15.146
X151.591 Z-15.114
X151.448 Z-15.081
X143.186
X143.128 Y2.165 Z-15.083
X143.071 Y2.166 Z-15.089
X143.014 Y2.167 Z-15.099
X142.959 Y2.169 Z-15.112
X142.904 Y2.172 Z-15.129
X142.85 Y2.176 Z-15.15
X142.798 Y2.179 Z-15.174
X142.748 Y2.184 Z-15.202
X142.7 Y2.189 Z-15.233
X142.655 Y2.195 Z-15.267
X142.611 Y2.201 Z-15.305
X142.571 Y2.207 Z-15.345
X142.533 Y2.214 Z-15.388
X142.498 Y2.222 Z-15.433
X142.467 Y2.229 Z-15.48
X142.438 Y2.237 Z-15.53
X142.414 Y2.246 Z-15.581
X142.393 Y2.254 Z-15.634
X142.375 Y2.263 Z-15.688
X142.362 Y2.272 Z-15.743
X142.352 Y2.281 Z-15.799
X142.346 Y2.29 Z-15.855
X142.344 Y2.299 Z-15.912
X142.346 Y2.309 Z-15.968
X142.352 Y2.318 Z-16.025
X142.362 Y2.327 Z-16.081
X142.375 Y2.336 Z-16.136
X142.393 Y2.345 Z-16.19
X142.414 Y2.353 Z-16.243
X142.438 Y2.361 Z-16.294
X142.467 Y2.369 Z-16.343
X142.498 Y2.377 Z-16.391
X142.533 Y2.385 Z-16.436
X142.571 Y2.391 Z-16.479
X142.611 Y2.398 Z-16.519
X142.655 Y2.404 Z-16.556
X142.7 Y2.41 Z-16.59
X142.748 Y2.415 Z-16.621
X142.798 Y2.419 Z-16.649
X142.85 Y2.423 Z-16.674
X142.904 Y2.427 Z-16.694
X142.959 Y2.429 Z-16.711
X143.014 Y2.432 Z-16.725
X143.071 Y2.433 Z-16.735
X143.128 Y2.434 Z-16.74
X143.186 Z-16.742
X143.329 Z-16.775
X143.431 Z-16.806
X143.537 Z-16.802
G3 X377.092 Z-7.076 I146.461 K-707.922
X436.483 Z-16.804 I-88.493 K-726.412
G1 X436.589 Z-16.809
X436.691 Z-16.779
X436.834 Z-16.746
X444.82
X444.876 Y2.435 Z-16.748
X444.932 Y2.436 Z-16.754
X444.988 Y2.437 Z-16.763
X445.042 Y2.439 Z-16.775
X445.096 Y2.442 Z-16.791
X445.149 Y2.445 Z-16.811
X445.2 Y2.448 Z-16.834
X445.25 Y2.452 Z-16.86
X445.298 Y2.457 Z-16.89
X445.344 Y2.462 Z-16.922
X445.387 Y2.468 Z-16.957
X445.428 Y2.474 Z-16.995
X445.467 Y2.48 Z-17.036
X445.503 Y2.487 Z-17.079
X445.535 Y2.494 Z-17.124
X445.565 Y2.502 Z-17.171
X445.592 Y2.51 Z-17.221
X445.615 Y2.518 Z-17.271
X445.635 Y2.526 Z-17.323
X445.651 Y2.534 Z-17.377
X445.664 Y2.543 Z-17.431
X445.673 Y2.552 Z-17.486
X445.679 Y2.561 Z-17.541
X445.681 Y2.569 Z-17.597
X445.679 Y2.578 Z-17.652
X445.673 Y2.587 Z-17.708
X445.664 Y2.596 Z-17.763
X445.651 Y2.604 Z-17.817
X445.635 Y2.613 Z-17.87
X445.615 Y2.621 Z-17.922
X445.592 Y2.629 Z-17.973
X445.565 Y2.637 Z-18.022
X445.535 Y2.644 Z-18.069
X445.503 Y2.652 Z-18.114
X445.467 Y2.658 Z-18.157
X445.428 Y2.665 Z-18.198
X445.387 Y2.671 Z-18.236
X445.344 Y2.676 Z-18.271
X445.298 Y2.682 Z-18.304
X445.25 Y2.686 Z-18.333
X445.2 Y2.69 Z-18.359
X445.149 Y2.694 Z-18.382
X445.096 Y2.697 Z-18.402
X445.042 Y2.7 Z-18.418
X444.988 Y2.702 Z-18.431
X444.932 Y2.703 Z-18.44
X444.876 Y2.704 Z-18.445
X444.82 Z-18.447
X444.677 Z-18.48
X444.573 Z-18.511
X444.465 Z-18.506
G2 X224.108 Z-4.818 I-154.499 K-706.666
X135.55 Z-18.5 I66.907 K-726.532
G1 X135.442 Z-18.506
X135.338 Z-18.477
X135.195 Z-18.444
X127.708
X127.65 Y2.705 Z-18.446
X127.593 Y2.706 Z-18.452
X127.535 Y2.707 Z-18.462
X127.479 Y2.709 Z-18.475
X127.424 Y2.712 Z-18.492
X127.37 Y2.716 Z-18.513
X127.317 Y2.719 Z-18.538
X127.267 Y2.724 Z-18.566
X127.218 Y2.729 Z-18.598
X127.172 Y2.735 Z-18.632
X127.128 Y2.741 Z-18.67
X127.087 Y2.747 Z-18.71
X127.049 Y2.754 Z-18.754
X127.014 Y2.762 Z-18.799
X126.982 Y2.769 Z-18.847
X126.953 Y2.777 Z-18.897
X126.929 Y2.786 Z-18.949
X126.907 Y2.794 Z-19.002
X126.89 Y2.803 Z-19.057
X126.876 Y2.812 Z-19.113
X126.866 Y2.821 Z-19.169
X126.86 Y2.83 Z-19.226
X126.858 Y2.839 Z-19.284
X126.86 Y2.849 Z-19.341
X126.866 Y2.858 Z-19.398
X126.876 Y2.867 Z-19.454
X126.89 Y2.876 Z-19.51
X126.907 Y2.885 Z-19.565
X126.929 Y2.893 Z-19.618
X126.953 Y2.901 Z-19.67
X126.982 Y2.909 Z-19.72
X127.014 Y2.917 Z-19.768
X127.049 Y2.925 Z-19.813
X127.087 Y2.931 Z-19.857
X127.128 Y2.938 Z-19.897
X127.172 Y2.944 Z-19.935
X127.218 Y2.95 Z-19.969
X127.267 Y2.955 Z-20.001
X127.317 Y2.959 Z-20.029
X127.37 Y2.963 Z-20.054
X127.424 Y2.967 Z-20.075
X127.479 Y2.969 Z-20.092
X127.535 Y2.972 Z-20.106
X127.593 Y2.973 Z-20.115
X127.65 Y2.974 Z-20.121
X127.708 Z-20.123
X127.852 Z-20.156
X127.957 Z-20.187
X128.068 Z-20.181
G3 X338.105 Z-3.411 I162.021 K-705.553
X451.954 Z-20.184 I-48.888 K-726.616
G1 X452.064 Z-20.191
X452.17 Z-20.161
X452.313 Z-20.128
X459.511
X459.57 Y2.975 Z-20.13
X459.628 Y2.976 Z-20.136
X459.685 Y2.977 Z-20.146
X459.742 Y2.979 Z-20.159
X459.798 Y2.982 Z-20.177
X459.852 Y2.986 Z-20.198
X459.905 Y2.989 Z-20.223
X459.956 Y2.994 Z-20.251
X460.005 Y2.999 Z-20.283
X460.052 Y3.005 Z-20.318
X460.096 Y3.011 Z-20.356
X460.137 Y3.017 Z-20.396
X460.175 Y3.024 Z-20.44
X460.211 Y3.031 Z-20.486
X460.243 Y3.039 Z-20.534
X460.272 Y3.047 Z-20.585
X460.297 Y3.056 Z-20.637
X460.318 Y3.064 Z-20.69
X460.336 Y3.073 Z-20.745
X460.35 Y3.082 Z-20.802
X460.36 Y3.091 Z-20.858
X460.366 Y3.1 Z-20.916
X460.368 Y3.109 Z-20.974
X460.366 Y3.119 Z-21.031
X460.36 Y3.128 Z-21.089
X460.35 Y3.137 Z-21.146
X460.336 Y3.146 Z-21.202
X460.318 Y3.155 Z-21.257
X460.297 Y3.163 Z-21.31
X460.272 Y3.171 Z-21.363
X460.243 Y3.179 Z-21.413
X460.211 Y3.187 Z-21.461
X460.175 Y3.195 Z-21.507
X460.137 Y3.201 Z-21.551
X460.096 Y3.208 Z-21.592
X460.052 Y3.214 Z-21.63
X460.005 Y3.22 Z-21.664
X459.956 Y3.225 Z-21.696
X459.905 Y3.229 Z-21.724
X459.852 Y3.233 Z-21.749
X459.798 Y3.237 Z-21.77
X459.742 Y3.239 Z-21.788
X459.685 Y3.242 Z-21.802
X459.628 Y3.243 Z-21.811
X459.57 Y3.244 Z-21.817
X459.511 Z-21.819
X459.368 Z-21.852
X459.261 Z-21.884
X459.15 Z-21.877
G2 X311.796 Z-2.146 I-169.497 K-705.728
G1 X306.764 Z-2.013
G2 X120.868 Z-21.882 I-16.679 K-723.525
G1 X120.754 Z-21.884
X120.648 Z-21.849
X120.505 Z-21.815
X113.595
X113.538 Y3.245 Z-21.817
X113.482 Y3.246 Z-21.823
X113.427 Y3.247 Z-21.832
X113.372 Y3.249 Z-21.844
X113.318 Y3.252 Z-21.861
X113.265 Y3.255 Z-21.88
X113.214 Y3.258 Z-21.903
X113.164 Y3.262 Z-21.929
X113.116 Y3.267 Z-21.959
X113.07 Y3.272 Z-21.991
X113.026 Y3.278 Z-22.027
X112.985 Y3.284 Z-22.065
X112.947 Y3.29 Z-22.105
X112.911 Y3.297 Z-22.148
X112.878 Y3.304 Z-22.194
X112.848 Y3.312 Z-22.241
X112.822 Y3.32 Z-22.29
X112.798 Y3.328 Z-22.341
X112.779 Y3.336 Z-22.393
X112.762 Y3.344 Z-22.446
X112.749 Y3.353 Z-22.5
X112.74 Y3.362 Z-22.555
X112.735 Y3.371 Z-22.611
X112.733 Y3.379 Z-22.667
X112.735 Y3.388 Z-22.722
X112.74 Y3.397 Z-22.778
X112.749 Y3.406 Z-22.833
X112.762 Y3.414 Z-22.887
X112.779 Y3.423 Z-22.94
X112.798 Y3.431 Z-22.992
X112.822 Y3.439 Z-23.043
X112.848 Y3.447 Z-23.092
X112.878 Y3.454 Z-23.139
X112.911 Y3.462 Z-23.185
X112.947 Y3.468 Z-23.228
X112.985 Y3.475 Z-23.268
X113.026 Y3.481 Z-23.306
X113.07 Y3.486 Z-23.342
X113.116 Y3.492 Z-23.374
X113.164 Y3.496 Z-23.404
X113.214 Y3.5 Z-23.43
X113.265 Y3.504 Z-23.453
X113.318 Y3.507 Z-23.473
X113.372 Y3.51 Z-23.489
X113.427 Y3.512 Z-23.501
X113.482 Y3.513 Z-23.51
X113.538 Y3.514 Z-23.516
X113.595 Z-23.518
X113.738 Z-23.551
X113.846 Z-23.582
X113.959 Z-23.574
G3 X280.258 Z-1.881 I176.381 K-703.859
X306.769 Z-2.017 I9.403 K-752.909
G1 X311.801 Z-2.15
G3 X466.062 Z-23.582 I-22.112 K-725.03
G1 X466.176 Z-23.589
X466.284 Z-23.556
X466.427 Z-23.523
X473.05
X473.106 Y3.515 Z-23.525
X473.162 Y3.516 Z-23.53
X473.217 Y3.517 Z-23.539
X473.272 Y3.519 Z-23.552
X473.326 Y3.522 Z-23.568
X473.379 Y3.525 Z-23.588
X473.43 Y3.528 Z-23.611
X473.479 Y3.532 Z-23.637
X473.527 Y3.537 Z-23.666
X473.573 Y3.542 Z-23.698
X473.616 Y3.548 Z-23.734
X473.657 Y3.554 Z-23.771
X473.695 Y3.56 Z-23.812
X473.731 Y3.567 Z-23.855
X473.764 Y3.574 Z-23.9
X473.793 Y3.582 Z-23.947
X473.82 Y3.59 Z-23.996
X473.843 Y3.598 Z-24.047
X473.863 Y3.606 Z-24.098
X473.879 Y3.614 Z-24.152
X473.892 Y3.623 Z-24.206
X473.901 Y3.632 Z-24.26
X473.907 Y3.641 Z-24.315
X473.908 Y3.649 Z-24.371
X473.907 Y3.658 Z-24.426
X473.901 Y3.667 Z-24.482
X473.892 Y3.676 Z-24.536
X473.879 Y3.684 Z-24.59
X473.863 Y3.693 Z-24.643
X473.843 Y3.701 Z-24.695
X473.82 Y3.709 Z-24.746
X473.793 Y3.717 Z-24.795
X473.764 Y3.724 Z-24.842
X473.731 Y3.732 Z-24.887
X473.695 Y3.738 Z-24.93
X473.657 Y3.745 Z-24.97
X473.616 Y3.751 Z-25.008
X473.573 Y3.756 Z-25.044
X473.527 Y3.762 Z-25.076
X473.479 Y3.766 Z-25.105
X473.43 Y3.77 Z-25.131
X473.379 Y3.774 Z-25.154
X473.326 Y3.777 Z-25.174
X473.272 Y3.78 Z-25.19
X473.217 Y3.782 Z-25.202
X473.162 Y3.783 Z-25.211
X473.106 Y3.784 Z-25.217
X473.05 Z-25.219
X472.907 Z-25.252
X472.797 Z-25.283
X472.683 Z-25.275
G2 X311.793 Z-2.153 I-183.043 K-702.363
G1 X306.76 Z-2.02
G2 X107.336 Z-25.277 I-16.649 K-723.875
G1 X107.219 Z-25.283
X107.109 Z-25.248
X106.965 Z-25.215
X100.551
X100.494 Y3.785 Z-25.216
X100.438 Y3.786 Z-25.222
X100.382 Y3.787 Z-25.231
X100.327 Y3.789 Z-25.244
X100.273 Y3.792 Z-25.26
X100.22 Y3.795 Z-25.28
X100.168 Y3.798 Z-25.303
X100.118 Y3.802 Z-25.329
X100.07 Y3.807 Z-25.359
X100.024 Y3.812 Z-25.391
X99.981 Y3.818 Z-25.427
X99.939 Y3.824 Z-25.465
X99.901 Y3.83 Z-25.506
X99.865 Y3.837 Z-25.549
X99.832 Y3.844 Z-25.594
X99.802 Y3.852 Z-25.642
X99.775 Y3.86 Z-25.691
X99.752 Y3.868 Z-25.742
X99.732 Y3.876 Z-25.794
X99.715 Y3.884 Z-25.848
X99.703 Y3.893 Z-25.902
X99.693 Y3.902 Z-25.957
X99.688 Y3.911 Z-26.013
X99.686 Y3.919 Z-26.069
X99.688 Y3.928 Z-26.124
X99.693 Y3.937 Z-26.18
X99.703 Y3.946 Z-26.235
X99.715 Y3.954 Z-26.29
X99.732 Y3.963 Z-26.343
X99.752 Y3.971 Z-26.395
X99.775 Y3.979 Z-26.446
X99.802 Y3.987 Z-26.496
X99.832 Y3.994 Z-26.543
X99.865 Y4.002 Z-26.588
X99.901 Y4.008 Z-26.632
X99.939 Y4.015 Z-26.672
X99.981 Y4.021 Z-26.711
X100.024 Y4.026 Z-26.746
X100.07 Y4.032 Z-26.779
X100.118 Y4.036 Z-26.808
X100.168 Y4.04 Z-26.834
X100.22 Y4.044 Z-26.857
X100.273 Y4.047 Z-26.877
X100.327 Y4.05 Z-26.893
X100.382 Y4.052 Z-26.906
X100.438 Y4.053 Z-26.915
X100.494 Y4.054 Z-26.921
X100.551 Z-26.922
X100.694 Z-26.956
X100.805 Z-26.987
X100.921 Z-26.978
G3 X276.161 Z-1.955 I189.489 K-700.892
X359.721 Z-5.204 I13.667 K-724.537
X479.101 Z-26.982 I-70.464 K-724.361
G1 X479.216 Z-26.992
X479.327 Z-26.961
X479.471 Z-26.928
X485.666
X485.722 Y4.055 Z-26.93
X485.778 Y4.056 Z-26.935
X485.834 Y4.057 Z-26.945
X485.889 Y4.059 Z-26.957
X485.944 Y4.062 Z-26.973
X485.996 Y4.065 Z-26.993
X486.048 Y4.068 Z-27.016
X486.098 Y4.072 Z-27.043
X486.146 Y4.077 Z-27.072
X486.192 Y4.082 Z-27.105
X486.236 Y4.088 Z-27.14
X486.277 Y4.094 Z-27.178
X486.316 Y4.1 Z-27.219
X486.352 Y4.107 Z-27.262
X486.385 Y4.114 Z-27.308
X486.414 Y4.122 Z-27.355
X486.441 Y4.13 Z-27.404
X486.464 Y4.138 Z-27.455
X486.484 Y4.146 Z-27.508
X486.501 Y4.154 Z-27.561
X486.514 Y4.163 Z-27.616
X486.523 Y4.172 Z-27.671
X486.528 Y4.181 Z-27.726
X486.53 Y4.189 Z-27.782
X486.528 Y4.198 Z-27.838
X486.523 Y4.207 Z-27.894
X486.514 Y4.216 Z-27.949
X486.501 Y4.224 Z-28.003
X486.484 Y4.233 Z-28.057
X486.464 Y4.241 Z-28.109
X486.441 Y4.249 Z-28.16
X486.414 Y4.257 Z-28.209
X486.385 Y4.264 Z-28.257
X486.352 Y4.272 Z-28.302
X486.316 Y4.278 Z-28.345
X486.277 Y4.285 Z-28.386
X486.236 Y4.291 Z-28.424
X486.192 Y4.296 Z-28.46
X486.146 Y4.302 Z-28.492
X486.098 Y4.306 Z-28.522
X486.048 Y4.31 Z-28.548
X485.996 Y4.314 Z-28.571
X485.944 Y4.317 Z-28.591
X485.889 Y4.32 Z-28.607
X485.834 Y4.322 Z-28.62
X485.778 Y4.323 Z-28.629
X485.722 Y4.324 Z-28.634
X485.666 Z-28.636
X485.523 Z-28.669
X485.409 Z-28.701
X485.292 Z-28.69
G2 X311.72 Z-2.152 I-195.785 K-699.638
X94.725 Z-28.693 I-21.521 K-724.398
G1 X94.606 Z-28.7
X94.492 Z-28.665
X94.349 Z-28.632
X88.362
X88.306 Y4.325 Z-28.634
X88.249 Z-28.639
X88.194 Y4.327 Z-28.648
X88.138 Y4.329 Z-28.661
X88.084 Y4.332 Z-28.677
X88.031 Y4.335 Z-28.697
X87.98 Y4.338 Z-28.72
X87.93 Y4.342 Z-28.746
X87.882 Y4.347 Z-28.776
X87.836 Y4.352 Z-28.808
X87.792 Y4.358 Z-28.844
X87.751 Y4.364 Z-28.882
X87.712 Y4.37 Z-28.923
X87.676 Y4.377 Z-28.966
X87.643 Y4.384 Z-29.012
X87.613 Y4.392 Z-29.059
X87.586 Y4.4 Z-29.109
X87.563 Y4.408 Z-29.159
X87.543 Y4.416 Z-29.212
X87.527 Y4.424 Z-29.265
X87.514 Y4.433 Z-29.32
X87.505 Y4.442 Z-29.375
X87.499 Y4.451 Z-29.431
X87.497 Y4.459 Z-29.487
X87.499 Y4.468 Z-29.542
X87.505 Y4.477 Z-29.598
X87.514 Y4.486 Z-29.653
X87.527 Y4.494 Z-29.708
X87.543 Y4.503 Z-29.761
X87.563 Y4.511 Z-29.814
X87.586 Y4.519 Z-29.864
X87.613 Y4.527 Z-29.914
X87.643 Y4.534 Z-29.961
X87.676 Y4.542 Z-30.007
X87.712 Y4.548 Z-30.05
X87.751 Y4.555 Z-30.091
X87.792 Y4.561 Z-30.129
X87.836 Y4.566 Z-30.165
X87.882 Y4.572 Z-30.197
X87.93 Y4.576 Z-30.227
X87.98 Y4.58 Z-30.253
X88.031 Y4.584 Z-30.276
X88.084 Y4.587 Z-30.296
X88.138 Y4.59 Z-30.312
X88.194 Y4.592 Z-30.325
X88.249 Y4.593 Z-30.334
X88.306 Y4.594 Z-30.339
X88.362 Z-30.341
X88.505 Z-30.374
X88.62 Z-30.406
X88.739 Z-30.395
G3 X276.221 Z-1.96 I201.695 K-697.581
X342.332 Z-3.734 I13.552 K-727.825
X491.282 Z-30.4 I-52.984 K-725.299
G1 X491.4 Z-30.411
X491.514 Z-30.38
X491.657 Z-30.347
X497.531
X497.588 Y4.595 Z-30.349
X497.645 Z-30.354
X497.701 Y4.597 Z-30.363
X497.757 Y4.599 Z-30.376
X497.812 Y4.602 Z-30.393
X497.865 Y4.605 Z-30.413
X497.917 Y4.608 Z-30.436
X497.968 Y4.612 Z-30.463
X498.016 Y4.617 Z-30.492
X498.063 Y4.622 Z-30.525
X498.107 Y4.628 Z-30.561
X498.149 Y4.634 Z-30.6
X498.188 Y4.64 Z-30.641
X498.224 Y4.647 Z-30.685
X498.257 Y4.654 Z-30.731
X498.287 Y4.662 Z-30.779
X498.314 Y4.67 Z-30.828
X498.338 Y4.678 Z-30.88
X498.358 Y4.686 Z-30.933
X498.375 Y4.694 Z-30.987
X498.388 Y4.703 Z-31.042
X498.397 Y4.712 Z-31.098
X498.403 Y4.721 Z-31.154
X498.404 Y4.729 Z-31.21
X498.403 Y4.738 Z-31.267
X498.397 Y4.747 Z-31.323
X498.388 Y4.756 Z-31.379
X498.375 Y4.764 Z-31.434
X498.358 Y4.773 Z-31.488
X498.338 Y4.781 Z-31.541
X498.314 Y4.789 Z-31.592
X498.287 Y4.797 Z-31.642
X498.257 Y4.804 Z-31.69
X498.224 Y4.812 Z-31.736
X498.188 Y4.818 Z-31.779
X498.149 Y4.825 Z-31.821
X498.107 Y4.831 Z-31.859
X498.063 Y4.836 Z-31.895
X498.016 Y4.842 Z-31.928
X497.968 Y4.846 Z-31.958
X497.917 Y4.85 Z-31.985
X497.865 Y4.854 Z-32.008
X497.812 Y4.857 Z-32.028
X497.757 Y4.86 Z-32.044
X497.701 Y4.862 Z-32.057
X497.645 Y4.863 Z-32.066
X497.588 Y4.864 Z-32.072
X497.531 Z-32.074
X497.388 Z-32.107
X497.272 Z-32.139
X497.153 Z-32.127
G2 X311.754 Z-2.167 I-207.574 K-695.9
G1 X306.721 Z-2.035
G2 X103.575 Z-26.29 I-16.608 K-723.731
X82.863 Z-32.123 I172.141 K-650.909
G1 X82.743 Z-32.135
X82.627 Z-32.102
X82.484 Z-32.069
X76.87
X76.813 Y4.865 Z-32.071
X76.757 Z-32.076
X76.701 Y4.867 Z-32.086
X76.646 Y4.869 Z-32.098
X76.592 Y4.872 Z-32.114
X76.539 Y4.875 Z-32.134
X76.488 Y4.878 Z-32.157
X76.438 Y4.882 Z-32.184
X76.39 Y4.887 Z-32.213
X76.344 Y4.892 Z-32.246
X76.3 Y4.898 Z-32.281
X76.259 Y4.904 Z-32.319
X76.22 Y4.91 Z-32.36
X76.184 Y4.917 Z-32.403
X76.151 Y4.924 Z-32.449
X76.121 Y4.932 Z-32.496
X76.095 Y4.94 Z-32.545
X76.071 Y4.948 Z-32.596
X76.051 Y4.956 Z-32.649
X76.035 Y4.964 Z-32.702
X76.022 Y4.973 Z-32.756
X76.013 Y4.982 Z-32.812
X76.007 Y4.991 Z-32.867
X76.005 Y4.999 Z-32.923
X76.007 Y5.008 Z-32.979
X76.013 Y5.017 Z-33.034
X76.022 Y5.026 Z-33.09
X76.035 Y5.034 Z-33.144
X76.051 Y5.043 Z-33.197
X76.071 Y5.051 Z-33.25
X76.095 Y5.059 Z-33.301
X76.121 Y5.067 Z-33.35
X76.151 Y5.074 Z-33.397
X76.184 Y5.082 Z-33.443
X76.22 Y5.088 Z-33.486
X76.259 Y5.095 Z-33.527
X76.3 Y5.101 Z-33.565
X76.344 Y5.106 Z-33.6
X76.39 Y5.112 Z-33.633
X76.438 Y5.116 Z-33.662
X76.488 Y5.12 Z-33.689
X76.539 Y5.124 Z-33.712
X76.592 Y5.127 Z-33.732
X76.646 Y5.13 Z-33.748
X76.701 Y5.132 Z-33.76
X76.757 Y5.133 Z-33.77
X76.813 Y5.134 Z-33.775
X76.87 Z-33.777
X77.013 Z-33.81
X77.13 Z-33.842
X77.252 Z-33.829
G3 X272.144 Z-2.057 I213.225 K-694.322
X502.765 Z-33.84 I17.617 K-724.775
G1 X502.888 Z-33.851
X503.005 Z-33.816
X503.148 Z-33.782
X508.765
X508.823 Y5.135 Z-33.784
X508.881 Z-33.79
X508.938 Y5.137 Z-33.799
X508.995 Y5.139 Z-33.812
X509.05 Y5.142 Z-33.829
X509.105 Y5.145 Z-33.849
X509.158 Y5.148 Z-33.873
X509.209 Y5.152 Z-33.9
X509.258 Y5.157 Z-33.93
X509.306 Y5.162 Z-33.964
X509.35 Y5.168 Z-34
X509.393 Y5.174 Z-34.04
X509.433 Y5.18 Z-34.081
X509.469 Y5.187 Z-34.126
X509.503 Y5.194 Z-34.173
X509.534 Y5.202 Z-34.221
X509.561 Y5.21 Z-34.272
X509.585 Y5.218 Z-34.324
X509.606 Y5.226 Z-34.378
X509.623 Y5.234 Z-34.433
X509.636 Y5.243 Z-34.489
X509.645 Y5.252 Z-34.546
X509.651 Y5.261 Z-34.603
X509.653 Y5.269 Z-34.66
X509.651 Y5.278 Z-34.718
X509.645 Y5.287 Z-34.775
X509.636 Y5.296 Z-34.831
X509.623 Y5.304 Z-34.887
X509.606 Y5.313 Z-34.942
X509.585 Y5.321 Z-34.996
X509.561 Y5.329 Z-35.048
X509.534 Y5.337 Z-35.099
X509.503 Y5.344 Z-35.148
X509.469 Y5.352 Z-35.194
X509.433 Y5.358 Z-35.239
X509.393 Y5.365 Z-35.281
X509.35 Y5.371 Z-35.32
X509.306 Y5.376 Z-35.356
X509.258 Y5.382 Z-35.39
X509.209 Y5.386 Z-35.42
X509.158 Y5.39 Z-35.447
X509.105 Y5.394 Z-35.471
X509.05 Y5.397 Z-35.491
X508.995 Y5.4 Z-35.508
X508.938 Y5.402 Z-35.521
X508.881 Y5.403 Z-35.53
X508.823 Y5.404 Z-35.536
X508.765 Z-35.538
X508.622 Z-35.571
X508.503 Z-35.603
X508.382 Z-35.589
G2 X311.733 Z-2.174 I-218.792 K-692.253
G1 X306.7 Z-2.042
G2 X99.354 Z-27.439 I-16.579 K-723.756
X71.641 Z-35.583 I180.037 K-663.85
G1 X71.519 Z-35.596
X71.4 Z-35.564
X71.257 Z-35.531
X65.952
X65.896 Y5.405 Z-35.533
X65.84 Z-35.538
X65.784 Y5.407 Z-35.547
X65.729 Y5.409 Z-35.56
X65.675 Y5.412 Z-35.576
X65.623 Y5.415 Z-35.596
X65.571 Y5.418 Z-35.618
X65.521 Y5.422 Z-35.645
X65.474 Y5.427 Z-35.674
X65.428 Y5.432 Z-35.707
X65.384 Y5.438 Z-35.742
X65.343 Y5.444 Z-35.78
X65.304 Y5.45 Z-35.821
X65.269 Y5.457 Z-35.864
X65.236 Y5.464 Z-35.909
X65.206 Y5.472 Z-35.956
X65.179 Y5.48 Z-36.005
X65.156 Y5.488 Z-36.056
X65.136 Y5.496 Z-36.108
X65.12 Y5.504 Z-36.162
X65.107 Y5.513 Z-36.216
X65.098 Y5.522 Z-36.271
X65.092 Y5.531 Z-36.326
X65.091 Y5.539 Z-36.382
X65.092 Y5.548 Z-36.437
X65.098 Y5.557 Z-36.493
X65.107 Y5.566 Z-36.548
X65.12 Y5.574 Z-36.602
X65.136 Y5.583 Z-36.655
X65.156 Y5.591 Z-36.707
X65.179 Y5.599 Z-36.758
X65.206 Y5.607 Z-36.807
X65.236 Y5.614 Z-36.855
X65.269 Y5.622 Z-36.9
X65.304 Y5.628 Z-36.943
X65.343 Y5.635 Z-36.984
X65.384 Y5.641 Z-37.022
X65.428 Y5.646 Z-37.057
X65.474 Y5.652 Z-37.089
X65.521 Y5.656 Z-37.119
X65.571 Y5.66 Z-37.145
X65.623 Y5.664 Z-37.168
X65.675 Y5.667 Z-37.188
X65.729 Y5.67 Z-37.204
X65.784 Y5.672 Z-37.216
X65.84 Y5.673 Z-37.226
X65.896 Y5.674 Z-37.231
X65.952 Z-37.233
X66.095 Z-37.266
X66.215 Z-37.298
X66.338 Z-37.284
G3 X267.594 Z-2.192 I224.194 K-691.125
X513.677 Z-37.298 I22.178 K-724.578
G1 X513.803 Z-37.308
X513.922 Z-37.272
X514.065 Z-37.238
X519.352
X519.409 Y5.675 Z-37.24
X519.467 Z-37.246
X519.524 Y5.677 Z-37.255
X519.58 Y5.679 Z-37.268
X519.635 Y5.681 Z-37.285
X519.69 Y5.685 Z-37.305
X519.742 Y5.688 Z-37.328
X519.793 Y5.692 Z-37.355
X519.842 Y5.697 Z-37.385
X519.889 Y5.702 Z-37.419
X519.934 Y5.708 Z-37.455
X519.976 Y5.714 Z-37.494
X520.016 Y5.72 Z-37.536
X520.052 Y5.727 Z-37.58
X520.086 Y5.734 Z-37.626
X520.117 Y5.742 Z-37.675
X520.144 Y5.75 Z-37.725
X520.168 Y5.758 Z-37.777
X520.188 Y5.766 Z-37.831
X520.205 Y5.774 Z-37.885
X520.218 Y5.783 Z-37.941
X520.227 Y5.792 Z-37.997
X520.233 Y5.801 Z-38.054
X520.235 Y5.809 Z-38.111
X520.233 Y5.818 Z-38.168
X520.227 Y5.827 Z-38.225
X520.218 Y5.836 Z-38.282
X520.205 Y5.844 Z-38.337
X520.188 Y5.853 Z-38.392
X520.168 Y5.861 Z-38.445
X520.144 Y5.869 Z-38.497
X520.117 Y5.877 Z-38.548
X520.086 Y5.884 Z-38.596
X520.052 Y5.892 Z-38.643
X520.016 Y5.898 Z-38.687
X519.976 Y5.905 Z-38.729
X519.934 Y5.911 Z-38.768
X519.889 Y5.916 Z-38.804
X519.842 Y5.922 Z-38.837
X519.793 Y5.926 Z-38.867
X519.742 Y5.93 Z-38.894
X519.69 Y5.934 Z-38.918
X519.635 Y5.937 Z-38.938
X519.58 Y5.94 Z-38.955
X519.524 Y5.942 Z-38.968
X519.467 Y5.943 Z-38.977
X519.409 Y5.944 Z-38.982
X519.352 Z-38.984
X519.208 Z-39.018
X519.087 Z-39.05
X518.963 Z-39.034
G2 X311.777 Z-2.183 I-229.385 K-688.811
G1 X306.747 Z-2.05
G2 X99.355 Z-27.449 I-16.624 K-723.674
X61.058 Z-39.028 I184.907 K-680.707
G1 X60.933 Z-39.044
X60.811 Z-39.011
X60.668 Z-38.978
X55.51
X55.453 Y5.945 Z-38.98
X55.395 Z-38.985
X55.338 Y5.947 Z-38.994
X55.282 Y5.949 Z-39.007
X55.226 Y5.951 Z-39.024
X55.172 Y5.955 Z-39.044
X55.12 Y5.958 Z-39.068
X55.069 Y5.962 Z-39.095
X55.02 Y5.967 Z-39.125
X54.973 Y5.972 Z-39.158
X54.928 Y5.978 Z-39.194
X54.886 Y5.984 Z-39.233
X54.846 Y5.99 Z-39.275
X54.809 Y5.997 Z-39.319
X54.776 Y6.004 Z-39.366
X54.745 Y6.012 Z-39.414
X54.718 Y6.02 Z-39.465
X54.694 Y6.028 Z-39.517
X54.674 Y6.036 Z-39.57
X54.657 Y6.044 Z-39.625
X54.644 Y6.053 Z-39.681
X54.634 Y6.062 Z-39.737
X54.629 Y6.071 Z-39.794
X54.627 Y6.079 Z-39.851
X54.629 Y6.088 Z-39.908
X54.634 Y6.097 Z-39.965
X54.644 Y6.106 Z-40.021
X54.657 Y6.114 Z-40.077
X54.674 Y6.123 Z-40.132
X54.694 Y6.131 Z-40.185
X54.718 Y6.139 Z-40.237
X54.745 Y6.147 Z-40.287
X54.776 Y6.154 Z-40.336
X54.809 Y6.162 Z-40.382
X54.846 Y6.168 Z-40.427
X54.886 Y6.175 Z-40.468
X54.928 Y6.181 Z-40.507
X54.973 Y6.186 Z-40.544
X55.02 Y6.192 Z-40.577
X55.069 Y6.196 Z-40.607
X55.12 Y6.2 Z-40.634
X55.172 Y6.204 Z-40.658
X55.226 Y6.207 Z-40.678
X55.282 Y6.21 Z-40.694
X55.338 Y6.212 Z-40.707
X55.395 Y6.213 Z-40.717
X55.453 Y6.214 Z-40.722
X55.51 Z-40.724
X55.653 Z-40.757
X55.776 Z-40.79
X55.902 Z-40.773
G3 X271.897 Z-2.079 I234.578 K-687.236
X306.712 Z-2.053 I17.951 K-742.761
G1 X311.742 Z-2.186
G3 X524.114 Z-40.779 I-22.152 K-725.516
G1 X524.24 Z-40.795
X524.362 Z-40.762
X524.505 Z-40.729
X529.496
X529.554 Y6.215 Z-40.731
X529.611 Z-40.737
X529.667 Y6.217 Z-40.746
X529.723 Y6.219 Z-40.759
X529.778 Y6.221 Z-40.775
X529.831 Y6.225 Z-40.795
X529.884 Y6.228 Z-40.819
X529.934 Y6.232 Z-40.845
X529.983 Y6.237 Z-40.875
X530.029 Y6.242 Z-40.908
X530.074 Y6.248 Z-40.944
X530.115 Y6.254 Z-40.983
X530.155 Y6.26 Z-41.024
X530.191 Y6.267 Z-41.068
X530.224 Y6.274 Z-41.114
X530.255 Y6.282 Z-41.162
X530.282 Y6.29 Z-41.212
X530.305 Y6.298 Z-41.263
X530.326 Y6.306 Z-41.316
X530.342 Y6.314 Z-41.371
X530.355 Y6.323 Z-41.426
X530.365 Y6.332 Z-41.482
X530.37 Y6.341 Z-41.538
X530.372 Y6.349 Z-41.595
X530.37 Y6.358 Z-41.651
X530.365 Y6.367 Z-41.707
X530.355 Y6.376 Z-41.763
X530.342 Y6.384 Z-41.818
X530.326 Y6.393 Z-41.873
X530.305 Y6.401 Z-41.926
X530.282 Y6.409 Z-41.977
X530.255 Y6.417 Z-42.027
X530.224 Y6.424 Z-42.075
X530.191 Y6.432 Z-42.121
X530.155 Y6.438 Z-42.165
X530.115 Y6.445 Z-42.206
X530.074 Y6.451 Z-42.245
X530.029 Y6.456 Z-42.281
X529.983 Y6.462 Z-42.314
X529.934 Y6.466 Z-42.344
X529.884 Y6.47 Z-42.37
X529.831 Y6.474 Z-42.394
X529.778 Y6.477 Z-42.414
X529.723 Y6.48 Z-42.43
X529.667 Y6.482 Z-42.443
X529.611 Y6.483 Z-42.452
X529.554 Y6.484 Z-42.458
X529.496 Z-42.46
X529.353 Z-42.493
X529.23 Z-42.525
X529.104 Z-42.508
G2 X311.684 Z-2.182 I-239.601 K-685.538
X70.059 Z-36.115 I-21.46 K-724.41
X50.915 Z-42.502 I198.092 K-625.671
G1 X50.789 Z-42.519
X50.665 Z-42.486
X50.522 Z-42.453
X45.534
X45.476 Y6.485 Z-42.455
X45.417 Z-42.461
X45.359 Y6.487 Z-42.47
X45.302 Y6.489 Z-42.483
X45.246 Y6.491 Z-42.5
X45.192 Y6.495 Z-42.521
X45.138 Y6.498 Z-42.544
X45.087 Y6.502 Z-42.572
X45.037 Y6.507 Z-42.602
X44.989 Y6.512 Z-42.636
X44.944 Y6.518 Z-42.673
X44.901 Y6.524 Z-42.712
X44.861 Y6.53 Z-42.755
X44.824 Y6.537 Z-42.799
X44.79 Y6.544 Z-42.846
X44.759 Y6.552 Z-42.896
X44.732 Y6.56 Z-42.947
X44.707 Y6.568 Z-42.999
X44.687 Y6.576 Z-43.053
X44.67 Y6.584 Z-43.109
X44.656 Y6.593 Z-43.165
X44.647 Y6.602 Z-43.222
X44.641 Y6.61 Z-43.28
X44.639 Y6.619 Z-43.338
X44.641 Y6.628 Z-43.396
X44.647 Y6.637 Z-43.453
X44.656 Y6.646 Z-43.51
X44.67 Y6.654 Z-43.567
X44.687 Y6.663 Z-43.622
X44.707 Y6.671 Z-43.676
X44.732 Y6.679 Z-43.729
X44.759 Y6.687 Z-43.78
X44.79 Y6.694 Z-43.829
X44.824 Y6.702 Z-43.876
X44.861 Y6.708 Z-43.921
X44.901 Y6.715 Z-43.963
X44.944 Y6.721 Z-44.003
X44.989 Y6.726 Z-44.04
X45.037 Y6.732 Z-44.073
X45.087 Y6.736 Z-44.104
X45.138 Y6.74 Z-44.131
X45.192 Y6.744 Z-44.155
X45.246 Y6.747 Z-44.175
X45.302 Y6.75 Z-44.192
X45.359 Y6.752 Z-44.205
X45.417 Y6.753 Z-44.215
X45.476 Y6.754 Z-44.221
X45.534 Z-44.222
X45.677 Z-44.256
X45.802 Z-44.288
X45.929 Z-44.27
G3 X267.57 Z-2.209 I244.576 K-683.788
X517.793 Z-38.672 I22.205 K-724.409
X534.093 Z-44.278 I-201.006 K-610.876
G1 X534.22 Z-44.296
X534.345 Z-44.263
X534.488 Z-44.23
X539.269
X539.327 Y6.755 Z-44.232
X539.384 Z-44.238
X539.441 Y6.757 Z-44.247
X539.497 Y6.759 Z-44.26
X539.552 Y6.761 Z-44.276
X539.606 Y6.765 Z-44.296
X539.658 Y6.768 Z-44.32
X539.709 Y6.772 Z-44.346
X539.758 Y6.777 Z-44.376
X539.804 Y6.782 Z-44.41
X539.849 Y6.788 Z-44.446
X539.891 Y6.794 Z-44.484
X539.93 Y6.8 Z-44.526
X539.967 Y6.807 Z-44.57
X540 Y6.814 Z-44.616
X540.03 Y6.822 Z-44.664
X540.058 Y6.83 Z-44.714
X540.081 Y6.838 Z-44.766
X540.102 Y6.846 Z-44.819
X540.118 Y6.854 Z-44.874
X540.131 Y6.863 Z-44.929
X540.141 Y6.872 Z-44.985
X540.146 Y6.88 Z-45.042
X540.148 Y6.889 Z-45.098
X540.146 Y6.898 Z-45.155
X540.141 Y6.907 Z-45.212
X540.131 Y6.916 Z-45.268
X540.118 Y6.924 Z-45.323
X540.102 Y6.933 Z-45.378
X540.081 Y6.941 Z-45.431
X540.058 Y6.949 Z-45.483
X540.03 Y6.957 Z-45.533
X540 Y6.964 Z-45.581
X539.967 Y6.972 Z-45.627
X539.93 Y6.978 Z-45.671
X539.891 Y6.985 Z-45.713
X539.849 Y6.991 Z-45.751
X539.804 Y6.996 Z-45.787
X539.758 Y7.002 Z-45.82
X539.709 Y7.006 Z-45.851
X539.658 Y7.01 Z-45.877
X539.606 Y7.014 Z-45.901
X539.552 Y7.017 Z-45.921
X539.497 Y7.02 Z-45.937
X539.441 Y7.022 Z-45.95
X539.384 Y7.023 Z-45.959
X539.327 Y7.024 Z-45.965
X539.269 Z-45.967
X539.126 Z-46
X539.001 Z-46.033
X538.873 Z-46.014
G2 X311.644 Z-2.188 I-249.373 K-681.971
X74.246 Z-34.807 I-21.423 K-724.263
X41.145 Z-46.009 I207.638 K-668.076
G1 X41.016 Z-46.027
X40.89 Z-45.994
X40.747 Z-45.961
X36.02
X35.962 Y7.025 Z-45.963
X35.904 Z-45.968
X35.847 Y7.027 Z-45.978
X35.79 Y7.029 Z-45.991
X35.735 Y7.031 Z-46.007
X35.68 Y7.035 Z-46.027
X35.627 Y7.038 Z-46.051
X35.576 Y7.042 Z-46.078
X35.527 Y7.047 Z-46.109
X35.479 Y7.052 Z-46.142
X35.434 Y7.058 Z-46.179
X35.392 Y7.064 Z-46.218
X35.352 Y7.07 Z-46.26
X35.315 Y7.077 Z-46.304
X35.281 Y7.084 Z-46.351
X35.251 Y7.092 Z-46.4
X35.223 Y7.1 Z-46.45
X35.199 Y7.108 Z-46.503
X35.179 Y7.116 Z-46.557
X35.162 Y7.124 Z-46.612
X35.149 Y7.133 Z-46.668
X35.139 Y7.142 Z-46.724
X35.134 Y7.15 Z-46.782
X35.132 Y7.159 Z-46.839
X35.134 Y7.168 Z-46.896
X35.139 Y7.177 Z-46.954
X35.149 Y7.186 Z-47.01
X35.162 Y7.194 Z-47.066
X35.179 Y7.203 Z-47.121
X35.199 Y7.211 Z-47.175
X35.223 Y7.219 Z-47.227
X35.251 Y7.227 Z-47.278
X35.281 Y7.234 Z-47.327
X35.315 Y7.242 Z-47.374
X35.352 Y7.248 Z-47.418
X35.392 Y7.255 Z-47.46
X35.434 Y7.261 Z-47.499
X35.479 Y7.266 Z-47.536
X35.527 Y7.272 Z-47.569
X35.576 Y7.276 Z-47.6
X35.627 Y7.28 Z-47.627
X35.68 Y7.284 Z-47.65
X35.735 Y7.287 Z-47.671
X35.79 Y7.29 Z-47.687
X35.847 Y7.292 Z-47.7
X35.904 Y7.293 Z-47.71
X35.962 Y7.294 Z-47.715
X36.02 Z-47.717
X36.163 Z-47.75
X36.291 Z-47.783
X36.421 Z-47.763
G3 X272.074 Z-2.09 I254.041 K-679.972
X521.684 Z-39.985 I17.676 K-724.595
X543.599 Z-47.771 I-215.521 K-641.357
G1 X543.729 Z-47.791
X543.856 Z-47.758
X543.999 Z-47.724
X548.727
X548.786 Y7.295 Z-47.726
X548.846 Z-47.732
X548.904 Y7.297 Z-47.742
X548.962 Y7.299 Z-47.755
X549.019 Y7.301 Z-47.772
X549.074 Y7.305 Z-47.793
X549.128 Y7.308 Z-47.817
X549.181 Y7.312 Z-47.845
X549.231 Y7.317 Z-47.876
X549.28 Y7.322 Z-47.91
X549.325 Y7.328 Z-47.947
X549.369 Y7.334 Z-47.987
X549.409 Y7.34 Z-48.03
X549.447 Y7.347 Z-48.075
X549.482 Y7.354 Z-48.123
X549.513 Y7.362 Z-48.173
X549.541 Y7.37 Z-48.225
X549.565 Y7.378 Z-48.278
X549.586 Y7.386 Z-48.333
X549.604 Y7.394 Z-48.389
X549.617 Y7.403 Z-48.447
X549.627 Y7.412 Z-48.505
X549.633 Y7.42 Z-48.563
X549.635 Y7.429 Z-48.622
X549.633 Y7.438 Z-48.68
X549.627 Y7.447 Z-48.739
X549.617 Y7.456 Z-48.797
X549.604 Y7.464 Z-48.854
X549.586 Y7.473 Z-48.91
X549.565 Y7.481 Z-48.965
X549.541 Y7.489 Z-49.019
X549.513 Y7.497 Z-49.07
X549.482 Y7.504 Z-49.12
X549.447 Y7.512 Z-49.168
X549.409 Y7.518 Z-49.213
X549.369 Y7.525 Z-49.256
X549.325 Y7.531 Z-49.296
X549.28 Y7.536 Z-49.334
X549.231 Y7.542 Z-49.368
X549.181 Y7.546 Z-49.399
X549.128 Y7.55 Z-49.427
X549.074 Y7.554 Z-49.451
X549.019 Y7.557 Z-49.471
X548.962 Y7.56 Z-49.489
X548.904 Y7.562 Z-49.502
X548.846 Y7.563 Z-49.511
X548.786 Y7.564 Z-49.517
X548.727 Z-49.519
X548.584 Z-49.552
X548.456 Z-49.585
X548.325 Z-49.564
G2 X306.743 Z-2.066 I-258.765 K-678
X57.676 Z-40.207 I-16.487 K-724.629
X31.697 Z-49.556 I219.722 K-651.359
G1 X31.566 Z-49.577
X31.438 Z-49.544
X31.295 Z-49.511
X26.798
X26.74 Y7.565 Z-49.513
X26.683 Z-49.518
X26.626 Y7.567 Z-49.527
X26.57 Y7.569 Z-49.54
X26.515 Y7.571 Z-49.557
X26.461 Y7.575 Z-49.577
X26.408 Y7.578 Z-49.6
X26.357 Y7.582 Z-49.627
X26.308 Y7.587 Z-49.657
X26.261 Y7.592 Z-49.691
X26.217 Y7.598 Z-49.727
X26.175 Y7.604 Z-49.766
X26.135 Y7.61 Z-49.807
X26.099 Y7.617 Z-49.851
X26.065 Y7.624 Z-49.898
X26.035 Y7.632 Z-49.946
X26.007 Y7.64 Z-49.996
X25.984 Y7.648 Z-50.048
X25.963 Y7.656 Z-50.102
X25.947 Y7.664 Z-50.156
X25.933 Y7.673 Z-50.212
X25.924 Y7.682 Z-50.268
X25.918 Y7.69 Z-50.325
X25.916 Y7.699 Z-50.382
X25.918 Y7.708 Z-50.439
X25.924 Y7.717 Z-50.495
X25.933 Y7.726 Z-50.552
X25.947 Y7.734 Z-50.607
X25.963 Y7.743 Z-50.662
X25.984 Y7.751 Z-50.715
X26.007 Y7.759 Z-50.767
X26.035 Y7.767 Z-50.817
X26.065 Y7.774 Z-50.866
X26.099 Y7.782 Z-50.912
X26.135 Y7.788 Z-50.956
X26.175 Y7.795 Z-50.998
X26.217 Y7.801 Z-51.037
X26.261 Y7.806 Z-51.073
X26.308 Y7.812 Z-51.106
X26.357 Y7.816 Z-51.136
X26.408 Y7.82 Z-51.163
X26.461 Y7.824 Z-51.186
X26.515 Y7.827 Z-51.206
X26.57 Y7.83 Z-51.223
X26.626 Y7.832 Z-51.236
X26.683 Y7.833 Z-51.245
X26.74 Y7.834 Z-51.251
X26.798 Z-51.253
X26.941 Z-51.286
X27.07 Z-51.319
X27.202 Z-51.297
G3 X276.377 Z-2.004 I263.213 K-676.101
X306.622 Z-2.074 I13.391 K-747.301
G1 X311.654 Z-2.206
G3 X552.817 Z-51.3 I-22.066 K-725.271
G1 X552.947 Z-51.323
X553.076 Z-51.293
X553.219 Z-51.259
X557.71
X557.769 Y7.835 Z-51.261
X557.827 Z-51.267
X557.885 Y7.837 Z-51.276
X557.943 Y7.839 Z-51.29
X557.999 Y7.841 Z-51.306
X558.054 Y7.845 Z-51.327
X558.107 Y7.848 Z-51.351
X558.159 Y7.852 Z-51.378
X558.209 Y7.857 Z-51.409
X558.257 Y7.862 Z-51.443
X558.302 Y7.868 Z-51.48
X558.345 Y7.874 Z-51.519
X558.385 Y7.88 Z-51.562
X558.422 Y7.887 Z-51.606
X558.457 Y7.894 Z-51.654
X558.488 Y7.902 Z-51.703
X558.515 Y7.91 Z-51.754
X558.539 Y7.918 Z-51.807
X558.56 Y7.926 Z-51.861
X558.577 Y7.934 Z-51.917
X558.591 Y7.943 Z-51.974
X558.6 Y7.952 Z-52.031
X558.606 Y7.96 Z-52.089
X558.608 Y7.969 Z-52.147
X558.606 Y7.978 Z-52.205
X558.6 Y7.987 Z-52.262
X558.591 Y7.996 Z-52.32
X558.577 Y8.004 Z-52.376
X558.56 Y8.013 Z-52.432
X558.539 Y8.021 Z-52.486
X558.515 Y8.029 Z-52.539
X558.488 Y8.037 Z-52.59
X558.457 Y8.044 Z-52.64
X558.422 Y8.052 Z-52.687
X558.385 Y8.058 Z-52.732
X558.345 Y8.065 Z-52.774
X558.302 Y8.071 Z-52.814
X558.257 Y8.076 Z-52.851
X558.209 Y8.082 Z-52.884
X558.159 Y8.086 Z-52.915
X558.107 Y8.09 Z-52.942
X558.054 Y8.094 Z-52.966
X557.999 Y8.097 Z-52.987
X557.943 Y8.1 Z-53.004
X557.885 Y8.102 Z-53.017
X557.827 Y8.103 Z-53.026
X557.769 Y8.104 Z-53.032
X557.71 Z-53.034
X557.567 Z-53.067
X557.437 Z-53.1
X557.305 Z-53.077
G2 X311.698 Z-2.211 I-267.681 K-674.108
G1 X306.67 Z-2.079
G2 X103.739 Z-26.311 I-16.553 K-723.215
X22.715 Z-53.069 I184.42 K-694.472
G1 X22.583 Z-53.092
X22.452 Z-53.059
X22.309 Z-53.026
X17.888
X17.829 Y8.105 Z-53.028
X17.77 Z-53.034
X17.712 Y8.107 Z-53.043
X17.655 Y8.109 Z-53.056
X17.598 Y8.111 Z-53.073
X17.543 Y8.115 Z-53.094
X17.49 Y8.118 Z-53.118
X17.438 Y8.122 Z-53.145
X17.387 Y8.127 Z-53.176
X17.34 Y8.132 Z-53.21
X17.294 Y8.138 Z-53.247
X17.251 Y8.144 Z-53.287
X17.211 Y8.15 Z-53.33
X17.173 Y8.157 Z-53.375
X17.139 Y8.164 Z-53.422
X17.108 Y8.172 Z-53.471
X17.08 Y8.18 Z-53.523
X17.056 Y8.188 Z-53.576
X17.035 Y8.196 Z-53.63
X17.018 Y8.204 Z-53.686
X17.004 Y8.213 Z-53.743
X16.995 Y8.222 Z-53.801
X16.989 Y8.23 Z-53.859
X16.987 Y8.239 Z-53.917
X16.989 Y8.248 Z-53.975
X16.995 Y8.257 Z-54.033
X17.004 Y8.266 Z-54.091
X17.018 Y8.274 Z-54.147
X17.035 Y8.283 Z-54.203
X17.056 Y8.291 Z-54.258
X17.08 Y8.299 Z-54.311
X17.108 Y8.307 Z-54.362
X17.139 Y8.314 Z-54.412
X17.173 Y8.322 Z-54.459
X17.211 Y8.328 Z-54.504
X17.251 Y8.335 Z-54.547
X17.294 Y8.341 Z-54.586
X17.34 Y8.346 Z-54.623
X17.387 Y8.352 Z-54.657
X17.438 Y8.356 Z-54.688
X17.49 Y8.36 Z-54.716
X17.543 Y8.364 Z-54.74
X17.598 Y8.367 Z-54.76
X17.655 Y8.37 Z-54.777
X17.712 Y8.372 Z-54.79
X17.77 Y8.373 Z-54.8
X17.829 Y8.374 Z-54.806
X17.888 Z-54.807
X18.031 Z-54.841
X18.162 Z-54.874
X18.296 Z-54.85
G3 X280.245 Z-1.949 I272.078 K-672.252
X306.756 Z-2.084 I9.421 K-753.068
G1 X311.784 Z-2.218
G3 X561.707 Z-54.845 I-22.189 K-725.125
G1 X561.838 Z-54.871
X561.969 Z-54.841
X562.112 Z-54.808
X562.192 Y8.4
X562.241 Y8.468
Y8.551
X562.192 Y8.619
X562.112 Y8.644
X562.094
X561.951 Z-54.841
X561.82 Z-54.874
X561.686 Z-54.85
G2 X311.765 Z-2.221 I-272.057 K-672.2
G1 X306.737 Z-2.088
G2 X103.686 Z-26.336 I-16.619 K-723.134
X18.314 Z-54.849 I184.531 K-694.555
G1 X18.181 Z-54.873
X18.049 Z-54.841
X17.906 Z-54.807
X17.827 Y8.67
X17.778 Y8.738
Y8.821
X17.827 Y8.889
X17.906 Y8.914
X17.924
X18.067 Z-54.841
X18.199 Z-54.874
X18.332 Z-54.85
G3 X280.351 Z-1.955 I272.041 K-672.167
X306.646 Z-2.089 I9.309 K-753.233
G1 X311.746 Z-2.224
G3 X561.671 Z-54.845 I-22.151 K-725.031
G1 X561.801 Z-54.871
X561.933 Z-54.841
X562.076 Z-54.808
X562.155 Y8.94
X562.204 Y9.008
Y9.091
X562.155 Y9.159
X562.076 Y9.184
X562.058
X561.915 Z-54.841
X561.783 Z-54.874
X561.65 Z-54.85
G2 X311.869 Z-2.232 I-272.02 K-672.115
G1 X306.699 Z-2.094
G2 X103.795 Z-26.317 I-16.58 K-723.045
X18.35 Z-54.849 I184.42 K-694.481
G1 X18.217 Z-54.873
X18.086 Z-54.841
X17.943 Z-54.807
X17.863 Y9.21
X17.814 Y9.278
Y9.361
X17.863 Y9.429
X17.943 Y9.454
X17.961
X18.104 Z-54.841
X18.235 Z-54.873
X18.369 Z-54.85
G3 X280.313 Z-1.963 I272.005 K-672.086
X306.68 Z-2.098 I9.351 K-753.157
G1 X311.85 Z-2.235
G3 X561.634 Z-54.845 I-22.254 K-724.935
G1 X561.765 Z-54.871
X561.896 Z-54.841
X562.039 Z-54.808
X562.119 Y9.48
X562.168 Y9.548
Y9.631
X562.119 Y9.699
X562.039 Y9.724
X562.021
X561.878 Z-54.841
X561.747 Z-54.874
X561.613 Z-54.85
G2 X311.831 Z-2.238 I-271.983 K-672.029
G1 X306.662 Z-2.101
G2 X103.973 Z-26.281 I-16.539 K-722.981
X18.387 Z-54.849 I184.242 K-694.432
G1 X18.254 Z-54.873
X18.122 Z-54.84
X17.979 Z-54.807
X17.9 Y9.75
X17.851 Y9.818
Y9.901
X17.9 Y9.969
X17.979 Y9.994
X17.997
X18.141 Z-54.84
X18.272 Z-54.873
X18.405 Z-54.85
G3 X280.272 Z-1.972 I271.972 K-672.017
X306.639 Z-2.104 I9.393 K-753.106
G1 X311.809 Z-2.241
G3 X561.597 Z-54.845 I-22.212 K-724.841
G1 X561.728 Z-54.871
X561.86 Z-54.841
X562.003 Z-54.808
X562.082 Y10.02
X562.131 Y10.088
Y10.171
X562.082 Y10.239
X562.003 Y10.264
X561.984
X561.841 Z-54.841
X561.71 Z-54.874
X561.577 Z-54.85
G2 X311.788 Z-2.244 I-271.946 K-671.944
G1 X306.618 Z-2.108
G2 X103.969 Z-26.293 I-16.496 K-722.886
X18.423 Z-54.849 I184.237 K-694.313
G1 X18.29 Z-54.873
X18.159 Z-54.84
X18.016 Z-54.807
X17.936 Y10.29
X17.887 Y10.358
Y10.441
X17.936 Y10.509
X18.016 Y10.534
X18.034
X18.177 Z-54.84
X18.308 Z-54.873
X18.442 Z-54.85
G3 X280.376 Z-1.978 I271.937 K-671.94
X306.743 Z-2.114 I9.283 K-753.117
G1 X311.909 Z-2.252
G3 X561.561 Z-54.845 I-22.312 K-724.745
G1 X561.692 Z-54.871
X561.823 Z-54.841
X561.966 Z-54.808
X562.046 Y10.56
X562.095 Y10.628
Y10.711
X562.046 Y10.779
X561.966 Y10.804
X561.948
X561.805 Z-54.841
X561.674 Z-54.874
X561.54 Z-54.85
G2 X311.89 Z-2.255 I-271.91 K-671.859
G1 X306.723 Z-2.118
G2 X103.959 Z-26.306 I-16.601 K-722.788
X18.46 Z-54.849 I184.216 K-694.128
G1 X18.327 Z-54.873
X18.195 Z-54.84
X18.052 Z-54.807
X17.973 Y10.83
X17.924 Y10.898
Y10.981
X17.973 Y11.049
X18.052 Y11.074
X18.071
X18.214 Z-54.84
X18.345 Z-54.873
X18.478 Z-54.85
G3 X280.338 Z-1.986 I271.9 K-671.856
X306.705 Z-2.121 I9.323 K-752.869
G1 X311.872 Z-2.258
G3 X561.524 Z-54.845 I-22.273 K-724.647
G1 X561.655 Z-54.871
X561.787 Z-54.841
X561.93 Z-54.808
X562.009 Y11.1
X562.058 Y11.168
Y11.251
X562.009 Y11.319
X561.93 Y11.344
X561.911
X561.768 Z-54.841
X561.637 Z-54.874
X561.504 Z-54.85
G2 X311.994 Z-2.266 I-271.872 K-671.771
G1 X306.83 Z-2.128
G2 X99.467 Z-27.527 I-16.698 K-722.842
X18.497 Z-54.849 I188.524 K-692.334
G1 X18.363 Z-54.873
X18.232 Z-54.84
X18.089 Z-54.807
X18.01 Y11.37
X17.961 Y11.438
Y11.521
X18.01 Y11.589
X18.089 Y11.614
X18.107
X18.25 Z-54.84
X18.381 Z-54.873
X18.515 Z-54.85
G3 X280.301 Z-1.994 I271.87 K-671.802
X306.812 Z-2.131 I9.354 K-753.238
G1 X311.976 Z-2.269
G3 X561.488 Z-54.845 I-22.377 K-724.552
G1 X561.619 Z-54.871
X561.75 Z-54.841
X561.893 Z-54.808
X561.972 Y11.64
X562.022 Y11.708
Y11.791
X561.972 Y11.859
X561.893 Y11.884
X561.875
X561.732 Z-54.841
X561.601 Z-54.874
X561.467 Z-54.85
G2 X311.957 Z-2.272 I-271.837 K-671.693
G1 X306.793 Z-2.134
G2 X108.333 Z-25.178 I-16.676 K-722.493
X18.533 Z-54.849 I180.074 K-695.739
G1 X18.4 Z-54.873
X18.268 Z-54.84
X18.125 Z-54.807
X18.046 Y11.91
X17.997 Y11.978
Y12.061
X18.046 Y12.129
X18.125 Y12.154
X18.144
X18.287 Z-54.84
X18.418 Z-54.873
X18.551 Z-54.85
G3 X280.261 Z-2.002 I271.836 K-671.729
X306.772 Z-2.138 I9.389 K-754.011
G1 X311.936 Z-2.276
G3 X561.451 Z-54.844 I-22.337 K-724.465
G1 X561.582 Z-54.871
X561.714 Z-54.841
X561.857 Z-54.808
X561.936 Y12.18
X561.985 Y12.248
Y12.331
X561.936 Y12.399
X561.857 Y12.424
X561.838
X561.695 Z-54.841
X561.564 Z-54.874
X561.431 Z-54.85
G2 X311.634 Z-2.27 I-271.8 K-671.609
G1 X306.607 Z-2.138
G2 X102.316 Z-26.778 I-16.478 K-722.584
X18.57 Z-54.849 I185.732 K-693.059
G1 X18.436 Z-54.873
X18.305 Z-54.84
X18.162 Z-54.807
X18.083 Y12.45
X18.034 Y12.518
Y12.601
X18.083 Y12.669
X18.162 Y12.694
X18.18
X18.323 Z-54.84
X18.455 Z-54.873
X18.588 Z-54.85
G3 X280.366 Z-2.008 I271.801 K-671.653
X306.733 Z-2.144 I9.276 K-754.238
G1 X311.897 Z-2.282
G3 X561.415 Z-54.844 I-22.3 K-724.384
G1 X561.546 Z-54.87
X561.677 Z-54.841
X561.82 Z-54.808
X561.899 Y12.72
X561.948 Y12.788
Y12.871
X561.899 Y12.939
X561.82 Y12.964
X561.802
X561.659 Z-54.841
X561.528 Z-54.874
X561.394 Z-54.85
G2 X312.019 Z-2.29 I-271.767 K-671.54
G1 X306.858 Z-2.151
G2 X107.959 Z-25.297 I-16.737 K-722.351
X18.606 Z-54.849 I180.502 K-695.614
G1 X18.473 Z-54.873
X18.342 Z-54.84
X18.199 Z-54.807
X18.119 Y12.99
X18.07 Y13.058
Y13.141
X18.119 Y13.209
X18.199 Y13.234
X18.217
X18.36 Z-54.84
X18.491 Z-54.873
X18.624 Z-54.85
X18.625
G3 X280.328 Z-2.016 I271.767 K-671.581
X306.839 Z-2.154 I9.315 K-753.753
G1 X312 Z-2.293
G3 X561.378 Z-54.844 I-22.408 K-724.313
G1 X561.509 Z-54.87
X561.641 Z-54.841
X561.784 Z-54.808
X561.863 Y13.26
X561.912 Y13.328
Y13.411
X561.863 Y13.479
X561.784 Y13.504
X561.765
X561.622 Z-54.841
X561.491 Z-54.874
X561.358 Z-54.85
G2 X311.982 Z-2.296 I-271.732 K-671.465
G1 X306.821 Z-2.158
G2 X107.431 Z-25.445 I-16.697 K-722.294
X18.642 Z-54.849 I181.069 K-695.512
G1 X18.509 Z-54.872
X18.378 Z-54.84
X18.235 Z-54.807
X18.156 Y13.53
X18.107 Y13.598
Y13.681
X18.156 Y13.749
X18.235 Y13.774
X18.253
X18.396 Z-54.84
X18.528 Z-54.873
X18.661 Z-54.85
Z-54.849
G3 X280.29 Z-2.024 I271.73 K-671.499
X306.946 Z-2.164 I9.36 K-753.07
G1 X312.103 Z-2.304
G3 X561.342 Z-54.844 I-22.513 K-724.23
G1 X561.473 Z-54.87
X561.604 Z-54.841
X561.747 Z-54.807
X561.826 Y13.8
X561.875 Y13.868
Y13.951
X561.826 Y14.019
X561.747 Y14.044
X561.729
X561.586 Z-54.841
X561.454 Z-54.874
X561.321 Z-54.85
G2 X312.085 Z-2.307 I-271.696 K-671.381
G1 X306.927 Z-2.168
G2 X98.37 Z-27.883 I-16.787 K-722.436
X18.679 Z-54.849 I189.515 K-691.281
G1 X18.546 Z-54.873
X18.415 Z-54.84
X18.272 Z-54.807
X18.192 Y14.07
X18.143 Y14.138
Y14.221
X18.192 Y14.288
X18.272 Y14.314
X18.29
X18.433 Z-54.84
X18.564 Z-54.873
X18.698 Z-54.849
G3 X280.253 Z-2.032 I271.695 K-671.422
X306.909 Z-2.171 I9.396 K-753.111
G1 X312.067 Z-2.31
G3 X561.305 Z-54.844 I-22.47 K-724.105
G1 X561.436 Z-54.87
X561.567 Z-54.841
X561.71 Z-54.807
X561.79 Y14.34
X561.839 Y14.408
Y14.491
X561.79 Y14.558
X561.71 Y14.584
X561.692
X561.549 Z-54.841
X561.418 Z-54.874
X561.285 Z-54.85
G2 X302.13 Z-2.072 I-271.672 K-671.337
X41.717 Z-45.993 I-11.836 K-723.801
X18.716 Z-54.849 I235.101 K-644.865
G1 X18.582 Z-54.873
X18.451 Z-54.84
X18.308 Z-54.807
X18.229 Y14.61
X18.18 Y14.678
Y14.761
X18.229 Y14.828
X18.308 Y14.854
X18.326
X18.469 Z-54.84
X18.601 Z-54.873
X18.734 Z-54.849
G3 X280.354 Z-2.038 I271.658 K-671.334
X356.746 Z-5.082 I9.459 K-722.761
X558.224 Z-53.615 I-67.345 K-722.036
G1 X561.266 Z-54.85
X561.4 Z-54.874
X561.531 Z-54.841
X561.674 Z-54.807
X561.753 Y14.88
X561.802 Y14.948
Y15.031
X561.753 Y15.098
X561.674 Y15.124
X561.656
X561.513 Z-54.841
X561.381 Z-54.874
X561.248 Z-54.85
G2 X312.146 Z-2.324 I-271.62 K-671.199
G1 X306.991 Z-2.184
G2 X85.745 Z-31.498 I-16.829 K-722.562
X18.753 Z-54.85 I201.065 K-684.603
G1 X18.619 Z-54.873
X18.488 Z-54.84
X18.345 Z-54.807
X18.265 Y15.15
X18.216 Y15.218
Y15.301
X18.265 Y15.368
X18.345 Y15.394
X18.363
X18.506 Z-54.84
X18.637 Z-54.873
X18.771 Z-54.849
G3 X280.317 Z-2.046 I271.623 K-671.256
X306.972 Z-2.188 I9.329 K-753.052
G1 X312.127 Z-2.327
G3 X561.232 Z-54.844 I-22.532 K-723.93
G1 X561.363 Z-54.87
X561.494 Z-54.841
X561.637 Z-54.807
X561.717 Y15.42
X561.766 Y15.488
Y15.571
X561.717 Y15.638
X561.637 Y15.664
X561.619
X561.476 Z-54.841
X561.345 Z-54.874
X561.212 Z-54.85
G2 X312.109 Z-2.33 I-271.583 K-671.113
G1 X306.953 Z-2.191
G2 X89.593 Z-30.388 I-16.796 K-722.391
X18.789 Z-54.85 I197.585 K-686.609
G1 X18.656 Z-54.873
X18.524 Z-54.84
X18.381 Z-54.807
X18.302 Y15.69
X18.253 Y15.758
Y15.841
X18.302 Y15.908
X18.381 Y15.934
X18.399
X18.542 Z-54.84
X18.674 Z-54.873
X18.807 Z-54.849
G3 X280.279 Z-2.054 I271.586 K-671.174
X306.934 Z-2.194 I9.368 K-752.885
G1 X312.09 Z-2.334
G3 X561.196 Z-54.844 I-22.491 K-723.819
G1 X561.326 Z-54.87
X561.458 Z-54.841
X561.601 Z-54.807
X561.68 Y15.96
X561.729 Y16.028
Y16.111
X561.68 Y16.178
X561.601 Y16.204
X561.583
X561.44 Z-54.841
X561.308 Z-54.874
X561.175 Z-54.85
G2 X312.071 Z-2.337 I-271.543 K-671.014
G1 X306.915 Z-2.198
G2 X85.961 Z-31.457 I-16.754 K-722.382
X18.826 Z-54.85 I200.87 K-684.521
G1 X18.692 Z-54.873
X18.561 Z-54.84
X18.418 Z-54.806
X18.338 Y16.23
X18.289 Y16.298
Y16.381
X18.338 Y16.448
X18.418 Y16.474
X18.436
X18.579 Z-54.84
X18.71 Z-54.873
X18.844 Z-54.849
G3 X280.385 Z-2.06 I271.551 K-671.097
X307.041 Z-2.204 I9.248 K-754.24
G1 X312.193 Z-2.344
G3 X561.159 Z-54.844 I-22.596 K-723.732
G1 X561.29 Z-54.87
X561.421 Z-54.841
X561.565 Z-54.807
X561.644 Y16.5
X561.693 Y16.568
Y16.651
X561.644 Y16.718
X561.565 Y16.744
X561.546
X561.403 Z-54.841
X561.272 Z-54.874
X561.139 Z-54.85
G2 X312.175 Z-2.348 I-271.507 K-670.933
G1 X307.022 Z-2.208
G2 X89.705 Z-30.378 I-16.865 K-722.21
X18.862 Z-54.849 I197.565 K-686.716
G1 X18.729 Z-54.873
X18.597 Z-54.84
X18.454 Z-54.806
X18.375 Y16.77
X18.326 Y16.838
Y16.921
X18.375 Y16.988
X18.454 Y17.014
X18.472
X18.616 Z-54.84
X18.747 Z-54.873
X18.88 Z-54.849
G3 X280.344 Z-2.068 I271.514 K-671.011
X306.999 Z-2.211 I9.295 K-753.859
G1 X312.152 Z-2.351
G3 X561.123 Z-54.844 I-22.557 K-723.653
G1 X561.254 Z-54.87
X561.385 Z-54.841
X561.528 Z-54.807
X561.607 Y17.04
X561.656 Y17.108
Y17.191
X561.607 Y17.258
X561.528 Y17.284
X561.51
X561.367 Z-54.841
X561.235 Z-54.874
X561.102 Z-54.85
G2 X312.133 Z-2.354 I-271.471 K-670.85
G1 X306.98 Z-2.214
G2 X89.723 Z-30.384 I-16.824 K-722.118
X18.899 Z-54.849 I197.579 K-686.716
G1 X18.765 Z-54.873
X18.634 Z-54.84
X18.491 Z-54.806
X18.411 Y17.31
X18.362 Y17.378
Y17.461
X18.411 Y17.528
X18.491 Y17.554
X18.509
X18.652 Z-54.84
X18.783 Z-54.872
X18.917 Z-54.849
G3 X280.305 Z-2.076 I271.478 K-670.928
X307.104 Z-2.221 I9.341 K-752.755
G1 X312.254 Z-2.362
G3 X561.086 Z-54.844 I-22.657 K-723.543
G1 X561.217 Z-54.87
X561.348 Z-54.841
X561.491 Z-54.807
X561.571 Y17.58
X561.62 Y17.648
Y17.731
X561.571 Y17.798
X561.491 Y17.824
X561.473
X561.33 Z-54.841
X561.199 Z-54.874
X561.065 Z-54.85
G2 X312.236 Z-2.365 I-271.433 K-670.76
G1 X307.085 Z-2.224
G2 X85.863 Z-31.52 I-16.923 K-722.112
X18.935 Z-54.849 I201.11 K-684.622
G1 X18.802 Z-54.873
X18.67 Z-54.839
X18.527 Z-54.806
X18.448 Y17.85
X18.399 Y17.918
Y18.001
X18.448 Y18.068
X18.527 Y18.094
X18.546
X18.689 Z-54.839
X18.82 Z-54.872
X18.953 Z-54.849
G3 X280.268 Z-2.084 I271.441 K-670.844
X307.067 Z-2.228 I9.376 K-753.12
G1 X312.218 Z-2.368
G3 X561.049 Z-54.844 I-22.618 K-723.443
G1 X561.18 Z-54.871
X561.312 Z-54.841
X561.455 Z-54.807
X561.534 Y18.12
X561.583 Y18.188
Y18.271
X561.534 Y18.338
X561.455 Y18.364
X561.437
X561.294 Z-54.841
X561.162 Z-54.874
X561.029 Z-54.85
G2 X312.34 Z-2.376 I-271.397 K-670.679
G1 X307.193 Z-2.234
G2 X81.659 Z-32.784 I-17.022 K-722.112
X18.972 Z-54.85 I204.857 K-682.06
G1 X18.838 Z-54.873
X18.707 Z-54.839
X18.564 Z-54.806
X18.485 Y18.39
X18.436 Y18.458
Y18.541
X18.485 Y18.608
X18.564 Y18.634
X18.582
X18.725 Z-54.839
X18.856 Z-54.872
X18.99 Z-54.849
G3 X280.374 Z-2.09 I271.403 K-670.754
X307.173 Z-2.237 I9.269 K-753.221
G1 X312.32 Z-2.379
G3 X561.013 Z-54.844 I-22.726 K-723.371
G1 X561.144 Z-54.87
X561.275 Z-54.841
X561.418 Z-54.807
X561.498 Y18.66
X561.547 Y18.728
Y18.811
X561.498 Y18.878
X561.418 Y18.904
X561.4
X561.257 Z-54.841
X561.126 Z-54.874
X560.992 Z-54.85
G2 X312.3 Z-2.382 I-271.362 K-670.601
G1 X307.153 Z-2.241
G2 X73.017 Z-35.457 I-16.972 K-722.168
X19.009 Z-54.85 I212.227 K-675.94
G1 X18.875 Z-54.873
X18.743 Z-54.839
X18.6 Z-54.806
X18.521 Y18.93
X18.472 Y18.998
Y19.081
X18.521 Y19.148
X18.6 Y19.174
X18.619
X18.762 Z-54.839
X18.893 Z-54.872
X19.026 Z-54.849
G3 X280.333 Z-2.099 I271.367 K-670.671
X302.27 Z-2.145 I9.343 K-774.685
G1 X307.277 Z-2.247
X312.28 Z-2.385
G3 X560.976 Z-54.844 I-22.683 K-723.27
G1 X561.107 Z-54.87
X561.239 Z-54.841
X561.382 Z-54.807
X561.461 Y19.2
X561.51 Y19.268
Y19.351
X561.461 Y19.418
X561.382 Y19.444
X561.364
X561.221 Z-54.841
X561.089 Z-54.874
X560.956 Z-54.85
G2 X312.257 Z-2.388 I-271.327 K-670.525
G1 X307.254 Z-2.251
G2 X73.031 Z-35.465 I-17.074 K-722.064
X19.045 Z-54.85 I212.38 K-676.325
G1 X18.911 Z-54.873
X18.78 Z-54.839
X18.637 Z-54.806
X18.558 Y19.47
X18.509 Y19.538
Y19.621
X18.558 Y19.688
X18.637 Y19.714
X18.655
X18.798 Z-54.839
X18.929 Z-54.872
X19.063 Z-54.849
G3 X280.292 Z-2.107 I271.329 K-670.581
X307.379 Z-2.257 I9.36 K-753.071
G1 X312.379 Z-2.396
G3 X560.94 Z-54.844 I-22.787 K-723.2
G1 X561.071 Z-54.87
X561.202 Z-54.841
X561.345 Z-54.807
X561.425 Y19.74
X561.474 Y19.808
Y19.891
X561.425 Y19.958
X561.345 Y19.984
X561.327
X561.184 Z-54.841
X561.053 Z-54.874
X560.919 Z-54.85
G2 X312.36 Z-2.399 I-271.289 K-670.436
G1 X307.36 Z-2.261
G2 X77.935 Z-33.951 I-17.187 K-721.88
X19.082 Z-54.85 I207.992 K-679.048
G1 X18.948 Z-54.873
X18.817 Z-54.839
X18.674 Z-54.806
X18.594 Y20.01
X18.545 Y20.078
Y20.161
X18.594 Y20.228
X18.674 Y20.254
X18.692
X18.835 Z-54.839
X18.966 Z-54.872
X19.099 Z-54.849
G3 X280.398 Z-2.113 I271.289 K-670.48
X307.341 Z-2.264 I9.247 K-753.515
G1 X312.341 Z-2.402
G3 X560.903 Z-54.844 I-22.745 K-723.089
G1 X561.034 Z-54.87
X561.166 Z-54.841
X561.309 Z-54.807
X561.388 Y20.28
X561.437 Y20.348
Y20.431
X561.388 Y20.498
X561.309 Y20.524
X561.29
X561.147 Z-54.841
X561.016 Z-54.874
X560.883 Z-54.85
G2 X312.322 Z-2.406 I-271.251 K-670.346
G1 X307.322 Z-2.267
G2 X82.034 Z-32.717 I-17.158 K-721.694
X19.118 Z-54.85 I204.605 K-682.124
G1 X18.984 Z-54.873
X18.853 Z-54.839
X18.71 Z-54.806
X18.63 Y20.55
X18.581 Y20.618
Y20.701
X18.63 Y20.768
X18.71 Y20.794
X18.728
X18.871 Z-54.839
X19.003 Z-54.872
X19.136 Z-54.849
G3 X280.359 Z-2.121 I271.251 K-670.391
X349.519 Z-4.531 I9.447 K-722.524
X558.076 Z-53.717 I-60.113 K-721.64
G1 X560.865 Z-54.85
X560.998 Z-54.874
X561.129 Z-54.841
X561.272 Z-54.807
X561.352 Y20.82
X561.401 Y20.888
Y20.971
X561.352 Y21.038
X561.272 Y21.064
X561.254
X561.111 Z-54.841
X560.98 Z-54.874
X560.846 Z-54.85
G2 X302.673 Z-2.172 I-271.238 K-670.343
X19.154 Z-54.848 I-12.383 K-722.694
G1 X19.021 Z-54.872
X18.889 Z-54.839
X18.746 Z-54.806
X18.667 Y21.09
X18.618 Y21.158
Y21.241
X18.667 Y21.308
X18.746 Y21.334
X18.765
X18.908 Z-54.839
X19.039 Z-54.872
X19.172 Z-54.849
G3 X280.321 Z-2.129 I271.213 K-670.302
X560.829 Z-54.848 I9.373 K-722.757
G1 X560.961 Z-54.872
X561.093 Z-54.841
X561.236 Z-54.807
X561.315 Y21.36
X561.364 Y21.428
Y21.511
X561.315 Y21.578
X561.236 Y21.604
X561.217
X561.074 Z-54.841
X560.943 Z-54.874
X560.81 Z-54.85
G2 X302.633 Z-2.179 I-271.201 K-670.256
X19.19 Z-54.847 I-12.344 K-722.606
G1 X19.057 Z-54.871
X18.926 Z-54.839
X18.783 Z-54.806
X18.704 Y21.63
X18.655 Y21.698
Y21.781
X18.704 Y21.848
X18.783 Y21.874
X18.801
X18.944 Z-54.839
X19.076 Z-54.872
X19.209 Z-54.849
Z-54.848
G3 X280.279 Z-2.137 I271.176 K-670.217
X362.523 Z-5.747 I9.557 K-720.894
X560.795 Z-54.841 I-73.106 K-720.176
G1 X560.925 Z-54.869
X561.056 Z-54.841
X561.199 Z-54.807
X561.279 Y21.9
X561.328 Y21.968
Y22.051
X561.279 Y22.118
X561.199 Y22.144
X561.181
X561.038 Z-54.841
X560.907 Z-54.874
X560.773 Z-54.85
G2 X302.736 Z-2.189 I-271.164 K-670.172
X19.227 Z-54.847 I-12.448 K-722.508
G1 X19.094 Z-54.871
X18.963 Z-54.839
X18.82 Z-54.806
X18.74 Y22.17
X18.691 Y22.238
Y22.321
X18.74 Y22.388
X18.82 Y22.414
X18.838
X18.981 Z-54.839
X19.112 Z-54.872
X19.245 Z-54.848
X19.246
G3 X280.383 Z-2.144 I271.138 K-670.127
X297.817 Z-2.129 I9.379 K-794.073
G1 X302.859 Z-2.201
G3 X560.757 Z-54.846 I-13.208 K-722.716
G1 X560.888 Z-54.871
X561.02 Z-54.841
X561.163 Z-54.807
X561.242 Y22.44
X561.291 Y22.508
Y22.591
X561.242 Y22.658
X561.163 Y22.684
X561.144
X561.001 Z-54.841
X560.87 Z-54.874
X560.737 Z-54.85
G2 X303.127 Z-2.203 I-271.127 K-670.084
X19.263 Z-54.847 I-12.842 K-722.395
G1 X19.131 Z-54.871
X18.999 Z-54.839
X18.856 Z-54.806
X18.777 Y22.71
X18.728 Y22.778
Y22.861
X18.777 Y22.928
X18.856 Y22.954
X18.874
X19.018 Z-54.839
X19.149 Z-54.872
X19.282 Z-54.848
G3 X280.342 Z-2.152 I271.101 K-670.045
X560.719 Z-54.848 I9.355 K-722.469
G1 X560.852 Z-54.872
X560.983 Z-54.841
X561.126 Z-54.807
X561.205 Y22.98
X561.254 Y23.048
Y23.131
X561.205 Y23.198
X561.126 Y23.224
X561.108
X560.965 Z-54.841
X560.834 Z-54.874
X560.7 Z-54.85
G2 X303.229 Z-2.213 I-271.09 K-669.998
X19.3 Z-54.847 I-12.946 K-722.292
G1 X19.167 Z-54.871
X19.036 Z-54.839
X18.893 Z-54.806
X18.813 Y23.25
X18.764 Y23.318
Y23.401
X18.813 Y23.468
X18.893 Y23.494
X18.911
X19.054 Z-54.839
X19.185 Z-54.872
X19.318 Z-54.848
X19.319
G3 X280.301 Z-2.16 I271.065 K-669.96
X362.41 Z-5.76 I9.535 K-720.674
X560.686 Z-54.841 I-72.993 K-719.906
G1 X560.815 Z-54.869
X560.947 Z-54.841
X561.09 Z-54.807
X561.169 Y23.52
X561.218 Y23.588
Y23.671
X561.169 Y23.738
X561.09 Y23.764
X561.071
X560.928 Z-54.841
X560.797 Z-54.874
X560.664 Z-54.85
G2 X303.479 Z-2.225 I-271.053 K-669.911
X19.336 Z-54.847 I-13.198 K-722.186
G1 X19.204 Z-54.871
X19.072 Z-54.839
X18.929 Z-54.805
X18.85 Y23.79
X18.801 Y23.858
Y23.941
X18.85 Y24.008
X18.929 Y24.034
X18.948
X19.091 Z-54.839
X19.222 Z-54.872
X19.355 Z-54.848
G3 X280.402 Z-2.166 I271.03 K-669.884
X349.294 Z-4.559 I9.402 K-722.095
X557.857 Z-53.717 I-59.885 K-721.091
G1 X560.645 Z-54.85
X560.779 Z-54.874
X560.91 Z-54.841
X561.053 Z-54.807
X561.132 Y24.06
X561.181 Y24.128
Y24.211
X561.132 Y24.278
X561.053 Y24.304
X561.035
X560.892 Z-54.841
X560.76 Z-54.874
X560.627 Z-54.85
G2 X303.437 Z-2.232 I-271.016 K-669.826
X19.373 Z-54.847 I-13.155 K-722.098
G1 X19.24 Z-54.871
X19.109 Z-54.839
X18.966 Z-54.805
X18.887 Y24.33
X18.837 Y24.398
Y24.481
X18.887 Y24.548
X18.966 Y24.574
X18.984
X19.127 Z-54.839
X19.258 Z-54.872
X19.392 Z-54.848
G3 X280.365 Z-2.174 I270.992 K-669.793
X362.335 Z-5.768 I9.472 K-720.482
X560.612 Z-54.841 I-72.916 K-719.72
G1 X560.742 Z-54.869
X560.873 Z-54.841
X561.016 Z-54.807
X561.096 Y24.6
X561.145 Y24.668
Y24.751
X561.096 Y24.818
X561.016 Y24.844
X560.998
X560.855 Z-54.841
X560.724 Z-54.874
X560.591 Z-54.85
G2 X298.789 Z-2.166 I-270.971 K-669.708
X224.371 Z-5.124 I-8.576 K-721.858
X19.407 Z-54.841 I66.217 K-720.35
G1 X19.277 Z-54.867
X19.145 Z-54.839
X19.002 Z-54.805
X18.923 Y24.87
X18.874 Y24.938
Y25.021
X18.923 Y25.088
X19.002 Y25.114
X19.02
X19.163 Z-54.839
X19.295 Z-54.872
X19.428 Z-54.848
G3 X284.795 Z-2.144 I270.857 K-669.355
G1 X289.91 Z-2.124
G3 X560.573 Z-54.848 I-0.192 K-722.076
G1 X560.706 Z-54.873
X560.837 Z-54.841
X560.98 Z-54.807
X561.059 Y25.14
X561.108 Y25.207
Y25.291
X561.059 Y25.358
X560.98 Y25.384
X560.962
X560.819 Z-54.841
X560.687 Z-54.874
X560.554 Z-54.85
G2 X289.891 Z-2.127 I-270.828 K-669.238
G1 X284.776 Z-2.148
G2 X19.446 Z-54.847 I5.517 K-722.077
G1 X19.313 Z-54.871
X19.182 Z-54.839
X19.039 Z-54.805
X18.96 Y25.41
X18.911 Y25.477
Y25.561
X18.96 Y25.628
X19.039 Y25.654
X19.057
X19.2 Z-54.839
X19.331 Z-54.872
X19.465 Z-54.848
G3 X284.756 Z-2.152 I270.82 K-669.267
G1 X289.943 Z-2.131
G3 X560.536 Z-54.848 I-0.226 K-721.987
G1 X560.669 Z-54.873
X560.8 Z-54.841
X560.943 Z-54.807
X561.023 Y25.68
X561.072 Y25.747
Y25.831
X561.023 Y25.898
X560.943 Y25.924
X560.925
X560.782 Z-54.841
X560.651 Z-54.874
X560.518 Z-54.85
G2 X289.924 Z-2.135 I-270.792 K-669.155
G1 X284.737 Z-2.156
G2 X19.482 Z-54.847 I5.555 K-721.978
G1 X19.349 Z-54.871
X19.218 Z-54.839
X19.075 Z-54.806
X18.995 Y25.95
X18.946 Y26.017
Y26.101
X18.995 Y26.168
X19.075 Y26.194
X19.093
X19.236 Z-54.839
X19.368 Z-54.872
X19.501 Z-54.848
G3 X284.718 Z-2.16 I270.782 K-669.178
G1 X289.905 Z-2.139
G3 X560.5 Z-54.848 I-0.187 K-721.89
G1 X560.633 Z-54.873
X560.764 Z-54.841
X560.907 Z-54.807
X560.986 Y26.22
X561.035 Y26.287
Y26.371
X560.986 Y26.438
X560.907 Y26.464
X560.889
X560.746 Z-54.841
X560.614 Z-54.874
X560.481 Z-54.85
G2 X290.315 Z-2.143 I-270.753 K-669.064
G1 X284.84 Z-2.162
G2 X19.519 Z-54.847 I5.453 K-721.893
G1 X19.386 Z-54.871
X19.254 Z-54.839
X19.111 Z-54.806
X19.032 Y26.49
X18.983 Y26.557
Y26.641
X19.032 Y26.708
X19.111 Y26.734
X19.13
X19.273 Z-54.839
X19.404 Z-54.872
X19.538 Z-54.848
G3 X284.821 Z-2.166 I270.747 K-669.098
G1 X290.296 Z-2.147
G3 X560.463 Z-54.848 I-0.576 K-721.789
G1 X560.596 Z-54.873
X560.727 Z-54.841
X560.87 Z-54.807
X560.95 Y26.76
X560.999 Y26.827
Y26.911
X560.95 Y26.978
X560.87 Y27.004
X560.852
X560.709 Z-54.841
X560.578 Z-54.874
X560.444 Z-54.85
G2 X290.278 Z-2.15 I-270.717 K-668.981
G1 X284.803 Z-2.17
G2 X19.555 Z-54.847 I5.49 K-721.8
G1 X19.423 Z-54.871
X19.291 Z-54.839
X19.148 Z-54.806
X19.069 Y27.03
X19.019 Y27.097
Y27.181
X19.069 Y27.248
X19.148 Y27.274
X19.166
X19.309 Z-54.839
X19.441 Z-54.872
X19.574 Z-54.848
G3 X284.927 Z-2.173 I270.712 K-669.018
G1 X290.258 Z-2.154
G3 X560.427 Z-54.848 I-0.539 K-721.702
G1 X560.559 Z-54.873
X560.691 Z-54.841
X560.834 Z-54.807
X560.913 Y27.3
X560.962 Y27.367
Y27.451
X560.913 Y27.518
X560.834 Y27.544
X560.816
X560.673 Z-54.841
X560.541 Z-54.874
X560.408 Z-54.85
G2 X290.237 Z-2.158 I-270.681 K-668.897
G1 X284.906 Z-2.177
G2 X19.592 Z-54.847 I5.387 K-721.711
G1 X19.459 Z-54.871
X19.327 Z-54.839
X19.184 Z-54.806
X19.105 Y27.57
X19.056 Y27.637
Y27.721
X19.105 Y27.788
X19.184 Y27.814
X19.203
X19.346 Z-54.839
X19.477 Z-54.872
X19.611 Z-54.848
G3 X284.917 Z-2.181 I270.675 K-668.933
G1 X290.536 Z-2.162
G3 X545.358 Z-48.961 I-0.812 K-721.575
X560.39 Z-54.85 I-233.55 K-618.263
G1 X560.523 Z-54.874
X560.654 Z-54.841
X560.797 Z-54.807
X560.877 Y27.84
X560.926 Y27.907
Y27.991
X560.877 Y28.058
X560.797 Y28.084
X560.779
X560.636 Z-54.841
X560.505 Z-54.874
X560.371 Z-54.85
G2 X300.751 Z-2.239 I-270.752 K-669.205
X19.628 Z-54.847 I-10.454 K-721.564
G1 X19.496 Z-54.871
X19.364 Z-54.839
X19.221 Z-54.806
X19.142 Y28.11
X19.092 Y28.177
Y28.261
X19.142 Y28.328
X19.221 Y28.354
X19.239
X19.382 Z-54.839
X19.514 Z-54.872
X19.647 Z-54.848
G3 X280.329 Z-2.228 I270.732 K-669.184
X560.354 Z-54.848 I9.372 K-721.529
G1 X560.486 Z-54.872
X560.618 Z-54.841
X560.761 Z-54.807
X560.84 Y28.38
X560.889 Y28.447
Y28.531
X560.84 Y28.598
X560.761 Y28.624
X560.742
X560.599 Z-54.841
X560.468 Z-54.874
X560.335 Z-54.85
G2 X290.628 Z-2.174 I-270.604 K-668.716
G1 X284.865 Z-2.192
G2 X19.665 Z-54.846 I5.428 K-721.526
G1 X19.532 Z-54.871
X19.401 Z-54.839
X19.257 Z-54.806
X19.178 Y28.65
X19.129 Y28.717
Y28.801
X19.178 Y28.868
X19.257 Y28.894
X19.276
X19.419 Z-54.839
X19.55 Z-54.872
X19.684 Z-54.848
G3 X284.853 Z-2.196 I270.6 K-668.757
G1 X290.328 Z-2.177
G3 X545.286 Z-48.961 I-0.605 K-721.403
X560.317 Z-54.85 I-234.261 K-620.083
G1 X560.45 Z-54.873
X560.581 Z-54.841
X560.724 Z-54.807
X560.804 Y28.92
X560.853 Y28.987
Y29.071
X560.804 Y29.138
X560.724 Y29.164
X560.706
X560.563 Z-54.841
X560.432 Z-54.874
X560.298 Z-54.85
G2 X290.625 Z-2.181 I-270.567 K-668.63
G1 X284.862 Z-2.2
G2 X19.701 Z-54.846 I5.431 K-721.431
G1 X19.569 Z-54.871
X19.437 Z-54.839
X19.294 Z-54.806
X19.215 Y29.19
X19.166 Y29.257
Y29.341
X19.215 Y29.408
X19.294 Y29.434
X19.312
X19.455 Z-54.839
X19.587 Z-54.872
X19.72 Z-54.848
G3 X280.289 Z-2.243 I270.659 K-669.017
X560.281 Z-54.848 I9.412 K-721.345
G1 X560.413 Z-54.872
X560.545 Z-54.841
X560.688 Z-54.807
X560.767 Y29.46
X560.816 Y29.527
Y29.611
X560.767 Y29.678
X560.688 Y29.704
X560.669
X560.526 Z-54.841
X560.395 Z-54.874
X560.262 Z-54.85
G2 X300.757 Z-2.262 I-270.643 K-668.952
X19.738 Z-54.847 I-10.46 K-721.293
G1 X19.605 Z-54.871
X19.474 Z-54.839
X19.331 Z-54.806
X19.251 Y29.73
X19.202 Y29.797
Y29.881
X19.251 Y29.948
X19.331 Y29.974
X19.349
X19.492 Z-54.839
X19.623 Z-54.872
X19.757 Z-54.848
G3 X284.937 Z-2.211 I270.529 K-668.595
G1 X290.7 Z-2.193
G3 X560.244 Z-54.849 I-0.975 K-721.213
G1 X560.377 Z-54.873
X560.508 Z-54.841
X560.651 Z-54.807
X560.731 Y30
X560.78 Y30.067
Y30.151
X560.731 Y30.218
X560.651 Y30.244
X560.633
X560.49 Z-54.841
X560.359 Z-54.873
X560.225 Z-54.85
G2 X290.741 Z-2.197 I-270.493 K-668.456
G1 X284.978 Z-2.214
G2 X19.774 Z-54.846 I5.32 K-721.274
G1 X19.642 Z-54.871
X19.51 Z-54.839
X19.367 Z-54.806
X19.288 Y30.27
X19.239 Y30.337
Y30.421
X19.288 Y30.488
X19.367 Y30.514
X19.385
X19.528 Z-54.839
X19.66 Z-54.872
X19.793 Z-54.848
G3 X284.987 Z-2.218 I270.495 K-668.526
G1 X290.75 Z-2.2
G3 X541.334 Z-47.519 I-1.019 K-721.078
X560.207 Z-54.85 I-234.791 K-632.436
G1 X560.34 Z-54.874
X560.472 Z-54.841
X560.615 Z-54.807
X560.694 Y30.54
X560.743 Y30.607
Y30.691
X560.694 Y30.758
X560.615 Y30.784
X560.596
X560.453 Z-54.841
X560.322 Z-54.873
X560.189 Z-54.85
G2 X300.27 Z-2.27 I-270.568 K-668.777
X19.811 Z-54.846 I-9.967 K-721.148
G1 X19.678 Z-54.871
X19.547 Z-54.839
X19.404 Z-54.806
X19.324 Y30.81
X19.275 Y30.877
Y30.961
X19.324 Y31.028
X19.404 Y31.054
X19.422
X19.565 Z-54.839
X19.696 Z-54.872
X19.83 Z-54.848
G3 X280.257 Z-2.266 I270.554 K-668.786
X560.171 Z-54.848 I9.443 K-721.07
G1 X560.304 Z-54.872
X560.435 Z-54.841
X560.578 Z-54.807
X560.657 Y31.08
X560.707 Y31.147
Y31.231
X560.657 Y31.298
X560.578 Y31.324
X560.56
X560.417 Z-54.841
X560.286 Z-54.873
X560.152 Z-54.85
G2 X290.749 Z-2.212 I-270.419 K-668.285
G1 X284.986 Z-2.229
G2 X19.847 Z-54.846 I5.312 K-721.092
G1 X19.715 Z-54.871
X19.583 Z-54.839
X19.44 Z-54.806
X19.361 Y31.35
X19.312 Y31.417
Y31.501
X19.361 Y31.568
X19.44 Y31.594
X19.458
X19.601 Z-54.839
X19.733 Z-54.872
X19.867 Z-54.848
G3 X280.243 Z-2.274 I270.518 K-668.704
X560.135 Z-54.848 I9.457 K-720.977
G1 X560.267 Z-54.872
X560.399 Z-54.841
X560.542 Z-54.807
X560.621 Y31.62
X560.67 Y31.687
Y31.771
X560.621 Y31.838
X560.542 Y31.864
X560.523
X560.38 Z-54.841
X560.249 Z-54.873
X560.116 Z-54.85
G2 X290.514 Z-2.219 I-270.387 K-668.219
G1 X284.895 Z-2.237
G2 X19.884 Z-54.846 I5.401 K-720.992
G1 X19.751 Z-54.871
X19.62 Z-54.839
X19.477 Z-54.806
X19.397 Y31.89
X19.348 Y31.957
Y32.041
X19.397 Y32.108
X19.477 Y32.134
X19.495
X19.638 Z-54.839
X19.769 Z-54.872
X19.903 Z-54.848
G3 X284.876 Z-2.241 I270.385 K-668.273
G1 X290.64 Z-2.223
G3 X503.94 Z-34.795 I-0.863 K-720.344
X560.097 Z-54.85 I-210.14 K-677.06
G1 X560.231 Z-54.874
X560.362 Z-54.841
X560.505 Z-54.807
X560.584 Y32.16
X560.633 Y32.227
Y32.311
X560.584 Y32.378
X560.505 Y32.404
X560.487
X560.344 Z-54.841
X560.212 Z-54.873
X560.079 Z-54.85
G2 X290.36 Z-2.226 I-270.352 K-668.14
G1 X284.885 Z-2.245
G2 X19.921 Z-54.846 I5.412 K-720.903
G1 X19.788 Z-54.871
X19.656 Z-54.839
X19.513 Z-54.806
X19.434 Y32.43
X19.385 Y32.497
Y32.581
X19.434 Y32.648
X19.513 Y32.674
X19.531
X19.674 Z-54.839
X19.806 Z-54.872
X19.94 Z-54.848
G3 X284.921 Z-2.249 I270.349 K-668.187
G1 X290.684 Z-2.231
G3 X545.286 Z-49.059 I-0.96 K-720.757
X560.061 Z-54.85 I-232.638 K-615.267
G1 X560.194 Z-54.874
X560.326 Z-54.841
X560.469 Z-54.807
X560.548 Y32.7
X560.597 Y32.767
Y32.851
X560.548 Y32.918
X560.469 Y32.944
X560.45
X560.307 Z-54.841
X560.176 Z-54.873
X560.043 Z-54.85
G2 X290.692 Z-2.234 I-270.313 K-668.048
G1 X284.929 Z-2.252
G2 X19.957 Z-54.846 I5.368 K-720.81
G1 X19.824 Z-54.871
X19.693 Z-54.839
X19.55 Z-54.806
X19.47 Y32.97
X19.421 Y33.037
Y33.121
X19.47 Y33.188
X19.55 Y33.214
X19.568
X19.711 Z-54.839
X19.843 Z-54.872
X19.976 Z-54.848
G3 X284.938 Z-2.256 I270.312 K-668.102
G1 X290.701 Z-2.238
G3 X545.249 Z-49.059 I-0.976 K-720.662
X560.024 Z-54.85 I-232.745 K-615.546
G1 X560.158 Z-54.874
X560.289 Z-54.841
X560.432 Z-54.807
X560.511 Y33.24
X560.56 Y33.307
Y33.391
X560.511 Y33.458
X560.432 Y33.484
X560.414
X560.271 Z-54.841
X560.139 Z-54.873
X560.006 Z-54.85
G2 X290.746 Z-2.242 I-270.274 K-667.954
G1 X284.982 Z-2.259
G2 X19.994 Z-54.846 I5.312 K-720.706
G1 X19.861 Z-54.871
X19.729 Z-54.839
X19.586 Z-54.806
X19.507 Y33.51
X19.458 Y33.577
Y33.661
X19.507 Y33.728
X19.586 Y33.754
X19.604
X19.748 Z-54.839
X19.879 Z-54.872
X20.013 Z-54.848
G3 X284.851 Z-2.264 I270.271 K-667.999
G1 X290.326 Z-2.245
G3 X559.989 Z-54.848 I-0.607 K-720.603
G1 X560.121 Z-54.872
X560.252 Z-54.841
X560.395 Z-54.807
X560.475 Y33.78
X560.524 Y33.847
Y33.931
X560.475 Y33.998
X560.395 Y34.024
X560.377
X560.234 Z-54.841
X560.103 Z-54.873
X559.97 Z-54.85
G2 X290.337 Z-2.249 I-270.242 K-667.885
G1 X284.862 Z-2.268
G2 X20.03 Z-54.846 I5.43 K-720.607
G1 X19.897 Z-54.871
X19.766 Z-54.839
X19.623 Z-54.806
X19.543 Y34.05
X19.494 Y34.117
Y34.201
X19.543 Y34.268
X19.623 Y34.294
X19.641
X19.784 Z-54.839
X19.916 Z-54.872
X20.049 Z-54.848
G3 X284.871 Z-2.272 I270.234 K-667.913
G1 X290.058 Z-2.252
G3 X559.952 Z-54.848 I-0.343 K-720.531
G1 X560.085 Z-54.872
X560.216 Z-54.841
X560.359 Z-54.807
X560.438 Y34.32
X560.487 Y34.387
Y34.471
X560.438 Y34.538
X560.359 Y34.564
X560.341
X560.198 Z-54.841
X560.066 Z-54.873
X559.933 Z-54.85
G2 X290.526 Z-2.257 I-270.204 K-667.795
G1 X284.907 Z-2.275
G2 X20.067 Z-54.846 I5.385 K-720.512
G1 X19.934 Z-54.871
X19.802 Z-54.839
X19.659 Z-54.806
X19.58 Y34.59
X19.531 Y34.657
Y34.741
X19.58 Y34.808
X19.659 Y34.834
X19.678
X19.821 Z-54.839
X19.952 Z-54.872
X20.086 Z-54.848
G3 X284.774 Z-2.28 I270.196 K-667.822
G1 X289.961 Z-2.259
G3 X559.916 Z-54.848 I-0.245 K-720.44
G1 X560.048 Z-54.872
X560.179 Z-54.841
X560.322 Z-54.807
X560.402 Y34.86
X560.451 Y34.927
Y35.011
X560.402 Y35.078
X560.322 Y35.104
X560.304
X560.161 Z-54.841
X560.03 Z-54.873
X559.897 Z-54.85
G2 X290.006 Z-2.263 I-270.173 K-667.73
G1 X284.783 Z-2.284
G2 X20.103 Z-54.846 I5.507 K-720.412
G1 X19.97 Z-54.871
X19.839 Z-54.839
X19.696 Z-54.806
X19.616 Y35.13
X19.567 Y35.197
Y35.281
X19.616 Y35.348
X19.696 Y35.374
X19.714
X19.857 Z-54.839
X19.989 Z-54.872
X20.122 Z-54.848
G3 X284.792 Z-2.288 I270.16 K-667.74
G1 X289.907 Z-2.267
G3 X559.879 Z-54.848 I-0.188 K-720.324
G1 X560.012 Z-54.873
X560.143 Z-54.841
X560.286 Z-54.807
X560.365 Y35.4
X560.414 Y35.467
Y35.551
X560.365 Y35.618
X560.286 Y35.644
X560.268
X560.125 Z-54.841
X559.993 Z-54.873
X559.86 Z-54.85
G2 X289.961 Z-2.271 I-270.136 K-667.644
G1 X284.774 Z-2.291
G2 X20.14 Z-54.846 I5.517 K-720.322
G1 X20.007 Z-54.871
X19.875 Z-54.839
X19.732 Z-54.806
X19.653 Y35.67
X19.604 Y35.737
Y35.821
X19.653 Y35.888
X19.732 Y35.914
X19.751
X19.894 Z-54.839
X20.025 Z-54.872
X20.159 Z-54.848
G3 X284.782 Z-2.295 I270.124 K-667.657
G1 X289.897 Z-2.275
G3 X559.842 Z-54.849 I-0.177 K-720.227
G1 X559.975 Z-54.873
X560.106 Z-54.841
X560.249 Z-54.807
X560.329 Y35.94
X560.378 Y36.007
Y36.091
X560.329 Y36.158
X560.249 Y36.184
X560.231
X560.088 Z-54.841
X559.957 Z-54.873
X559.823 Z-54.85
G2 X302.63 Z-2.384 I-270.206 K-667.947
X20.177 Z-54.847 I-12.349 K-720.086
G1 X20.043 Z-54.871
X19.912 Z-54.839
X19.769 Z-54.806
X19.69 Y36.21
X19.64 Y36.277
Y36.361
X19.69 Y36.428
X19.769 Y36.454
X19.787
X19.93 Z-54.839
X20.062 Z-54.872
X20.195 Z-54.848
G3 X280.305 Z-2.341 I270.185 K-667.926
X366.411 Z-6.371 I9.533 K-718.293
X559.809 Z-54.842 I-76.979 K-717.208
G1 X559.938 Z-54.869
X560.07 Z-54.841
X560.213 Z-54.807
X560.292 Y36.48
X560.341 Y36.547
Y36.631
X560.292 Y36.698
X560.213 Y36.724
X560.195
X560.052 Z-54.841
X559.92 Z-54.873
X559.787 Z-54.85
G2 X300.602 Z-2.358 I-270.167 K-667.857
X20.213 Z-54.847 I-10.305 K-720.099
G1 X20.08 Z-54.871
X19.948 Z-54.839
X19.805 Z-54.806
X19.726 Y36.75
X19.677 Y36.817
Y36.901
X19.726 Y36.968
X19.805 Y36.994
X19.824
X19.967 Z-54.839
X20.098 Z-54.872
X20.232 Z-54.848
G3 X280.412 Z-2.347 I270.148 K-667.84
X559.769 Z-54.848 I9.287 K-720.07
G1 X559.902 Z-54.872
X560.033 Z-54.841
X560.176 Z-54.807
X560.256 Y37.02
X560.305 Y37.087
Y37.171
X560.256 Y37.238
X560.176 Y37.264
X560.158
X560.015 Z-54.841
X559.884 Z-54.873
X559.75 Z-54.85
G2 X300.565 Z-2.365 I-270.131 K-667.775
X20.249 Z-54.847 I-10.267 K-720.011
G1 X20.117 Z-54.871
X19.985 Z-54.839
X19.842 Z-54.806
X19.763 Y37.29
X19.714 Y37.357
Y37.441
X19.763 Y37.508
X19.842 Y37.534
X19.86
X20.003 Z-54.839
X20.135 Z-54.872
X20.268 Z-54.848
G3 X280.373 Z-2.355 I270.112 K-667.758
X559.733 Z-54.848 I9.325 K-719.977
G1 X559.865 Z-54.872
X559.997 Z-54.841
X560.14 Z-54.807
X560.219 Y37.56
X560.268 Y37.627
Y37.711
X560.219 Y37.778
X560.14 Y37.804
X560.121
X559.978 Z-54.841
X559.847 Z-54.873
X559.714 Z-54.85
G2 X300.664 Z-2.374 I-270.096 K-667.694
X20.286 Z-54.847 I-10.366 K-719.919
G1 X20.153 Z-54.871
X20.021 Z-54.839
X19.878 Z-54.806
X19.799 Y37.83
X19.75 Y37.897
Y37.981
X19.799 Y38.048
X19.878 Y38.074
X19.897
X20.04 Z-54.839
X20.171 Z-54.872
X20.305 Z-54.848
G3 X280.327 Z-2.364 I270.075 K-667.674
X559.696 Z-54.848 I9.373 K-719.874
G1 X559.829 Z-54.872
X559.96 Z-54.84
X560.103 Z-54.807
X560.183 Y38.1
X560.232 Y38.167
Y38.251
X560.183 Y38.318
X560.103 Y38.344
X560.085
X559.942 Z-54.84
X559.811 Z-54.873
X559.677 Z-54.85
G2 X300.048 Z-2.372 I-270.06 K-667.612
X20.322 Z-54.846 I-9.743 K-719.87
G1 X20.19 Z-54.871
X20.058 Z-54.839
X19.915 Z-54.806
X19.836 Y38.37
X19.787 Y38.437
Y38.521
X19.836 Y38.588
X19.915 Y38.614
X19.933
X20.076 Z-54.839
X20.208 Z-54.872
X20.341 Z-54.848
G3 X280.289 Z-2.372 I270.038 K-667.587
X559.66 Z-54.848 I9.413 K-719.775
G1 X559.792 Z-54.872
X559.924 Z-54.84
X560.067 Z-54.807
X560.146 Y38.64
X560.195 Y38.707
Y38.791
X560.146 Y38.858
X560.067 Y38.884
X560.048
X559.905 Z-54.84
X559.774 Z-54.873
X559.641 Z-54.85
G2 X300.01 Z-2.379 I-270.022 K-667.524
G1 X295.399 Z-2.337
X291.077 Z-2.318
X286.322 Z-2.327
X280.847 Z-2.375
G2 X20.359 Z-54.846 I9.476 K-719.868
G1 X20.226 Z-54.87
X20.095 Z-54.839
X19.952 Z-54.806
X19.872 Y38.91
X19.823 Y38.977
Y39.061
X19.872 Y39.128
X19.952 Y39.154
X19.97
X20.113 Z-54.839
X20.244 Z-54.872
X20.378 Z-54.848
G3 X280.54 Z-2.383 I269.927 K-667.233
G1 X286.015 Z-2.332
X291.058 Z-2.322
G3 X540.623 Z-47.475 I-1.326 K-719.597
X559.622 Z-54.85 I-234.086 K-631.151
G1 X559.756 Z-54.874
X559.887 Z-54.84
X560.03 Z-54.807
X560.11 Y39.18
X560.159 Y39.247
Y39.331
X560.11 Y39.398
X560.03 Y39.424
X560.012
X559.869 Z-54.84
X559.738 Z-54.873
X559.604 Z-54.85
G2 X300.116 Z-2.388 I-269.986 K-667.439
X20.396 Z-54.847 I-9.814 K-719.669
G1 X20.263 Z-54.871
X20.131 Z-54.839
X19.988 Z-54.806
X19.909 Y39.45
X19.86 Y39.517
Y39.601
X19.909 Y39.668
X19.988 Y39.694
X20.006
X20.149 Z-54.839
X20.281 Z-54.872
X20.414 Z-54.848
G3 X280.358 Z-2.386 I269.967 K-667.424
X559.587 Z-54.848 I9.34 K-719.622
G1 X559.719 Z-54.872
X559.851 Z-54.84
X559.994 Z-54.807
X560.073 Y39.72
X560.122 Y39.787
Y39.871
X560.073 Y39.938
X559.994 Y39.964
X559.975
X559.832 Z-54.84
X559.701 Z-54.873
X559.568 Z-54.85
G2 X300.079 Z-2.396 I-269.946 K-667.342
X20.432 Z-54.847 I-9.778 K-719.573
G1 X20.299 Z-54.871
X20.168 Z-54.839
X20.025 Z-54.806
X19.945 Y39.99
X19.896 Y40.057
Y40.141
X19.945 Y40.208
X20.025 Y40.234
X20.043
X20.186 Z-54.839
X20.317 Z-54.872
X20.451 Z-54.848
G3 X280.319 Z-2.394 I269.93 K-667.338
X559.55 Z-54.848 I9.38 K-719.524
G1 X559.683 Z-54.872
X559.814 Z-54.84
X559.957 Z-54.807
X560.036 Y40.26
X560.085 Y40.327
Y40.411
X560.036 Y40.478
X559.957 Y40.504
X559.939
X559.796 Z-54.84
X559.665 Z-54.873
X559.531 Z-54.85
G2 X300.181 Z-2.405 I-269.91 K-667.259
X20.469 Z-54.847 I-9.881 K-719.477
G1 X20.336 Z-54.871
X20.204 Z-54.839
X20.061 Z-54.806
X19.982 Y40.53
X19.933 Y40.597
Y40.681
X19.982 Y40.748
X20.061 Y40.774
X20.079
X20.222 Z-54.839
X20.354 Z-54.872
X20.487 Z-54.848
X20.488
G3 X280.279 Z-2.402 I269.892 K-667.251
X559.514 Z-54.848 I9.42 K-719.427
G1 X559.646 Z-54.872
X559.778 Z-54.84
X559.921 Z-54.807
X560 Y40.8
X560.049 Y40.867
Y40.951
X560 Y41.018
X559.921 Y41.044
X559.902
X559.759 Z-54.84
X559.628 Z-54.873
X559.495 Z-54.85
G2 X300 Z-2.41 I-269.873 K-667.173
G1 X295.39 Z-2.367
X291.067 Z-2.348
X286.168 Z-2.358
X280.549 Z-2.41
G2 X20.505 Z-54.846 I9.767 K-719.472
G1 X20.372 Z-54.87
X20.241 Z-54.839
X20.098 Z-54.806
X20.018 Y41.07
X19.969 Y41.137
Y41.221
X20.018 Y41.288
X20.098 Y41.314
X20.116
X20.259 Z-54.839
X20.39 Z-54.872
X20.524 Z-54.848
G3 X280.531 Z-2.414 I269.781 K-666.897
G1 X285.862 Z-2.363
X291.049 Z-2.352
G3 X544.806 Z-49.1 I-1.321 K-719.274
X559.476 Z-54.85 I-231.42 K-611.971
G1 X559.61 Z-54.874
X559.741 Z-54.84
X559.884 Z-54.807
X559.963 Y41.34
X560.012 Y41.407
Y41.491
X559.963 Y41.558
X559.884 Y41.584
X559.866
X559.723 Z-54.84
X559.591 Z-54.873
X559.458 Z-54.85
G2 X300.108 Z-2.419 I-269.836 K-667.087
X20.542 Z-54.847 I-9.808 K-719.292
G1 X20.409 Z-54.871
X20.277 Z-54.839
X20.134 Z-54.806
X20.055 Y41.61
X20.006 Y41.677
Y41.761
X20.055 Y41.828
X20.134 Y41.854
X20.152
X20.295 Z-54.839
X20.427 Z-54.872
X20.561 Z-54.848
G3 X280.346 Z-2.424 I269.742 K-666.805
G1 X285.533 Z-2.371
X291.008 Z-2.36
G3 X544.769 Z-49.1 I-1.281 K-719.182
X559.44 Z-54.85 I-231.568 K-612.356
G1 X559.573 Z-54.874
X559.704 Z-54.84
X559.847 Z-54.807
X559.927 Y41.88
X559.976 Y41.947
Y42.031
X559.927 Y42.098
X559.847 Y42.124
X559.829
X559.686 Z-54.84
X559.555 Z-54.873
X559.422 Z-54.85
G2 X300.063 Z-2.426 I-269.8 K-667.004
X20.578 Z-54.846 I-9.761 K-719.211
G1 X20.445 Z-54.871
X20.314 Z-54.839
X20.171 Z-54.806
X20.091 Y42.15
X20.042 Y42.217
Y42.301
X20.091 Y42.368
X20.171 Y42.394
X20.189
X20.332 Z-54.839
X20.464 Z-54.872
X20.597 Z-54.848
G3 X280.591 Z-2.428 I269.708 K-666.73
G1 X286.21 Z-2.377
G3 X524.282 Z-41.7 I3.563 K-718.759
X559.403 Z-54.85 I-225.604 K-656.001
G1 X559.537 Z-54.874
X559.668 Z-54.841
X559.811 Z-54.807
X559.89 Y42.42
X559.939 Y42.487
Y42.571
X559.89 Y42.638
X559.811 Y42.664
X559.793
X559.65 Z-54.841
X559.518 Z-54.873
X559.385 Z-54.85
G2 X300.168 Z-2.435 I-269.763 K-666.919
X20.615 Z-54.847 I-9.868 K-719.108
G1 X20.482 Z-54.871
X20.35 Z-54.839
X20.207 Z-54.806
X20.128 Y42.69
X20.079 Y42.757
Y42.841
X20.128 Y42.908
X20.207 Y42.934
X20.225
X20.369 Z-54.839
X20.5 Z-54.872
X20.634 Z-54.848
G3 X280.41 Z-2.43 I269.748 K-666.919
X559.368 Z-54.848 I9.288 K-719.069
G1 X559.5 Z-54.872
X559.632 Z-54.841
X559.775 Z-54.807
X559.854 Y42.96
X559.903 Y43.027
Y43.111
X559.854 Y43.178
X559.775 Y43.204
X559.756
X559.613 Z-54.841
X559.482 Z-54.873
X559.349 Z-54.85
G2 X291.054 Z-2.379 I-269.614 K-666.427
G1 X286.011 Z-2.389
X280.536 Z-2.44
G2 X20.651 Z-54.846 I9.78 K-719.099
G1 X20.518 Z-54.871
X20.387 Z-54.839
X20.244 Z-54.806
X20.164 Y43.23
X20.115 Y43.297
Y43.381
X20.164 Y43.448
X20.244 Y43.474
X20.262
X20.405 Z-54.839
X20.537 Z-54.872
X20.67 Z-54.848
G3 X280.373 Z-2.439 I269.711 K-666.833
X559.331 Z-54.848 I9.326 K-718.972
G1 X559.464 Z-54.872
X559.595 Z-54.84
X559.738 Z-54.807
X559.817 Y43.5
X559.866 Y43.567
Y43.651
X559.817 Y43.718
X559.738 Y43.744
X559.72
X559.577 Z-54.84
X559.445 Z-54.873
X559.312 Z-54.85
G2 X300.094 Z-2.449 I-269.69 K-666.75
X20.688 Z-54.847 I-9.793 K-718.93
G1 X20.555 Z-54.871
X20.423 Z-54.839
X20.28 Z-54.806
X20.201 Y43.77
X20.152 Y43.837
Y43.921
X20.201 Y43.988
X20.28 Y44.014
X20.299
X20.442 Z-54.839
X20.573 Z-54.872
X20.707 Z-54.848
G3 X280.335 Z-2.447 I269.674 K-666.747
X559.295 Z-54.848 I9.365 K-718.874
G1 X559.427 Z-54.872
X559.558 Z-54.84
X559.702 Z-54.807
X559.781 Y44.04
X559.83 Y44.107
Y44.191
X559.781 Y44.258
X559.702 Y44.284
X559.683
X559.54 Z-54.84
X559.409 Z-54.873
X559.276 Z-54.85
G2 X300.056 Z-2.456 I-269.654 K-666.666
X20.724 Z-54.847 I-9.755 K-718.84
G1 X20.591 Z-54.871
X20.46 Z-54.839
X20.317 Z-54.806
X20.237 Y44.31
X20.188 Y44.377
Y44.461
X20.237 Y44.528
X20.317 Y44.554
X20.335
X20.478 Z-54.839
X20.61 Z-54.872
X20.743 Z-54.848
G3 X280.584 Z-2.458 I269.562 K-666.393
G1 X286.059 Z-2.407
X291.101 Z-2.398
G3 X540.515 Z-47.571 I-1.37 K-718.689
X559.257 Z-54.85 I-232.971 K-627.614
G1 X559.391 Z-54.873
X559.522 Z-54.84
X559.665 Z-54.807
X559.744 Y44.58
X559.793 Y44.647
Y44.731
X559.744 Y44.798
X559.665 Y44.824
X559.647
X559.504 Z-54.84
X559.372 Z-54.873
X559.239 Z-54.85
G2 X300.158 Z-2.465 I-269.617 K-666.583
X20.761 Z-54.847 I-9.858 K-718.742
G1 X20.628 Z-54.871
X20.496 Z-54.839
X20.353 Z-54.806
X20.274 Y44.85
X20.225 Y44.917
Y45.001
X20.274 Y45.068
X20.353 Y45.094
X20.372
X20.515 Z-54.839
X20.646 Z-54.872
X20.78 Z-54.848
G3 X280.544 Z-2.466 I269.525 K-666.307
G1 X286.164 Z-2.415
G3 X503.435 Z-34.924 I3.638 K-717.998
X559.221 Z-54.85 I-209.469 K-674.475
G1 X559.354 Z-54.874
X559.485 Z-54.84
X559.628 Z-54.807
X559.708 Y45.12
X559.757 Y45.187
Y45.271
X559.708 Y45.338
X559.628 Y45.364
X559.61
X559.467 Z-54.84
X559.336 Z-54.873
X559.203 Z-54.85
X559.202
G2 X291.043 Z-2.409 I-269.469 K-666.093
G1 X285.712 Z-2.42
X280.525 Z-2.471
G2 X20.797 Z-54.846 I9.79 K-718.731
G1 X20.664 Z-54.87
X20.533 Z-54.839
X20.39 Z-54.806
X20.311 Y45.39
X20.261 Y45.457
Y45.541
X20.311 Y45.608
X20.39 Y45.634
X20.408
X20.551 Z-54.839
X20.683 Z-54.872
X20.816 Z-54.848
G3 X280.362 Z-2.469 I269.563 K-666.492
X559.185 Z-54.848 I9.338 K-718.6
G1 X559.318 Z-54.872
X559.449 Z-54.84
X559.592 Z-54.807
X559.671 Y45.66
X559.72 Y45.727
Y45.811
X559.671 Y45.878
X559.592 Y45.904
X559.574
X559.431 Z-54.84
X559.299 Z-54.873
X559.166 Z-54.85
G2 X300.082 Z-2.479 I-269.544 K-666.417
X20.834 Z-54.847 I-9.782 K-718.561
G1 X20.701 Z-54.871
X20.569 Z-54.839
X20.426 Z-54.806
X20.347 Y45.93
X20.298 Y45.997
Y46.081
X20.347 Y46.148
X20.426 Y46.174
X20.445
X20.588 Z-54.839
X20.719 Z-54.872
X20.853 Z-54.848
G3 X280.317 Z-2.477 I269.527 K-666.408
X559.149 Z-54.848 I9.383 K-718.507
G1 X559.281 Z-54.872
X559.412 Z-54.84
X559.555 Z-54.807
X559.635 Y46.2
X559.684 Y46.267
Y46.351
X559.635 Y46.418
X559.555 Y46.444
X559.537
X559.394 Z-54.84
X559.263 Z-54.873
X559.129 Z-54.85
G2 X300.181 Z-2.488 I-269.508 K-666.334
X20.87 Z-54.847 I-9.881 K-718.465
G1 X20.738 Z-54.871
X20.606 Z-54.839
X20.463 Z-54.806
X20.384 Y46.47
X20.335 Y46.537
Y46.621
X20.384 Y46.688
X20.463 Y46.714
X20.481
X20.624 Z-54.839
X20.756 Z-54.872
X20.889 Z-54.848
G3 X280.421 Z-2.483 I269.492 K-666.328
X559.112 Z-54.848 I9.277 K-718.425
G1 X559.244 Z-54.872
X559.376 Z-54.84
X559.519 Z-54.807
X559.598 Y46.74
X559.647 Y46.807
Y46.891
X559.598 Y46.958
X559.519 Y46.984
X559.501
X559.358 Z-54.84
X559.226 Z-54.873
X559.093 Z-54.85
G2 X300.141 Z-2.495 I-269.473 K-666.253
X20.907 Z-54.847 I-9.841 K-718.377
G1 X20.774 Z-54.871
X20.642 Z-54.839
X20.499 Z-54.806
X20.42 Y47.01
X20.371 Y47.077
Y47.161
X20.42 Y47.228
X20.499 Y47.254
X20.518
X20.661 Z-54.839
X20.792 Z-54.872
X20.926 Z-54.848
G3 X280.527 Z-2.497 I269.378 K-665.967
G1 X285.714 Z-2.446
X291.045 Z-2.435
G3 X559.075 Z-54.848 I-1.318 K-718.274
G1 X559.208 Z-54.873
X559.339 Z-54.84
X559.482 Z-54.807
X559.562 Y47.28
X559.611 Y47.347
Y47.431
X559.562 Y47.498
X559.482 Y47.524
X559.464
X559.321 Z-54.84
X559.19 Z-54.873
X559.056 Z-54.85
G2 X300.103 Z-2.502 I-269.436 K-666.167
X20.943 Z-54.847 I-9.802 K-718.288
G1 X20.811 Z-54.871
X20.679 Z-54.839
X20.536 Z-54.806
X20.457 Y47.55
X20.408 Y47.617
Y47.701
X20.457 Y47.768
X20.536 Y47.794
X20.554
X20.697 Z-54.839
X20.829 Z-54.872
X20.962 Z-54.848
G3 X280.201 Z-2.502 I269.417 K-666.154
X559.039 Z-54.848 I9.501 K-718.219
G1 X559.171 Z-54.872
X559.303 Z-54.84
X559.446 Z-54.807
X559.525 Y47.82
X559.574 Y47.887
Y47.971
X559.525 Y48.038
X559.446 Y48.064
X559.428
X559.284 Z-54.84
X559.153 Z-54.873
X559.02 Z-54.85
G2 X300.065 Z-2.509 I-269.398 K-666.08
X20.98 Z-54.847 I-9.764 K-718.196
G1 X20.847 Z-54.871
X20.716 Z-54.839
X20.573 Z-54.806
X20.493 Y48.09
X20.444 Y48.157
Y48.241
X20.493 Y48.308
X20.573 Y48.334
X20.591
X20.734 Z-54.839
X20.865 Z-54.872
X20.999 Z-54.848
G3 X280.306 Z-2.508 I269.379 K-666.066
X559.002 Z-54.848 I9.396 K-718.125
G1 X559.135 Z-54.872
X559.266 Z-54.84
X559.409 Z-54.807
X559.489 Y48.36
X559.538 Y48.427
Y48.511
X559.489 Y48.578
X559.409 Y48.604
X559.391
X559.248 Z-54.84
X559.117 Z-54.873
X558.983 Z-54.85
G2 X300.602 Z-2.524 I-269.363 K-665.999
X21.017 Z-54.847 I-10.306 K-718.077
G1 X20.884 Z-54.871
X20.752 Z-54.839
X20.609 Z-54.806
X20.53 Y48.63
X20.481 Y48.697
Y48.781
X20.53 Y48.848
X20.609 Y48.874
X20.627
X20.77 Z-54.839
X20.902 Z-54.872
X21.035 Z-54.848
G3 X280.407 Z-2.514 I269.344 K-665.988
X558.966 Z-54.848 I9.293 K-718.047
G1 X559.098 Z-54.872
X559.23 Z-54.84
X559.373 Z-54.807
X559.452 Y48.9
X559.501 Y48.967
Y49.051
X559.452 Y49.118
X559.373 Y49.144
X559.354
X559.211 Z-54.84
X559.08 Z-54.873
X558.947 Z-54.85
G2 X300.56 Z-2.531 I-269.326 K-665.913
X21.053 Z-54.847 I-10.263 K-717.986
G1 X20.92 Z-54.871
X20.789 Z-54.839
X20.646 Z-54.806
X20.566 Y49.17
X20.517 Y49.237
Y49.321
X20.566 Y49.388
X20.646 Y49.414
X20.664
X20.807 Z-54.839
X20.938 Z-54.872
X21.072 Z-54.848
G3 X280.369 Z-2.522 I269.308 K-665.902
X558.929 Z-54.848 I9.331 K-717.951
G1 X559.062 Z-54.872
X559.193 Z-54.84
X559.336 Z-54.807
X559.416 Y49.44
X559.465 Y49.507
Y49.591
X559.416 Y49.658
X559.336 Y49.684
X559.318
X559.175 Z-54.84
X559.044 Z-54.873
X558.91 Z-54.85
G2 X300.522 Z-2.538 I-269.289 K-665.83
X21.09 Z-54.847 I-10.225 K-717.897
G1 X20.957 Z-54.871
X20.825 Z-54.839
X20.682 Z-54.806
X20.603 Y49.71
X20.554 Y49.777
Y49.861
X20.603 Y49.928
X20.682 Y49.954
X20.7
X20.843 Z-54.839
X20.975 Z-54.872
X21.108 Z-54.848
G3 X280.332 Z-2.53 I269.271 K-665.819
X558.893 Z-54.848 I9.369 K-717.859
G1 X559.025 Z-54.872
X559.157 Z-54.84
X559.3 Z-54.807
X559.379 Y49.98
X559.428 Y50.047
Y50.131
X559.379 Y50.198
X559.3 Y50.224
X559.281
X559.138 Z-54.84
X559.007 Z-54.873
X558.874 Z-54.85
G2 X297.023 Z-2.502 I-269.245 K-665.715
X21.126 Z-54.846 I-6.703 K-717.949
G1 X20.993 Z-54.871
X20.862 Z-54.839
X20.719 Z-54.806
X20.639 Y50.25
X20.59 Y50.317
Y50.401
X20.639 Y50.468
X20.719 Y50.494
X20.737
X20.88 Z-54.839
X21.011 Z-54.872
X21.145 Z-54.848
G3 X280.432 Z-2.536 I269.236 K-665.737
X558.856 Z-54.848 I9.267 K-717.774
G1 X558.989 Z-54.872
X559.12 Z-54.84
X559.263 Z-54.807
X559.342 Y50.52
X559.392 Y50.587
Y50.671
X559.342 Y50.738
X559.263 Y50.764
X559.245
X559.102 Z-54.84
X558.971 Z-54.873
X558.837 Z-54.85
G2 X300.727 Z-2.557 I-269.216 K-665.66
X21.163 Z-54.847 I-10.432 K-717.7
G1 X21.03 Z-54.871
X20.898 Z-54.839
X20.755 Z-54.806
X20.676 Y50.79
X20.627 Y50.857
Y50.941
X20.676 Y51.008
X20.755 Y51.034
X20.773
X20.916 Z-54.839
X21.048 Z-54.872
X21.182 Z-54.848
G3 X280.392 Z-2.544 I269.198 K-665.65
X558.82 Z-54.848 I9.308 K-717.676
G1 X558.952 Z-54.872
X559.084 Z-54.84
X559.227 Z-54.807
X559.306 Y51.06
X559.355 Y51.127
Y51.211
X559.306 Y51.278
X559.227 Y51.304
X559.208
X559.065 Z-54.84
X558.934 Z-54.873
X558.801 Z-54.85
G2 X300.689 Z-2.564 I-269.179 K-665.573
X21.199 Z-54.847 I-10.395 K-717.608
G1 X21.066 Z-54.871
X20.935 Z-54.839
X20.792 Z-54.806
X20.712 Y51.33
X20.663 Y51.397
Y51.481
X20.712 Y51.548
X20.792 Y51.574
X20.81
X20.953 Z-54.839
X21.085 Z-54.872
X21.218 Z-54.848
G3 X280.354 Z-2.552 I269.161 K-665.564
X558.783 Z-54.848 I9.347 K-717.578
G1 X558.916 Z-54.872
X559.047 Z-54.84
X559.19 Z-54.807
X559.269 Y51.6
X559.318 Y51.667
Y51.751
X559.269 Y51.818
X559.19 Y51.844
X559.172
X559.029 Z-54.84
X558.897 Z-54.873
X558.764 Z-54.85
G2 X301.804 Z-2.589 I-269.144 K-665.496
X21.236 Z-54.847 I-11.517 K-717.466
G1 X21.103 Z-54.871
X20.971 Z-54.839
X20.828 Z-54.806
X20.749 Y51.87
X20.7 Y51.937
Y52.021
X20.749 Y52.088
X20.828 Y52.114
X20.846
X20.989 Z-54.839
X21.121 Z-54.872
X21.255 Z-54.848
G3 X280.316 Z-2.56 I269.124 K-665.479
X558.747 Z-54.848 I9.386 K-717.48
G1 X558.879 Z-54.872
X559.01 Z-54.84
X559.154 Z-54.807
X559.233 Y52.14
X559.282 Y52.207
Y52.291
X559.233 Y52.358
X559.154 Y52.384
X559.135
X558.992 Z-54.84
X558.861 Z-54.873
X558.728 Z-54.85
G2 X301.765 Z-2.596 I-269.107 K-665.41
X21.272 Z-54.847 I-11.479 K-717.374
G1 X21.139 Z-54.871
X21.008 Z-54.839
X20.865 Z-54.806
X20.785 Y52.41
X20.736 Y52.477
Y52.561
X20.785 Y52.628
X20.865 Y52.654
X20.883
X21.026 Z-54.839
X21.158 Z-54.872
X21.291 Z-54.848
G3 X280.362 Z-2.567 I269.088 K-665.397
X366.078 Z-6.577 I9.477 K-715.614
X558.713 Z-54.841 I-76.651 K-714.489
G1 X558.843 Z-54.869
X558.974 Z-54.84
X559.117 Z-54.807
X559.196 Y52.68
X559.245 Y52.747
Y52.831
X559.196 Y52.898
X559.117 Y52.924
X559.099
X558.956 Z-54.84
X558.824 Z-54.873
X558.691 Z-54.85
G2 X300.487 Z-2.583 I-269.069 K-665.32
X21.309 Z-54.847 I-10.191 K-717.343
G1 X21.176 Z-54.871
X21.044 Z-54.839
X20.901 Z-54.806
X20.822 Y52.95
X20.773 Y53.017
Y53.101
X20.822 Y53.168
X20.901 Y53.194
X20.92
X21.063 Z-54.839
X21.194 Z-54.872
X21.328 Z-54.848
G3 X284.858 Z-2.536 I268.954 K-664.96
G1 X290.045 Z-2.516
G3 X558.673 Z-54.848 I-0.326 K-717.294
G1 X558.806 Z-54.872
X558.937 Z-54.84
X559.08 Z-54.807
X559.16 Y53.22
X559.209 Y53.287
Y53.371
X559.16 Y53.438
X559.08 Y53.464
X559.062
X558.919 Z-54.84
X558.788 Z-54.873
X558.655 Z-54.85
G2 X301.856 Z-2.613 I-269.034 K-665.242
X21.345 Z-54.847 I-11.569 K-717.187
G1 X21.212 Z-54.871
X21.081 Z-54.839
X20.938 Z-54.806
X20.858 Y53.49
X20.809 Y53.557
Y53.641
X20.858 Y53.708
X20.938 Y53.734
X20.956
X21.099 Z-54.839
X21.231 Z-54.872
X21.364 Z-54.848
G3 X280.454 Z-2.581 I269.014 K-665.225
X558.637 Z-54.848 I9.247 K-717.213
G1 X558.77 Z-54.872
X558.901 Z-54.84
X559.044 Z-54.807
X559.123 Y53.76
X559.172 Y53.827
Y53.911
X559.123 Y53.978
X559.044 Y54.004
X559.026
X558.883 Z-54.84
X558.751 Z-54.873
X558.618 Z-54.85
G2 X290.333 Z-2.528 I-268.888 K-664.758
G1 X284.858 Z-2.548
G2 X21.382 Z-54.847 I5.431 K-717.193
G1 X21.249 Z-54.871
X21.117 Z-54.839
X20.974 Z-54.806
X20.895 Y54.03
X20.846 Y54.097
Y54.181
X20.895 Y54.248
X20.974 Y54.274
X20.993
X21.136 Z-54.839
X21.267 Z-54.872
X21.401 Z-54.848
G3 X284.923 Z-2.551 I268.882 K-664.796
G1 X290.398 Z-2.532
G3 X558.6 Z-54.848 I-0.673 K-717.089
G1 X558.733 Z-54.872
X558.864 Z-54.84
X559.007 Z-54.807
X559.087 Y54.3
X559.136 Y54.367
Y54.451
X559.087 Y54.518
X559.007 Y54.544
X558.989
X558.846 Z-54.84
X558.715 Z-54.873
X558.581 Z-54.85
G2 X291.036 Z-2.537 I-268.847 K-664.658
G1 X285.633 Z-2.548
X280.374 Z-2.601
G2 X21.418 Z-54.846 I9.937 K-717.15
G1 X21.285 Z-54.87
X21.154 Z-54.839
X21.011 Z-54.805
X20.932 Y54.57
X20.882 Y54.637
Y54.721
X20.932 Y54.788
X21.011 Y54.814
X21.029
X21.172 Z-54.839
X21.304 Z-54.872
X21.437 Z-54.848
G3 X284.94 Z-2.558 I268.846 K-664.713
G1 X290.415 Z-2.54
G3 X558.564 Z-54.848 I-0.691 K-716.998
G1 X558.697 Z-54.872
X558.828 Z-54.84
X558.971 Z-54.807
X559.05 Y54.84
X559.099 Y54.907
Y54.991
X559.05 Y55.058
X558.971 Y55.084
X558.953
X558.81 Z-54.84
X558.678 Z-54.873
X558.545 Z-54.85
G2 X290.301 Z-2.543 I-268.815 K-664.592
G1 X284.826 Z-2.563
G2 X21.455 Z-54.847 I5.463 K-717.008
G1 X21.322 Z-54.871
X21.19 Z-54.839
X21.047 Z-54.805
X20.968 Y55.11
X20.919 Y55.177
Y55.261
X20.968 Y55.328
X21.047 Y55.354
X21.066
X21.209 Z-54.839
X21.34 Z-54.872
X21.474 Z-54.848
G3 X284.864 Z-2.566 I268.808 K-664.625
G1 X290.339 Z-2.547
G3 X543.828 Z-49.091 I-0.614 K-716.893
X558.527 Z-54.85 I-233.869 K-618.55
G1 X558.66 Z-54.873
X558.791 Z-54.84
X558.934 Z-54.807
X559.014 Y55.38
X559.063 Y55.447
Y55.531
X559.014 Y55.598
X558.934 Y55.624
X558.916
X558.773 Z-54.84
X558.642 Z-54.873
X558.508 Z-54.85
G2 X290.349 Z-2.551 I-268.778 K-664.504
G1 X284.874 Z-2.57
G2 X21.491 Z-54.847 I5.415 K-716.919
G1 X21.359 Z-54.871
X21.227 Z-54.839
X21.084 Z-54.805
X21.005 Y55.65
X20.956 Y55.717
Y55.801
X21.005 Y55.868
X21.084 Y55.894
X21.102
X21.245 Z-54.839
X21.377 Z-54.872
X21.51 Z-54.848
G3 X284.827 Z-2.574 I268.772 K-664.54
G1 X290.302 Z-2.555
G3 X558.491 Z-54.848 I-0.579 K-716.817
G1 X558.623 Z-54.872
X558.755 Z-54.84
X558.898 Z-54.807
X558.977 Y55.92
X559.026 Y55.987
Y56.071
X558.977 Y56.138
X558.898 Y56.164
X558.88
X558.737 Z-54.84
X558.605 Z-54.873
X558.472 Z-54.85
G2 X290.023 Z-2.558 I-268.745 K-664.433
G1 X284.836 Z-2.578
G2 X21.528 Z-54.846 I5.453 K-716.827
G1 X21.395 Z-54.871
X21.263 Z-54.839
X21.12 Z-54.805
X21.041 Y56.19
X20.992 Y56.257
Y56.341
X21.041 Y56.408
X21.12 Y56.434
X21.139
X21.282 Z-54.839
X21.413 Z-54.872
X21.547 Z-54.848
G3 X280.408 Z-2.62 I268.832 K-664.806
X558.454 Z-54.848 I9.293 K-716.756
G1 X558.587 Z-54.872
X558.718 Z-54.84
X558.861 Z-54.807
X558.941 Y56.46
X558.99 Y56.527
Y56.611
X558.941 Y56.678
X558.861 Y56.704
X558.843
X558.7 Z-54.84
X558.569 Z-54.873
X558.435 Z-54.85
G2 X300.589 Z-2.638 I-268.813 K-664.728
X21.565 Z-54.847 I-10.293 K-716.695
G1 X21.432 Z-54.871
X21.3 Z-54.839
X21.157 Z-54.805
X21.078 Y56.73
X21.029 Y56.797
Y56.881
X21.078 Y56.948
X21.157 Y56.974
X21.175
X21.318 Z-54.839
X21.45 Z-54.872
X21.583 Z-54.848
G3 X280.454 Z-2.627 I268.795 K-664.72
X558.418 Z-54.848 I9.248 K-716.661
G1 X558.55 Z-54.872
X558.682 Z-54.84
X558.825 Z-54.807
X558.904 Y57
X558.953 Y57.067
Y57.151
X558.904 Y57.218
X558.825 Y57.244
X558.806
X558.663 Z-54.84
X558.532 Z-54.873
X558.399 Z-54.85
G2 X302.68 Z-2.68 I-268.778 K-664.651
X21.601 Z-54.847 I-12.401 K-716.499
G1 X21.468 Z-54.871
X21.337 Z-54.839
X21.194 Z-54.805
X21.114 Y57.27
X21.065 Y57.337
Y57.421
X21.114 Y57.488
X21.194 Y57.514
X21.212
X21.355 Z-54.839
X21.486 Z-54.872
X21.62 Z-54.848
G3 X284.955 Z-2.596 I268.663 K-664.291
G1 X290.718 Z-2.578
G3 X558.381 Z-54.848 I-0.99 K-716.523
G1 X558.514 Z-54.872
X558.645 Z-54.84
X558.788 Z-54.807
X558.868 Y57.54
X558.917 Y57.607
Y57.691
X558.868 Y57.758
X558.788 Y57.784
X558.77
X558.627 Z-54.84
X558.496 Z-54.873
X558.362 Z-54.85
G2 X300.151 Z-2.646 I-268.74 K-664.559
X21.638 Z-54.847 I-9.852 K-716.535
G1 X21.505 Z-54.871
X21.373 Z-54.839
X21.23 Z-54.805
X21.151 Y57.81
X21.102 Y57.877
Y57.961
X21.151 Y58.028
X21.23 Y58.054
X21.248
X21.391 Z-54.839
X21.523 Z-54.872
X21.656 Z-54.848
G3 X284.945 Z-2.604 I268.627 K-664.207
G1 X290.708 Z-2.586
G3 X558.345 Z-54.848 I-0.98 K-716.43
G1 X558.477 Z-54.872
X558.609 Z-54.84
X558.752 Z-54.807
X558.831 Y58.08
X558.88 Y58.147
Y58.231
X558.831 Y58.298
X558.752 Y58.324
X558.733
X558.59 Z-54.84
X558.459 Z-54.873
X558.326 Z-54.85
G2 X302.417 Z-2.69 I-268.706 K-664.484
X21.674 Z-54.847 I-12.136 K-716.33
G1 X21.541 Z-54.871
X21.41 Z-54.839
X21.267 Z-54.805
X21.187 Y58.35
X21.138 Y58.417
Y58.501
X21.187 Y58.568
X21.267 Y58.594
X21.285
X21.428 Z-54.839
X21.559 Z-54.872
X21.693 Z-54.848
G3 X284.935 Z-2.611 I268.59 K-664.122
G1 X290.699 Z-2.593
G3 X558.308 Z-54.848 I-0.971 K-716.339
G1 X558.441 Z-54.872
X558.572 Z-54.84
X558.715 Z-54.807
X558.794 Y58.62
X558.843 Y58.687
Y58.771
X558.794 Y58.838
X558.715 Y58.864
X558.697
X558.554 Z-54.84
X558.423 Z-54.873
X558.289 Z-54.85
G2 X290.68 Z-2.597 I-268.555 K-663.984
G1 X284.917 Z-2.615
G2 X21.711 Z-54.846 I5.373 K-716.37
G1 X21.578 Z-54.871
X21.446 Z-54.839
X21.303 Z-54.805
X21.224 Y58.89
X21.175 Y58.957
Y59.041
X21.224 Y59.108
X21.303 Y59.134
X21.321
X21.464 Z-54.839
X21.596 Z-54.872
X21.729 Z-54.848
G3 X284.954 Z-2.619 I268.553 K-664.038
G1 X290.717 Z-2.601
G3 X558.272 Z-54.848 I-0.989 K-716.247
G1 X558.404 Z-54.872
X558.536 Z-54.84
X558.679 Z-54.807
X558.758 Y59.16
X558.807 Y59.227
Y59.311
X558.758 Y59.378
X558.679 Y59.404
X558.66
X558.517 Z-54.84
X558.386 Z-54.873
X558.253 Z-54.85
G2 X290.581 Z-2.604 I-268.519 K-663.902
G1 X284.962 Z-2.622
G2 X21.747 Z-54.846 I5.328 K-716.282
G1 X21.614 Z-54.871
X21.483 Z-54.839
X21.34 Z-54.805
X21.26 Y59.43
X21.211 Y59.497
Y59.581
X21.26 Y59.648
X21.34 Y59.674
X21.358
X21.501 Z-54.839
X21.632 Z-54.872
X21.766 Z-54.848
G3 X284.917 Z-2.626 I268.516 K-663.952
G1 X290.68 Z-2.608
G3 X558.235 Z-54.848 I-0.952 K-716.155
G1 X558.368 Z-54.872
X558.499 Z-54.84
X558.642 Z-54.807
X558.721 Y59.7
X558.77 Y59.767
Y59.851
X558.721 Y59.918
X558.642 Y59.944
X558.624
X558.481 Z-54.84
X558.35 Z-54.873
X558.216 Z-54.85
G2 X290.716 Z-2.612 I-268.481 K-663.814
G1 X284.953 Z-2.63
G2 X21.784 Z-54.846 I5.337 K-716.188
G1 X21.651 Z-54.871
X21.519 Z-54.839
X21.376 Z-54.805
X21.297 Y59.97
X21.248 Y60.037
Y60.121
X21.297 Y60.188
X21.376 Y60.214
X21.394
X21.537 Z-54.839
X21.669 Z-54.872
X21.803 Z-54.848
G3 X284.935 Z-2.634 I268.48 K-663.869
G1 X290.698 Z-2.616
G3 X558.199 Z-54.848 I-0.97 K-716.065
G1 X558.331 Z-54.872
X558.462 Z-54.84
X558.606 Z-54.807
X558.685 Y60.24
X558.734 Y60.307
Y60.391
X558.685 Y60.458
X558.606 Y60.484
X558.587
X558.444 Z-54.84
X558.313 Z-54.873
X558.18 Z-54.85
G2 X290.679 Z-2.62 I-268.445 K-663.731
G1 X284.916 Z-2.638
G2 X21.82 Z-54.846 I5.373 K-716.093
G1 X21.687 Z-54.871
X21.556 Z-54.839
X21.413 Z-54.805
X21.333 Y60.51
X21.284 Y60.577
Y60.661
X21.333 Y60.728
X21.413 Y60.754
X21.431
X21.574 Z-54.839
X21.706 Z-54.872
X21.839 Z-54.848
G3 X284.984 Z-2.641 I268.444 K-663.785
G1 X290.604 Z-2.623
G3 X539.647 Z-47.659 I-0.871 K-715.928
X558.161 Z-54.85 I-231.482 K-623.384
G1 X558.295 Z-54.873
X558.426 Z-54.84
X558.569 Z-54.807
X558.648 Y60.78
X558.697 Y60.847
Y60.931
X558.648 Y60.998
X558.569 Y61.024
X558.551
X558.408 Z-54.84
X558.276 Z-54.873
X558.143 Z-54.85
G2 X290.669 Z-2.627 I-268.409 K-663.648
G1 X284.906 Z-2.645
G2 X21.857 Z-54.846 I5.383 K-716
G1 X21.724 Z-54.871
X21.592 Z-54.839
X21.449 Z-54.805
X21.37 Y61.05
X21.321 Y61.117
Y61.201
X21.37 Y61.268
X21.449 Y61.294
X21.467
X21.61 Z-54.839
X21.742 Z-54.872
X21.876 Z-54.848
G3 X284.887 Z-2.649 I268.406 K-663.695
G1 X290.506 Z-2.631
G3 X558.125 Z-54.848 I-0.779 K-715.885
G1 X558.258 Z-54.872
X558.389 Z-54.84
X558.532 Z-54.807
X558.612 Y61.32
X558.661 Y61.387
Y61.471
X558.612 Y61.538
X558.532 Y61.564
X558.514
X558.371 Z-54.84
X558.24 Z-54.873
X558.107 Z-54.85
G2 X290.344 Z-2.634 I-268.375 K-663.573
G1 X284.868 Z-2.653
G2 X21.893 Z-54.846 I5.42 K-715.905
G1 X21.76 Z-54.871
X21.629 Z-54.839
X21.486 Z-54.805
X21.406 Y61.59
X21.357 Y61.657
Y61.741
X21.406 Y61.808
X21.486 Y61.834
X21.504
X21.647 Z-54.839
X21.779 Z-54.872
X21.912 Z-54.848
G3 X284.906 Z-2.657 I268.37 K-663.613
G1 X290.669 Z-2.638
G3 X558.089 Z-54.848 I-0.941 K-715.786
G1 X558.222 Z-54.872
X558.353 Z-54.84
X558.496 Z-54.807
X558.575 Y61.86
X558.624 Y61.927
Y62.011
X558.575 Y62.078
X558.496 Y62.104
X558.478
X558.335 Z-54.84
X558.203 Z-54.873
X558.07 Z-54.85
G2 X290.506 Z-2.642 I-268.337 K-663.484
G1 X284.887 Z-2.661
G2 X21.93 Z-54.846 I5.401 K-715.814
G1 X21.797 Z-54.871
X21.665 Z-54.839
X21.522 Z-54.805
X21.443 Y62.13
X21.394 Y62.197
Y62.281
X21.443 Y62.348
X21.522 Y62.374
X21.541
X21.684 Z-54.839
X21.815 Z-54.872
X21.949 Z-54.848
G3 X284.924 Z-2.664 I268.333 K-663.529
G1 X290.399 Z-2.645
G3 X558.052 Z-54.848 I-0.673 K-715.704
G1 X558.185 Z-54.872
X558.316 Z-54.84
X558.459 Z-54.807
X558.539 Y62.4
X558.588 Y62.467
Y62.551
X558.539 Y62.618
X558.459 Y62.644
X558.441
X558.298 Z-54.84
X558.167 Z-54.873
X558.034 Z-54.85
G2 X289.904 Z-2.649 I-268.303 K-663.411
G1 X284.789 Z-2.669
G2 X21.966 Z-54.847 I5.497 K-715.712
G1 X21.833 Z-54.871
X21.702 Z-54.839
X21.701 Z-54.838
X21.558 Z-54.805
X21.479 Y62.67
X21.43 Y62.737
Y62.821
X21.479 Y62.888
X21.558 Y62.914
X21.578
X21.721 Z-54.838
X21.852 Z-54.871
X21.985 Z-54.848
G3 X284.973 Z-2.671 I268.298 K-663.449
G1 X290.592 Z-2.653
G3 X558.016 Z-54.848 I-0.864 K-715.604
G1 X558.149 Z-54.872
X558.28 Z-54.84
X558.423 Z-54.807
X558.502 Y62.94
X558.551 Y63.007
Y63.091
X558.502 Y63.158
X558.423 Y63.184
X558.405
X558.262 Z-54.84
X558.13 Z-54.873
X557.997 Z-54.85
G2 X300.945 Z-2.734 I-268.375 K-663.718
X22.003 Z-54.847 I-10.654 K-715.571
G1 X21.87 Z-54.871
X21.738 Z-54.839
X21.595 Z-54.805
X21.516 Y63.21
X21.467 Y63.277
Y63.361
X21.516 Y63.428
X21.595 Y63.454
X21.614
X21.757 Z-54.839
X21.888 Z-54.872
X22.022 Z-54.848
G3 X280.466 Z-2.717 I268.356 K-663.707
X361.821 Z-6.293 I9.365 K-714.11
X557.982 Z-54.841 I-72.399 K-713.11
G1 X558.112 Z-54.869
X558.243 Z-54.84
X558.386 Z-54.807
X558.466 Y63.48
X558.515 Y63.547
Y63.631
X558.466 Y63.698
X558.386 Y63.724
X558.368
X558.225 Z-54.84
X558.094 Z-54.873
X557.961 Z-54.85
G2 X300.935 Z-2.741 I-268.338 K-663.634
X22.04 Z-54.847 I-10.643 K-715.479
G1 X21.906 Z-54.871
X21.775 Z-54.839
X21.774 Z-54.838
X21.631 Z-54.805
X21.552 Y63.75
X21.503 Y63.817
Y63.901
X21.552 Y63.968
X21.631 Y63.994
X21.651
X21.794 Z-54.838
X21.925 Z-54.871
X22.058 Z-54.848
G3 X280.457 Z-2.725 I268.32 K-663.624
X357.482 Z-5.874 I9.366 K-714.392
X557.946 Z-54.841 I-68.059 K-713.444
G1 X558.075 Z-54.868
X558.207 Z-54.84
X558.35 Z-54.807
X558.429 Y64.02
X558.478 Y64.087
Y64.171
X558.429 Y64.238
X558.35 Y64.264
X558.332
X558.189 Z-54.84
X558.057 Z-54.873
X557.924 Z-54.85
G2 X302.338 Z-2.772 I-268.302 K-663.552
X22.076 Z-54.847 I-12.059 K-715.313
G1 X21.943 Z-54.871
X21.812 Z-54.838
X21.669 Z-54.805
X21.59 Y64.29
X21.541 Y64.357
Y64.441
X21.59 Y64.508
X21.669 Y64.534
X21.686
X21.829 Z-54.838
X21.83 Z-54.839
X21.961 Z-54.872
X22.095 Z-54.848
G3 X280.419 Z-2.733 I268.284 K-663.54
X557.906 Z-54.848 I9.282 K-715.377
G1 X558.039 Z-54.872
X558.17 Z-54.84
X558.313 Z-54.807
X558.393 Y64.56
X558.442 Y64.627
Y64.711
X558.393 Y64.778
X558.313 Y64.804
X558.295
X558.152 Z-54.84
X558.021 Z-54.873
X557.887 Z-54.85
G2 X291.063 Z-2.681 I-268.152 K-663.055
G1 X286.02 Z-2.691
X280.545 Z-2.743
G2 X22.112 Z-54.846 I9.768 K-715.413
G1 X21.98 Z-54.87
X21.848 Z-54.839
X21.705 Z-54.805
X21.626 Y64.83
X21.577 Y64.897
Y64.981
X21.626 Y65.048
X21.705 Y65.074
X21.723
X21.866 Z-54.839
X21.998 Z-54.872
X22.131 Z-54.848
G3 X280.381 Z-2.741 I268.248 K-663.459
X557.87 Z-54.848 I9.32 K-715.285
G1 X558.002 Z-54.872
X558.134 Z-54.84
X558.277 Z-54.807
X558.356 Y65.1
X558.405 Y65.167
Y65.251
X558.356 Y65.318
X558.277 Y65.344
X558.258
X558.115 Z-54.84
X557.984 Z-54.873
X557.851 Z-54.85
G2 X300.102 Z-2.751 I-268.227 K-663.376
X22.149 Z-54.847 I-9.804 K-715.243
G1 X22.016 Z-54.871
X21.884 Z-54.839
X21.741 Z-54.805
X21.662 Y65.37
X21.613 Y65.437
Y65.521
X21.662 Y65.588
X21.741 Y65.614
X21.76
X21.903 Z-54.839
X22.034 Z-54.872
X22.168 Z-54.848
G3 X280.342 Z-2.749 I268.211 K-663.371
X557.833 Z-54.848 I9.36 K-715.19
G1 X557.966 Z-54.872
X558.097 Z-54.84
X558.24 Z-54.807
X558.32 Y65.64
X558.369 Y65.707
Y65.791
X558.32 Y65.858
X558.24 Y65.884
X558.222
X558.079 Z-54.84
X557.948 Z-54.873
X557.814 Z-54.85
G2 X300.059 Z-2.758 I-268.191 K-663.295
G1 X295.448 Z-2.715
X291.126 Z-2.696
X286.371 Z-2.705
X281.04 Z-2.75
G2 X22.185 Z-54.846 I9.283 K-715.279
G1 X22.053 Z-54.87
X21.921 Z-54.839
X21.778 Z-54.805
X21.699 Y65.91
X21.65 Y65.977
Y66.061
X21.699 Y66.128
X21.778 Y66.154
X21.796
X21.939 Z-54.839
X22.071 Z-54.871
X22.204 Z-54.848
G3 X280.445 Z-2.755 I268.174 K-663.288
X557.797 Z-54.848 I9.257 K-715.101
G1 X557.929 Z-54.872
X558.061 Z-54.84
X558.204 Z-54.807
X558.283 Y66.18
X558.332 Y66.247
Y66.331
X558.283 Y66.398
X558.204 Y66.424
X558.185
X558.042 Z-54.84
X557.911 Z-54.873
X557.778 Z-54.85
G2 X300.022 Z-2.765 I-268.154 K-663.206
X282.011 Z-2.748 I-9.763 K-771.797
G1 X276.824 Z-2.823
G2 X22.221 Z-54.845 I13.526 K-715.235
G1 X22.089 Z-54.87
X21.958 Z-54.839
X21.814 Z-54.805
X21.735 Y66.45
X21.686 Y66.517
Y66.601
X21.735 Y66.668
X21.814 Y66.694
X21.833
X21.976 Z-54.839
X22.107 Z-54.871
X22.241 Z-54.848
G3 X280.552 Z-2.769 I268.061 K-662.928
G1 X286.171 Z-2.717
G3 X494.166 Z-32.567 I3.645 K-714.182
X557.76 Z-54.85 I-201.292 K-676.348
G1 X557.893 Z-54.873
X558.024 Z-54.84
X558.167 Z-54.807
X558.247 Y66.72
X558.296 Y66.787
Y66.871
X558.247 Y66.938
X558.167 Y66.964
X558.149
X558.006 Z-54.84
X557.875 Z-54.873
X557.741 Z-54.85
G2 X291.05 Z-2.711 I-268.005 K-662.716
G1 X285.863 Z-2.721
X280.532 Z-2.773
